; generated by PrusaSlicer 2.9.1 on 2025-03-13 at 16:01:22 UTC


;
;

;
;

;
;

;
;

;
;
; 

; external perimeters extrusion width = 0.45mm
; perimeters extrusion width = 0.45mm
; infill extrusion width = 0.45mm
; solid infill extrusion width = 0.45mm
; top infill extrusion width = 0.42mm
; first layer extrusion width = 0.50mm

M73 P0 R2
M73 Q0 S2
M201 X2500 Y2500 Z200 E2500 ; sets maximum accelerations, mm/sec^2
M203 X200 Y200 Z40 E100 ; sets maximum feedrates, mm / sec
M204 P2000 R1200 T2000 ; sets acceleration (P, T) and retract acceleration (R), mm/sec^2
M205 X8.00 Y8.00 Z2.00 E10.00 ; sets the jerk limits, mm/sec
M205 S0 T0 ; sets the minimum extruding and travel feed rate, mm/sec

M486 S0
M486 Axyz-cali-cube-by-r3d_v1.stl
M486 S-1

;TYPE:Custom
M17 ; enable steppers
M862.3 P "MK4" ; printer model check
M862.1 P0.4 A0 F0 ; nozzle check
M115 U6.1.2+7894
M555 X117.6 Y93.6 W32 H18.8

G90 ; use absolute coordinates
M83 ; extruder relative mode

M140 S60 ; set bed temp
M104 T0 S170 ; set extruder temp for bed leveling
M109 T0 R170 ; wait for temp

M84 E ; turn off E motor

G28 ; home all without mesh bed level

G1 X42 Y-4 Z5 F4800

M302 S160 ; lower cold extrusion limit to 160C


G1 E-2 F2400 ; retraction


M84 E ; turn off E motor

G29 P9 X10 Y-4 W32 H4

M106 S100

G0 Z40 F10000

M190 S60 ; wait for bed temp

M107

;
; MBL
;
M84 E ; turn off E motor
G29 P1 ; invalidate mbl & probe print area
G29 P1 X0 Y0 W50 H20 C ; probe near purge place
G29 P3.2 ; interpolate mbl probes
G29 P3.13 ; extrapolate mbl outside probe area
G29 A ; activate mbl

; prepare for purge
M104 S215
G0 X0 Y-4 Z15 F4800 ; move away and ready for the purge
M73 P1 R2
M73 Q1 S2
M109 S215

G92 E0
M569 S0 E ; set spreadcycle mode for extruder

;
; Extrude purge line
;
G92 E0 ; reset extruder position
G1 E2 F2400 ; deretraction after the initial one before nozzle cleaning
G0 E7 X15 Z0.2 F500 ; purge
G0 X25 E4 F500 ; purge
M73 P3 R2
M73 Q3 S2
G0 X35 E4 F650 ; purge
M73 P4 R2
M73 Q4 S2
G0 X45 E4 F800 ; purge
M73 P5 R2
M73 Q5 S2
G0 X48 Z0.05 F8000 ; wipe, move close to the bed
G0 X51 Z0.2 F8000 ; wipe, move quickly away from the bed
M73 P6 R2
M73 Q6 S2

G92 E0
M221 S100 ; set flow to 100%
M75
G21 ; set units to millimeters
G90 ; use absolute coordinates
M83 ; use relative distances for extrusion
M900 K0.05 ; Filament gcode



M142 S36 ; set heatbreak target temp
M107
;LAYER_CHANGE
;Z:0.2
;HEIGHT:0.2
G1 E-.8 F2100
G1 Z.8 F720
G1 X119.294 Y99.844 F12000
G1 Z.2 F720
G1 E.8 F1500
M204 P600
;TYPE:Skirt/Brim
;WIDTH:0.5
G1 F1200
G3 X121.888 Y98.313 I3.458 J2.894 E.11672
G1 X128.097 Y98.31 E.23598
G1 X128.698 Y98.467 E.02361
M73 P7 R2
M73 Q7 S2
G3 X131.687 Y101.887 I-1.488 J4.317 E.18068
G1 X131.743 Y107.625 E.21809
G3 X127.764 Y111.729 I-4.473 J-.355 E.23554
G1 X122.322 Y111.738 E.20683
G3 X118.271 Y107.764 I.407 J-4.467 E.23351
M73 P8 R2
M73 Q8 S2
G1 X118.262 Y102.322 E.20683
G3 X119.256 Y99.89 I4.49 J.416 E.10132
M204 P1000
G1 X119.609 Y100.178 F12000
M204 P600
G1 F1200
G3 X121.98 Y98.761 I3.137 J2.556 E.10713
G1 X128.011 Y98.759 E.22922
G3 X131.238 Y101.979 I-.779 J4.009 E.18382
M73 P9 R2
M73 Q9 S2
G1 X131.285 Y107.605 E.21383
G3 X127.696 Y111.277 I-4.011 J-.331 E.21163
G1 X122.388 Y111.285 E.20174
G3 X118.723 Y107.696 I.338 J-4.011 E.21137
G1 X118.715 Y102.388 E.20174
G3 X119.572 Y100.225 I4.031 J.346 E.08969
M73 P10 R2
M73 Q10 S2
M204 P1000
G1 X119.93 Y100.508 F12000
M204 P600
G1 F1200
G3 X122.071 Y99.21 I2.81 J2.221 E.09721
G1 X127.924 Y99.209 E.22245
G1 X128.411 Y99.335 E.01912
G3 X130.79 Y102.07 I-1.184 J3.431 E.14425
M73 P10 R1
M73 Q10 S1
G1 X130.828 Y107.585 E.20961
G3 X127.631 Y110.824 I-3.55 J-.307 E.18761
M73 P11 R1
M73 Q11 S1
G1 X122.41 Y110.828 E.19843
G3 X119.176 Y107.631 I.312 J-3.55 E.18743
G1 X119.172 Y102.41 E.19843
G3 X119.893 Y100.555 I3.568 J.319 E.07665
M204 P1000
G1 X120.255 Y100.832 F12000
M204 P600
G1 F1200
G3 X122.159 Y99.66 I2.478 J1.892 E.08691
G1 X127.838 Y99.659 E.21584
G3 X130.34 Y102.158 I-.588 J3.091 E.14272
M73 P12 R1
M73 Q12 S1
G1 X130.371 Y107.564 E.20547
G3 X127.568 Y110.371 I-3.089 J-.282 E.16357
G1 X122.433 Y110.371 E.19516
G3 X119.629 Y107.568 I.286 J-3.09 E.16346
G1 X119.629 Y102.433 E.19516
G3 X120.219 Y100.88 I3.104 J.291 E.06391
M73 P13 R1
M73 Q13 S1
M204 P1000
G1 X120.587 Y101.15 F12000
M204 P600
G1 F1200
G3 X122.245 Y100.109 I2.14 J1.569 E.0762
G1 X127.754 Y100.109 E.20938
G1 X128.122 Y100.202 E.01443
G3 X129.891 Y102.245 I-.878 J2.547 E.10759
G1 X129.914 Y107.543 E.20136
G3 X127.546 Y109.914 I-2.627 J-.256 E.13798
G1 X122.455 Y109.914 E.19349
G3 X120.086 Y107.546 I.258 J-2.627 E.13791
M73 P14 R1
M73 Q14 S1
G1 X120.086 Y102.455 E.19349
G3 X120.552 Y101.198 I2.641 J.264 E.05151
M204 P1000
G1 X120.926 Y101.46 F12000
M204 P600
G1 F1200
G3 X122.328 Y100.559 I1.795 J1.255 E.06498
G1 X127.672 Y100.559 E.20311
G3 X129.441 Y102.328 I-.405 J2.174 E.10106
G1 X129.457 Y107.522 E.19741
G3 X127.522 Y109.457 I-2.165 J-.23 E.11246
M73 P15 R1
M73 Q15 S1
G1 X122.478 Y109.457 E.1917
G3 X120.543 Y107.522 I.231 J-2.165 E.11246
G1 X120.543 Y102.478 E.1917
G3 X120.892 Y101.509 I2.178 J.237 E.03951
M204 P1000
G1 X121.272 Y101.76 F12000
M204 P600
G1 F1200
G3 X122.407 Y101.01 I1.444 J.951 E.05314
G1 X127.806 Y101.061 E.20521
G3 X128.99 Y102.407 I-.543 J1.671 E.0715
M73 P16 R1
M73 Q16 S1
G1 X129 Y107.5 E.19357
G3 X127.5 Y109 I-1.706 J-.206 E.0869
G1 X122.5 Y109 E.19003
G3 X121 Y107.5 I.206 J-1.706 E.0869
G1 X121 Y102.5 E.19003
G3 X121.24 Y101.811 I1.716 J.211 E.02794
M204 P1000
G1 X121.629 Y102.048 F12000
M204 P600
G1 F1200
G3 X122.481 Y101.462 I1.083 J.661 E.04048
G1 X127.519 Y101.462 E.19148
G3 X128.538 Y102.481 I-.238 J1.257 E.05818
M73 P17 R1
M73 Q17 S1
G1 X128.543 Y107.477 E.18988
G3 X127.477 Y108.543 I-1.248 J-.182 E.06141
G1 X122.523 Y108.543 E.18828
G3 X121.457 Y107.477 I.182 J-1.248 E.06141
G1 X121.457 Y102.523 E.18828
G3 X121.599 Y102.1 I1.255 J.186 E.01705
M204 P1000
G1 X121.998 Y102.32 F12000
M204 P600
G1 F1200
G3 X122.545 Y101.914 I.716 J.394 E.02671
G1 X127.499 Y101.923 E.18828
G3 X128.086 Y102.545 I-.22 J.795 E.03417
M73 P18 R1
M73 Q18 S1
G1 X128.086 Y107.455 E.18661
G3 X127.455 Y108.086 I-.8 J-.169 E.03588
G1 X122.545 Y108.086 E.18661
G3 X121.914 Y107.455 I.169 J-.8 E.03588
G1 X121.914 Y102.545 E.18661
G3 X121.971 Y102.373 I.8 J.169 E.0069
M204 P1000
G1 X122.406 Y102.529 F12000
M204 P600
G1 F1200
G1 X122.613 Y102.371 E.0099
G1 X127.387 Y102.371 E.18144
G1 X127.629 Y102.613 E.01301
G1 X127.594 Y107.471 E.18464
G1 X127.387 Y107.629 E.0099
M73 P19 R1
M73 Q19 S1
G1 X122.529 Y107.594 E.18464
G1 X122.371 Y107.387 E.0099
G1 X122.406 Y102.589 E.18236
M204 P1000
G1 E-.64 F2100
;WIPE_START
G1 F9600
G1 X122.406 Y102.529 E-.01247
G1 X122.613 Y102.371 E-.05412
G1 X123.062 Y102.371 E-.09341
;WIPE_END
M486 S0
G1 X126.593 Y106.593 Z.296 F12000
G1 Z.2 F720
G1 E.8 F1500
M204 P600
;TYPE:Perimeter
;WIDTH:0.499999
G1 F1200
G1 X123.407 Y106.593 E.12109
G1 X123.407 Y103.407 E.12109
G1 X126.593 Y103.407 E.12109
G1 X126.593 Y105 E.06054
M73 P20 R1
M73 Q20 S1
G1 X126.593 Y106.533 E.05826
M204 P1000
G1 X127.05 Y107.05 F12000
M204 P600
;TYPE:External perimeter
G1 F1200
G1 X122.95 Y107.05 E.15583
G1 X122.95 Y102.95 E.15583
G1 X127.05 Y102.95 E.15583
G1 X127.05 Y105 E.07791
G1 X127.05 Y106.99 E.07563
M204 P1000
G1 E-.64 F2100
;WIPE_START
G1 F9600
G1 X127.05 Y107.05 E-.01247
G1 X126.34 Y107.05 E-.14753
;WIPE_END
G1 X125.375 Y103.613 Z.262 F12000
G1 Z.2 F720
M73 Q21 S1
G1 E.8 F1500
M73 P21 R1
M204 P600
;TYPE:Solid infill
;WIDTH:0.541461
G1 F1200
G1 X126.182 Y104.419 E.04728
G1 X126.182 Y105.124 E.02922
G1 X124.876 Y103.818 E.07656
G1 X124.171 Y103.818 E.02922
G1 X126.182 Y105.829 E.11789
G1 X126.182 Y106.182 E.01463
G1 X125.829 Y106.182 E.01463
G1 X123.818 Y104.171 E.11789
G1 X123.818 Y104.876 E.02922
G1 X125.124 Y106.182 E.07656
G1 X124.419 Y106.182 E.02922
G1 X123.613 Y105.375 E.04728
M204 P1000
M106 S127.5
;LAYER_CHANGE
;Z:0.4
;HEIGHT:0.2
;BEFORE_LAYER_CHANGE
G92 E0.0
;0.4


G1 E-.64 F2100
;WIPE_START
G1 F9600
G1 X124.157 Y105.919 E-.16
;WIPE_END
G1 X124.157 Y105.919 Z.2 F12000
G1 X126.868 Y106.868 Z.4 F10365.025
;AFTER_LAYER_CHANGE
;0.4
M104 S210 ; set temperature
G1 X126.868 Y106.868 F12000
G1 Z.4 F720
G1 E.8 F1500
;TYPE:Perimeter
;WIDTH:0.449999
G1 F900
G1 X123.132 Y106.868 E.12646
G1 X123.132 Y103.132 E.12646
M73 P22 R1
M73 Q22 S1
G1 X126.868 Y103.132 E.12646
G1 X126.868 Y106.808 E.12443
G1 X127.275 Y107.275 F12000
M204 P800
;TYPE:External perimeter
G1 F900
G1 X126.6 Y107.275 E.02285
G1 X123.4 Y107.275 E.10832
G1 X122.725 Y107.275 E.02285
G1 X122.725 Y106.6 E.02285
G1 X122.725 Y103.4 E.10832
G1 X122.725 Y102.725 E.02285
M73 P23 R1
M73 Q23 S1
G1 X123.4 Y102.725 E.02285
G1 X126.6 Y102.725 E.10832
G1 X127.275 Y102.725 E.02285
G1 X127.275 Y107.215 E.15198
M204 P1000
G1 E-.64 F2100
;WIPE_START
G1 F9600
G1 X127.275 Y107.275 E-.01247
G1 X126.6 Y107.275 E-.14027
G1 X126.565 Y107.275 E-.00726
;WIPE_END
G1 X123.609 Y103.531 Z.483 F12000
G1 Z.4 F720
G1 E.8 F1500
M204 P1500
;TYPE:Solid infill
;WIDTH:0.548766
G1 F900
G2 X123.593 Y103.593 I-.058 J.018 E.01318
;WIDTH:0.449999
G1 X123.498 Y104.243 E.02224
G1 X124.243 Y103.498 E.03566
G1 X124.818 Y103.498 E.01946
G1 X123.498 Y104.818 E.06319
G1 X123.498 Y105.394 E.0195
G1 X125.394 Y103.498 E.09076
G1 X125.97 Y103.498 E.0195
M73 P24 R1
M73 Q24 S1
G1 X123.498 Y105.97 E.11833
G1 X123.542 Y106.502 E.01807
G1 X126.502 Y103.542 E.14169
G1 X126.502 Y106.502 E.10019
G1 X124.118 Y106.502 E.0807
G1 X126.358 Y104.262 E.10723
M204 P1000
G1 X126.051 Y105.207 F12000
M204 P1500
;WIDTH:0.53746
G1 F900
M73 Q25 S1
G1 X126.051 Y106.051 E.03471
G1 X125.207 Y106.051 E.03471
M73 P25 R1
G1 X125.907 Y105.35 E.04074
M204 P1000
M106 S255
;LAYER_CHANGE
;Z:0.6
;HEIGHT:0.2
;BEFORE_LAYER_CHANGE
G92 E0.0
;0.6


G1 E-.64 F2100
;WIPE_START
G1 F9600
G1 X125.363 Y105.895 E-.16
;WIPE_END
G1 X125.363 Y105.895 Z.4 F12000
G1 X126.868 Y106.868 Z.6 F6491.394
;AFTER_LAYER_CHANGE
;0.6
G1 X126.868 Y106.868 F12000
G1 Z.6 F720
G1 E.8 F1500
;TYPE:Perimeter
;WIDTH:0.449999
G1 F900
G1 X123.132 Y106.868 E.12646
G1 X123.132 Y103.132 E.12646
G1 X126.868 Y103.132 E.12646
G1 X126.868 Y106.808 E.12443
G1 X127.275 Y107.275 F12000
M73 Q26 S1
M204 P800
;TYPE:External perimeter
G1 F900
M73 P26 R1
G1 X122.725 Y107.275 E.15401
G1 X122.725 Y102.725 E.15401
G1 X127.275 Y102.725 E.15401
G1 X127.275 Y107.215 E.15198
M204 P1000
G1 E-.64 F2100
;WIPE_START
G1 F9600
G1 X127.275 Y107.275 E-.01247
G1 X126.565 Y107.275 E-.14753
;WIPE_END
G1 X123.531 Y106.391 Z.655 F12000
M73 Q27 S1
G1 Z.6 F720
M73 P27 R1
G1 E.8 F1500
M204 P1500
;TYPE:Solid infill
;WIDTH:0.548766
G1 F900
G2 X123.593 Y106.407 I.018 J.058 E.01318
;WIDTH:0.449999
G1 X123.498 Y105.757 E.02224
G1 X124.243 Y106.502 E.03566
G1 X124.818 Y106.502 E.01946
G1 X123.498 Y105.182 E.06319
G1 X123.498 Y104.606 E.0195
G1 X125.394 Y106.502 E.09076
G1 X125.97 Y106.502 E.0195
G1 X123.498 Y104.03 E.11833
G1 X123.542 Y103.498 E.01807
G1 X126.502 Y106.458 E.14169
M204 P1000
G1 E-.64 F2100
;WIPE_START
G1 F9600
G1 X125.958 Y105.914 E-.16
;WIPE_END
G1 X124.262 Y103.642 Z.649 F12000
G1 Z.6 F720
M73 P28 R1
M73 Q28 S1
G1 E.8 F1500
M204 P1500
G1 F900
G1 X126.502 Y105.882 E.10723
G1 X126.502 Y103.498 E.0807
G1 X124.118 Y103.498 E.0807
M204 P1000
G1 X125.207 Y103.949 F12000
M204 P1500
;WIDTH:0.537458
G1 F900
G1 X126.051 Y103.949 E.03471
G1 X126.051 Y104.793 E.03471
G1 X125.35 Y104.093 E.04074
M204 P1000
;LAYER_CHANGE
;Z:0.8
;HEIGHT:0.2
;BEFORE_LAYER_CHANGE
G92 E0.0
;0.8


G1 E-.64 F2100
;WIPE_START
G1 F9600
G1 X125.895 Y104.637 E-.16
;WIPE_END
G1 X125.895 Y104.637 Z.6 F12000
G1 X126.868 Y106.868 Z.8 F8791.415
;AFTER_LAYER_CHANGE
;0.8
G1 X126.868 Y106.868 F12000
G1 Z.8 F720
G1 E.8 F1500
;TYPE:Perimeter
;WIDTH:0.449999
G1 F900
G1 X123.132 Y106.868 E.12646
G1 X123.132 Y103.132 E.12646
G1 X126.868 Y103.132 E.12646
M73 P29 R1
M73 Q29 S1
G1 X126.868 Y106.808 E.12443
G1 X127.275 Y107.275 F12000
M204 P800
;TYPE:External perimeter
G1 F900
G1 X122.725 Y107.275 E.15401
G1 X122.725 Y102.725 E.15401
G1 X127.275 Y102.725 E.15401
M73 Q30 S1
G1 X127.275 Y107.215 E.15198
M73 P30 R1
M204 P1000
G1 E-.64 F2100
;WIPE_START
G1 F9600
G1 X127.275 Y107.275 E-.01247
G1 X126.565 Y107.275 E-.14753
;WIPE_END
G1 X123.609 Y103.531 Z.883 F12000
G1 Z.8 F720
G1 E.8 F1500
M204 P1500
;TYPE:Solid infill
;WIDTH:0.548766
G1 F900
G2 X123.593 Y103.593 I-.058 J.018 E.01318
;WIDTH:0.449999
G1 X123.498 Y104.243 E.02224
G1 X124.243 Y103.498 E.03566
G1 X124.818 Y103.498 E.01946
G1 X123.498 Y104.818 E.06319
G1 X123.498 Y105.394 E.0195
G1 X125.394 Y103.498 E.09076
G1 X125.97 Y103.498 E.0195
M73 P31 R1
M73 Q31 S1
G1 X123.498 Y105.97 E.11833
G1 X123.542 Y106.502 E.01807
G1 X126.502 Y103.542 E.14169
G1 X126.502 Y106.502 E.10019
G1 X124.118 Y106.502 E.0807
G1 X126.358 Y104.262 E.10723
M204 P1000
G1 X126.051 Y105.207 F12000
M204 P1500
;WIDTH:0.53746
G1 F900
G1 X126.051 Y106.051 E.03471
G1 X125.207 Y106.051 E.03471
G1 X125.907 Y105.35 E.04074
M73 Q32 S1
M204 P1000
;LAYER_CHANGE
;Z:1
;HEIGHT:0.2
;BEFORE_LAYER_CHANGE
G92 E0.0
;1


G1 E-.64 F2100
M73 P32 R1
;WIPE_START
G1 F9600
G1 X125.363 Y105.895 E-.16
;WIPE_END
G1 X125.363 Y105.895 Z.8 F12000
G1 X126.868 Y106.868 Z1 F6491.394
;AFTER_LAYER_CHANGE
;1
G1 X126.868 Y106.868 F12000
G1 Z1 F720
G1 E.8 F1500
;TYPE:Perimeter
;WIDTH:0.449999
G1 F900
G1 X123.132 Y106.868 E.12646
G1 X123.132 Y105.823 E.03537
G1 X123.266 Y105.755 E.00509
G1 X123.382 Y105.396 E.01277
G1 X123.382 Y105.214 E.00616
G1 X123.376 Y104.518 E.02356
G1 X123.246 Y104.22 E.011
G1 X123.132 Y104.165 E.00428
G1 X123.132 Y103.175 E.03351
G1 X123.507 Y103.382 E.0145
G1 X124.066 Y103.382 E.01892
G1 X124.345 Y103.315 E.00971
G1 X124.47 Y103.132 E.0075
G1 X125.515 Y103.132 E.03537
G1 X125.611 Y103.299 E.00652
G1 X125.919 Y103.382 E.0108
G1 X126.493 Y103.382 E.01943
G1 X126.868 Y103.175 E.0145
G1 X126.868 Y104.31 E.03842
G1 X126.742 Y104.372 E.00475
G1 X126.626 Y104.645 E.01004
G1 X126.618 Y105.214 E.01926
G1 X126.723 Y105.557 E.01214
G1 X126.868 Y105.634 E.00556
G1 X126.868 Y106.808 E.03974
G1 X127.275 Y107.275 F12000
M204 P800
;TYPE:External perimeter
G1 F900
M73 Q33 S1
G1 X122.725 Y107.275 E.15401
G1 X122.725 Y105.646 E.05514
M73 P33 R1
G1 X122.936 Y105.516 E.00839
G1 X122.975 Y105.396 E.00427
G1 X122.975 Y104.604 E.02681
G1 X122.93 Y104.476 E.00459
G1 X122.725 Y104.4 E.0074
G1 X122.725 Y102.725 E.0567
G1 X123.304 Y102.725 E.0196
G1 X123.335 Y102.88 E.00535
G1 X123.507 Y102.975 E.00665
G1 X123.646 Y102.975 E.0047
G1 X124.159 Y102.953 E.01738
G1 X124.27 Y102.725 E.00858
G1 X125.669 Y102.725 E.04735
G1 X125.816 Y102.947 E.00901
G1 X125.919 Y102.975 E.00361
G1 X126.493 Y102.975 E.01943
G1 X126.666 Y102.88 E.00668
G1 X126.697 Y102.725 E.00535
G1 X127.275 Y102.725 E.01956
G1 X127.275 Y104.491 E.05978
G1 X127.066 Y104.618 E.00828
G1 X127.028 Y104.709 E.00334
G1 X127.025 Y105.214 E.01709
G1 X127.06 Y105.329 E.00407
G1 X127.275 Y105.418 E.00788
G1 X127.275 Y107.215 E.06083
M204 P1000
G1 E-.64 F2100
M73 Q34 S1
;WIPE_START
G1 F9600
M73 P34 R1
G1 X127.275 Y107.275 E-.01247
G1 X126.565 Y107.275 E-.14753
;WIPE_END
G1 X126.265 Y104.578 Z1.047 F12000
G1 Z1 F720
G1 E.8 F1500
M204 P2000
;TYPE:Internal infill
;WIDTH:0.45
G1 F900
G2 X126.42 Y105.784 I2.231 J.328 E.04167
G1 X126.502 Y105.827 E.00313
G1 X126.502 Y106.502 E.02285
G1 X123.748 Y103.748 E.13183
G2 X124.588 Y103.607 I.172 J-1.537 E.02921
G1 X124.65 Y103.498 E.00424
G1 X125.335 Y103.498 E.02319
G2 X125.909 Y103.748 I.519 J-.409 E.02207
G1 X126.252 Y103.748 E.01161
G1 X123.498 Y106.502 E.13183
G1 X123.498 Y106.023 E.01621
G1 X123.565 Y105.989 E.00254
G2 X123.743 Y104.571 I-2.657 J-1.054 E.04889
M204 P1000
;LAYER_CHANGE
;Z:1.2
;HEIGHT:0.2
;BEFORE_LAYER_CHANGE
G92 E0.0
;1.2


G1 E-.64 F2100
;WIPE_START
G1 F9600
G3 X123.737 Y105.339 I-2.835 J.363 E-.16
;WIPE_END
G1 X123.737 Y105.339 Z1 F12000
G1 X126.868 Y106.868 Z1.2
;AFTER_LAYER_CHANGE
;1.2
G1 X126.868 Y106.868
G1 Z1.2 F720
G1 E.8 F1500
;TYPE:Perimeter
;WIDTH:0.449999
G1 F900
M73 P35 R1
M73 Q35 S1
G1 X123.132 Y106.868 E.12646
G1 X123.132 Y105.823 E.03537
G1 X123.266 Y105.755 E.00509
G1 X123.382 Y105.396 E.01277
G1 X123.382 Y105.214 E.00616
G1 X123.379 Y104.539 E.02285
