; generated by PrusaSlicer 2.9.1 on 2025-03-13 at 16:02:30 UTC

; 

; external perimeters extrusion width = 0.42mm
; perimeters extrusion width = 0.44mm
; infill extrusion width = 0.44mm
; solid infill extrusion width = 0.44mm
; top infill extrusion width = 0.40mm
; first layer extrusion width = 0.42mm

M201 X500 Y500 Z100 E5000 ; sets maximum accelerations, mm/sec^2
M203 X500 Y500 Z10 E60 ; sets maximum feedrates, mm / sec
M204 S500 T1000 ; sets acceleration (S) and retract acceleration (R), mm/sec^2
M205 X8.00 Y8.00 Z0.40 E5.00 ; sets the jerk limits, mm/sec
M205 S0 T0 ; sets the minimum extruding and travel feed rate, mm/sec

; printing object xyz-cali-cube-by-r3d_v1.stl id:0 copy 0
; stop printing object xyz-cali-cube-by-r3d_v1.stl id:0 copy 0

;TYPE:Custom
G90 ; use absolute coordinates
M83 ; extruder relative mode
M104 S150 ; set temporary nozzle temp to prevent oozing during homing
M140 S60 ; set final bed temp
G4 S30 ; allow partial nozzle warmup
G28 ; home all axis
G1 Z50 F240
G1 X2.0 Y10 F3000
M104 S210 ; set final nozzle temp
M190 S60 ; wait for bed temp to stabilize
M109 S210 ; wait for nozzle temp to stabilize
G1 Z0.28 F240
G92 E0
G1 X2.0 Y140 E10 F1500 ; prime the nozzle
G1 X2.3 Y140 F5000
G92 E0
G1 X2.3 Y10 E10 F1200 ; prime the nozzle
G92 E0
G21 ; set units to millimeters
G90 ; use absolute coordinates
M83 ; use relative distances for extrusion
; Filament gcode
M107
;LAYER_CHANGE
;Z:0.2
;HEIGHT:0.2
G1 E-5 F3600
G1 Z.2 F9000
G1 X115.079 Y98.008
G1 Z.2
G1 E5 F2400
M204 S500
;TYPE:Skirt/Brim
;WIDTH:0.42
G1 F1200
G1 X118.008 Y95.079 E.12988
G1 X119.439 Y94.205 E.05257
G1 X120.529 Y94.034 E.03459
G1 X129.471 Y94.034 E.28037
G1 X131.101 Y94.429 E.05259
G1 X131.992 Y95.079 E.03458
G1 X134.921 Y98.008 E.12988
G1 X135.795 Y99.439 E.05257
G1 X135.966 Y100.529 E.03459
G1 X135.966 Y109.471 E.28037
G1 X135.571 Y111.101 E.05259
G1 X134.921 Y111.992 E.03458
G1 X131.992 Y114.921 E.12988
G1 X130.561 Y115.795 E.05257
G1 X129.471 Y115.966 E.03459
G1 X120.529 Y115.966 E.28037
G1 X118.899 Y115.571 E.05259
G1 X118.008 Y114.921 E.03458
G1 X115.079 Y111.992 E.12988
G1 X114.205 Y110.561 E.05257
G1 X114.034 Y109.471 E.03459
G1 X114.034 Y100.529 E.28037
G1 X114.429 Y98.899 E.05259
G1 X115.043 Y98.056 E.0327
G1 X115.341 Y98.28 F9000
G1 F1200
G1 X115.345 Y98.274 E.00023
G1 X118.274 Y95.345 E.12988
G1 X119.638 Y94.538 E.04969
G1 X120.529 Y94.411 E.02822
G1 X129.471 Y94.411 E.28037
G1 X131.006 Y94.805 E.04969
G1 X131.726 Y95.345 E.02822
G1 X134.655 Y98.274 E.12988
G1 X135.462 Y99.638 E.04969
G1 X135.589 Y100.529 E.02822
G1 X135.589 Y109.471 E.28037
G1 X135.195 Y111.006 E.04969
G1 X134.655 Y111.726 E.02822
G1 X131.726 Y114.655 E.12988
G1 X130.362 Y115.462 E.04969
G1 X129.471 Y115.589 E.02822
G1 X120.529 Y115.589 E.28037
G1 X118.994 Y115.195 E.04969
G1 X118.274 Y114.655 E.02822
G1 X115.345 Y111.726 E.12988
G1 X114.538 Y110.362 E.04969
G1 X114.411 Y109.471 E.02822
G1 X114.411 Y100.529 E.28037
G1 X114.805 Y98.994 E.04969
G1 X115.305 Y98.328 E.02611
G1 E-3.5 F3600
;WIPE_START
G1 F7200
G1 X115.341 Y98.28 E-.0285
G1 X115.345 Y98.274 E-.00343
G1 X117.531 Y96.089 E-1.46807
;WIPE_END
G1 X118.604 Y100.032 F9000
G1 E5 F2400
G1 F1200
G1 X120.028 Y98.606 E.06319
G1 X120.826 Y98.199 E.02809
G1 X121.704 Y97.941 E.02869
G1 X128.153 Y97.92 E.2022
G1 X128.98 Y98.122 E.02669
G1 X129.755 Y98.472 E.02666
G1 X130.952 Y99.48 E.04907
G1 X131.612 Y100.41 E.03576
G1 X132.017 Y101.482 E.03593
G1 X132.115 Y107.894 E.20107
G1 X131.816 Y109.131 E.0399
G1 X131.396 Y109.968 E.02936
G1 X129.968 Y111.396 E.06332
G1 X129.132 Y111.815 E.02932
G1 X127.955 Y112.108 E.03803
G1 X122.09 Y112.113 E.18389
G1 X120.867 Y111.815 E.03947
G1 X120.032 Y111.396 E.02929
G1 X118.604 Y109.968 E.06332
G1 X118.185 Y109.132 E.02932
G1 X117.892 Y107.955 E.03803
G1 X117.887 Y102.09 E.18389
G1 X118.185 Y100.867 E.03947
G1 X118.577 Y100.085 E.02743
G1 X118.913 Y100.256 F9000
G1 F1200
G1 X118.927 Y100.229 E.00095
G1 X120.227 Y98.928 E.05767
G1 X120.949 Y98.556 E.02547
G1 X121.785 Y98.31 E.02732
G1 X128.087 Y98.292 E.1976
G1 X128.841 Y98.473 E.02431
G1 X129.576 Y98.804 E.02527
G1 X130.689 Y99.751 E.04582
G1 X131.289 Y100.606 E.03275
G1 X131.652 Y101.582 E.03265
G1 X131.737 Y107.874 E.1973
G1 X131.455 Y109.019 E.03697
G1 X131.073 Y109.771 E.02645
G1 X129.771 Y111.073 E.05773
G1 X129.02 Y111.455 E.02642
G1 X127.886 Y111.736 E.03663
G1 X122.114 Y111.736 E.18098
G1 X120.98 Y111.455 E.03663
G1 X120.229 Y111.073 E.02642
G1 X118.927 Y109.771 E.05773
G1 X118.545 Y109.02 E.02642
G1 X118.264 Y107.886 E.03663
G1 X118.264 Y102.114 E.18098
G1 X118.545 Y100.98 E.03663
G1 X118.886 Y100.309 E.0236
G1 X119.221 Y100.482 F9000
G1 F1200
G1 X119.248 Y100.428 E.00189
G1 X120.427 Y99.249 E.05228
G1 X121.074 Y98.912 E.02287
G1 X121.866 Y98.679 E.02588
G1 X128.021 Y98.664 E.19299
G1 X128.735 Y98.835 E.02302
G1 X129.394 Y99.136 E.02272
G1 X130.425 Y100.021 E.0426
G1 X130.944 Y100.76 E.02831
G1 X131.287 Y101.683 E.03087
G1 X131.36 Y107.853 E.19347
G1 X131.095 Y108.905 E.03402
G1 X130.752 Y109.572 E.02352
G1 X129.572 Y110.752 E.05232
G1 X128.906 Y111.095 E.02349
G1 X127.862 Y111.359 E.03376
G1 X122.138 Y111.359 E.17947
G1 X121.094 Y111.095 E.03376
G1 X120.428 Y110.752 E.02349
G1 X119.248 Y109.572 E.05232
G1 X118.905 Y108.906 E.02349
G1 X118.641 Y107.862 E.03376
G1 X118.641 Y102.138 E.17947
G1 X118.905 Y101.094 E.03376
G1 X119.193 Y100.535 E.01972
G1 X119.527 Y100.709 F9000
G1 F1200
G1 X119.569 Y100.629 E.00283
G1 X120.628 Y99.569 E.04698
G1 X121.199 Y99.268 E.02024
G1 X121.946 Y99.049 E.02441
G1 X127.957 Y99.036 E.18847
G1 X128.596 Y99.186 E.02058
G1 X129.212 Y99.467 E.02123
G1 X130.159 Y100.29 E.03934
G1 X130.62 Y100.954 E.02534
G1 X130.922 Y101.781 E.0276
G1 X130.983 Y107.832 E.18973
G1 X130.736 Y108.789 E.03099
G1 X130.431 Y109.371 E.0206
G1 X129.371 Y110.431 E.047
G1 X128.789 Y110.735 E.02059
G1 X127.838 Y110.982 E.03081
G1 X122.162 Y110.982 E.17797
G1 X121.211 Y110.735 E.03081
G1 X120.629 Y110.431 E.02059
G1 X119.569 Y109.371 E.047
G1 X119.265 Y108.789 E.02059
G1 X119.018 Y107.838 E.03081
G1 X119.018 Y102.162 E.17797
G1 X119.265 Y101.211 E.03081
G1 X119.499 Y100.762 E.01588
G1 X119.831 Y100.939 F9000
G1 F1200
G1 X119.888 Y100.831 E.00383
G1 X120.831 Y99.888 E.04181
G1 X121.324 Y99.625 E.01752
G1 X122.027 Y99.418 E.02298
G1 X127.892 Y99.408 E.18389
G1 X128.491 Y99.549 E.01929
G1 X129.029 Y99.797 E.01857
G1 X129.892 Y100.557 E.03606
G1 X130.295 Y101.146 E.02238
G1 X130.556 Y101.877 E.02434
G1 X130.605 Y107.809 E.186
G1 X130.377 Y108.67 E.02793
G1 X130.112 Y109.169 E.01772
G1 X129.169 Y110.112 E.04181
G1 X128.671 Y110.377 E.01769
G1 X127.813 Y110.605 E.02784
G1 X122.187 Y110.605 E.1764
G1 X121.329 Y110.377 E.02784
G1 X120.831 Y110.112 E.01769
G1 X119.888 Y109.169 E.04181
G1 X119.623 Y108.671 E.01769
G1 X119.395 Y107.813 E.02784
G1 X119.395 Y102.187 E.1764
G1 X119.623 Y101.329 E.02784
G1 X119.802 Y100.992 E.01196
G1 X120.132 Y101.171 F9000
G1 F1200
G1 X120.206 Y101.035 E.00485
G1 X121.035 Y100.206 E.03676
G1 X121.45 Y99.981 E.0148
G1 X122.108 Y99.787 E.02151
G1 X127.829 Y99.78 E.17938
G1 X128.351 Y99.899 E.01679
G1 X128.844 Y100.128 E.01704
G1 X129.622 Y100.821 E.03267
G1 X129.967 Y101.335 E.01941
G1 X130.19 Y101.971 E.02113
G1 X130.228 Y107.785 E.1823
G1 X130.02 Y108.549 E.02483
G1 X129.794 Y108.965 E.01484
G1 X128.965 Y109.794 E.03676
G1 X128.549 Y110.02 E.01484
G1 X127.787 Y110.228 E.02477
G1 X122.213 Y110.228 E.17477
G1 X121.451 Y110.02 E.02477
G1 X121.035 Y109.794 E.01484
G1 X120.206 Y108.965 E.03676
G1 X119.98 Y108.549 E.01484
G1 X119.772 Y107.787 E.02477
G1 X119.772 Y102.213 E.17477
G1 X119.98 Y101.451 E.02477
G1 X120.104 Y101.223 E.00814
G1 X120.432 Y101.405 F9000
G1 F1200
G1 X120.522 Y101.242 E.00584
G1 X121.242 Y100.522 E.03193
G1 X121.577 Y100.336 E.01201
G1 X122.188 Y100.157 E.01996
G1 X127.769 Y100.153 E.17499
G1 X128.211 Y100.25 E.01419
G1 X128.659 Y100.458 E.01549
G1 X129.351 Y101.084 E.02926
G1 X129.639 Y101.52 E.01638
G1 X129.823 Y102.063 E.01798
G1 X129.851 Y107.759 E.1786
G1 X129.663 Y108.424 E.02167
G1 X129.478 Y108.758 E.01197
G1 X128.758 Y109.478 E.03193
G1 X128.424 Y109.663 E.01197
G1 X127.76 Y109.851 E.02164
G1 X122.24 Y109.851 E.17308
G1 X121.576 Y109.663 E.02164
G1 X121.242 Y109.478 E.01197
G1 X120.522 Y108.758 E.03193
G1 X120.337 Y108.424 E.01197
G1 X120.149 Y107.76 E.02164
G1 X120.149 Y102.24 E.17308
G1 X120.337 Y101.576 E.02164
G1 X120.403 Y101.458 E.00424
G1 X120.78 Y101.601 F9000
G1 F1200
G1 X120.837 Y101.451 E.00503
G1 X121.451 Y100.837 E.02723
G1 X122.268 Y100.526 E.02741
G1 X127.746 Y100.53 E.17176
G1 X128.471 Y100.785 E.0241
G1 X129.076 Y101.343 E.02581
G1 X129.308 Y101.703 E.01343
G1 X129.455 Y102.151 E.01478
G1 X129.474 Y107.732 E.17499
G1 X129.163 Y108.549 E.02741
G1 X128.549 Y109.163 E.02723
G1 X127.732 Y109.474 E.02741
G1 X122.268 Y109.474 E.17132
G1 X121.451 Y109.163 E.02741
G1 X120.837 Y108.549 E.02723
G1 X120.526 Y107.732 E.02741
G1 X120.526 Y102.268 E.17132
G1 X120.758 Y101.657 E.02049
G1 X121.1 Y101.789 F9000
G1 F1200
G1 X121.148 Y101.664 E.0042
G1 X121.664 Y101.148 E.02288
G1 X122.298 Y100.903 E.02131
G1 X127.724 Y100.907 E.17013
G1 X128.282 Y101.113 E.01865
G1 X128.801 Y101.601 E.02234
G1 X129.087 Y102.24 E.02195
G1 X129.097 Y107.703 E.17129
G1 X128.852 Y108.336 E.02128
G1 X128.336 Y108.852 E.02288
G1 X127.702 Y109.097 E.02131
G1 X122.298 Y109.097 E.16944
G1 X121.664 Y108.852 E.02131
G1 X121.148 Y108.336 E.02288
G1 X120.903 Y107.702 E.02131
G1 X120.903 Y102.298 E.16944
G1 X121.078 Y101.845 E.01523
G1 X121.418 Y101.979 F9000
G1 F1200
G1 X121.456 Y101.883 E.00324
G1 X121.883 Y101.456 E.01893
G1 X122.329 Y101.28 E.01503
G1 X127.702 Y101.284 E.16847
G1 X128.092 Y101.44 E.01317
G1 X128.523 Y101.857 E.0188
G1 X128.72 Y102.329 E.01604
G1 X128.72 Y107.671 E.16749
G1 X128.544 Y108.117 E.01503
G1 X128.117 Y108.544 E.01893
G1 X127.671 Y108.72 E.01503
G1 X122.329 Y108.72 E.16749
G1 X121.883 Y108.544 E.01503
G1 X121.456 Y108.117 E.01893
G1 X121.28 Y107.671 E.01503
G1 X121.28 Y102.329 E.16749
G1 X121.396 Y102.035 E.00991
G1 X121.735 Y102.167 F9000
G1 F1200
G1 X121.757 Y102.11 E.00192
G1 X122.11 Y101.757 E.01565
G1 X122.364 Y101.657 E.00856
G1 X127.682 Y101.664 E.16674
G1 X127.9 Y101.767 E.00756
G1 X128.243 Y102.11 E.01521
G1 X128.343 Y102.364 E.00856
G1 X128.343 Y107.636 E.1653
G1 X128.243 Y107.89 E.00856
G1 X127.89 Y108.243 E.01565
G1 X127.636 Y108.343 E.00856
G1 X122.364 Y108.343 E.1653
G1 X122.11 Y108.243 E.00856
G1 X121.757 Y107.89 E.01565
G1 X121.657 Y107.636 E.00856
G1 X121.657 Y102.364 E.1653
G1 X121.713 Y102.223 E.00476
G1 X122.063 Y102.337 F9000
G1 F1200
G1 X122.406 Y102.034 E.01435
G1 X127.594 Y102.034 E.16267
G1 X127.966 Y102.406 E.0165
G1 X127.937 Y107.663 E.16483
G1 X127.594 Y107.966 E.01435
G1 X122.337 Y107.937 E.16483
G1 X122.034 Y107.594 E.01435
G1 X122.063 Y102.397 E.16295
G1 X122.411 Y102.522 F9000
G1 F1200
G1 X122.522 Y102.411 E.00492
G1 X127.478 Y102.411 E.15539
G1 X127.589 Y102.522 E.00492
G1 X127.589 Y107.478 E.15539
G1 X127.478 Y107.589 E.00492
G1 X122.522 Y107.589 E.15539
G1 X122.411 Y107.478 E.00492
G1 X122.411 Y102.582 E.15351
; printing object xyz-cali-cube-by-r3d_v1.stl id:0 copy 0
G1 X123.564 Y103.564 F9000
;TYPE:Perimeter
;WIDTH:0.419999
G1 F1200
G1 X126.436 Y103.564 E.09005
G1 X126.436 Y105 E.04502
G1 X126.436 Y106.436 E.04502
G1 X123.564 Y106.436 E.09005
G1 X123.564 Y103.624 E.08817
G1 X123.187 Y103.187 F9000
G1 F1200
G1 X126.813 Y103.187 E.11369
G1 X126.813 Y105 E.05685
G1 X126.813 Y106.813 E.05685
G1 X123.187 Y106.813 E.11369
G1 X123.187 Y103.247 E.11181
G1 X122.81 Y102.81 F9000
;TYPE:External perimeter
G1 F1200
G1 X127.19 Y102.81 E.13733
G1 X127.19 Y105 E.06867
G1 X127.19 Y107.19 E.06867
G1 X122.81 Y107.19 E.13733
G1 X122.81 Y102.87 E.13545
G1 E-3.5 F3600
;WIPE_START
G1 F7200
G1 X122.81 Y102.81 E-.0285
G1 X125.908 Y102.81 E-1.4715
;WIPE_END
G1 X126.315 Y104.448 F9000
G1 E5 F2400
;TYPE:Solid infill
;WIDTH:0.420241
G1 F1200
G1 X125.722 Y103.855 E.02631
G1 X125.188 Y103.855 E.01675
G1 X126.145 Y104.812 E.04246
G1 X126.145 Y105.345 E.01672
G1 X124.655 Y103.855 E.06611
G1 X124.121 Y103.855 E.01675
G1 X126.145 Y105.879 E.08981
G1 X126.145 Y106.145 E.00835
G1 X125.879 Y106.145 E.00835
G1 X123.855 Y104.121 E.08981
G1 X123.855 Y104.655 E.01675
G1 X125.345 Y106.145 E.06611
G1 X124.811 Y106.145 E.01675
G1 X123.855 Y105.189 E.04242
G1 X123.855 Y105.722 E.01672
G1 X124.447 Y106.315 E.02629
M106 S255
;LAYER_CHANGE
;Z:0.4
;HEIGHT:0.2
;BEFORE_LAYER_CHANGE
G92 E0
;0.4


G1 E-3.5 F3600
;WIPE_START
G1 F7200
G1 X123.855 Y105.722 E-.39801
G1 X123.855 Y105.189 E-.25318
G1 X124.811 Y106.145 E-.64219
G1 X125.246 Y106.145 E-.20662
;WIPE_END
G1 Z.4 F9000
;AFTER_LAYER_CHANGE
;0.4
M104 S205 ; set temperature
; stop printing object xyz-cali-cube-by-r3d_v1.stl id:0 copy 0
G1 Z.4
G1 X124.447 Y115.966
G1 E5 F2400
;TYPE:Skirt/Brim
;WIDTH:0.42
G1 F900
G1 X120.529 Y115.966 E.12285
G1 X118.899 Y115.571 E.05259
G1 X118.008 Y114.921 E.03458
G1 X115.079 Y111.992 E.12988
G1 X114.205 Y110.561 E.05257
G1 X114.034 Y109.471 E.03459
G1 X114.034 Y100.529 E.28037
G1 X114.429 Y98.899 E.05259
G1 X115.079 Y98.008 E.03458
G1 X118.008 Y95.079 E.12988
G1 X119.439 Y94.205 E.05257
G1 X120.529 Y94.034 E.03459
G1 X129.471 Y94.034 E.28037
G1 X131.101 Y94.429 E.05259
G1 X131.992 Y95.079 E.03458
G1 X134.921 Y98.008 E.12988
G1 X135.795 Y99.439 E.05257
G1 X135.966 Y100.529 E.03459
G1 X135.966 Y109.471 E.28037
G1 X135.571 Y111.101 E.05259
G1 X134.921 Y111.992 E.03458
G1 X131.992 Y114.921 E.12988
G1 X130.561 Y115.795 E.05257
G1 X129.471 Y115.966 E.03459
G1 X124.507 Y115.966 E.15564
G1 X124.507 Y115.589 F9000
G1 F900
G1 X120.529 Y115.589 E.12473
G1 X118.994 Y115.195 E.04969
G1 X118.274 Y114.655 E.02822
G1 X115.345 Y111.726 E.12988
G1 X114.538 Y110.362 E.04969
G1 X114.411 Y109.471 E.02822
G1 X114.411 Y100.529 E.28037
G1 X114.805 Y98.994 E.04969
G1 X115.345 Y98.274 E.02822
G1 X118.274 Y95.345 E.12988
G1 X119.638 Y94.538 E.04969
G1 X120.529 Y94.411 E.02822
G1 X129.471 Y94.411 E.28037
G1 X131.006 Y94.805 E.04969
G1 X131.726 Y95.345 E.02822
G1 X134.655 Y98.274 E.12988
G1 X135.462 Y99.638 E.04969
G1 X135.589 Y100.529 E.02822
G1 X135.589 Y109.471 E.28037
G1 X135.195 Y111.006 E.04969
G1 X134.655 Y111.726 E.02822
G1 X131.726 Y114.655 E.12988
G1 X130.362 Y115.462 E.04969
G1 X129.471 Y115.589 E.02822
G1 X124.567 Y115.589 E.15376
G1 E-3.5 F3600
;WIPE_START
G1 F7200
G1 X124.507 Y115.589 E-.0285
G1 X121.409 Y115.589 E-1.4715
;WIPE_END
; printing object xyz-cali-cube-by-r3d_v1.stl id:0 copy 0
G1 X123.494 Y106.506 F9000
G1 E5 F2400
;TYPE:Perimeter
;WIDTH:0.439999
G1 F900
G1 X123.494 Y103.494 E.09945
G1 X126.506 Y103.494 E.09945
G1 X126.506 Y105 E.04972
G1 X126.506 Y106.506 E.04972
G1 X123.554 Y106.506 E.09747
G1 X123.097 Y106.903 F9000
G1 F900
G1 X123.097 Y103.097 E.12566
G1 X126.903 Y103.097 E.12566
G1 X126.903 Y105 E.06283
G1 X126.903 Y106.903 E.06283
G1 X123.157 Y106.903 E.12368
G1 X122.71 Y107.29 F9000
;TYPE:External perimeter
;WIDTH:0.419999
G1 F900
G1 X122.71 Y102.71 E.1436
G1 X127.29 Y102.71 E.1436
G1 X127.29 Y105 E.0718
G1 X127.29 Y107.29 E.0718
G1 X122.77 Y107.29 E.14172
G1 E-3.5 F3600
;WIPE_START
G1 F7200
G1 X122.71 Y107.29 E-.0285
G1 X122.71 Y104.192 E-1.4715
;WIPE_END
G1 X123.8 Y103.8 F9000
G1 E5 F2400
;TYPE:Solid infill
;WIDTH:0.439999
G1 F900
G1 X126.2 Y103.8 E.07924
G1 X126.2 Y106.2 E.07924
G1 X123.8 Y106.2 E.07924
G1 X123.8 Y103.998 E.0727
G1 X124.197 Y104.197 E.01466
G1 X125.803 Y104.197 E.05303
G1 X125.803 Y105.803 E.05303
G1 X124.197 Y105.803 E.05303
G1 X124.197 Y104.396 E.04646
G1 X124.594 Y104.594 E.01465
G1 X125.406 Y104.594 E.02681
G1 X125.406 Y105.406 E.02681
G1 X124.594 Y105.406 E.02681
G1 X124.594 Y104.793 E.02024
G1 X125.05 Y104.987 E.01636
;WIDTH:0.457708
G1 X125.013 Y104.95 E.0018
G1 X124.963 Y104.963 E.00178
G1 X124.95 Y105.013 E.00178
G1 X124.987 Y105.05 E.0018
G1 X125.037 Y105.037 E.00178
;LAYER_CHANGE
;Z:0.6
;HEIGHT:0.2
;BEFORE_LAYER_CHANGE
G92 E0
;0.6


G1 E-3.5 F3600
;WIPE_START
G1 F7200
G1 X124.987 Y105.05 E-.02454
G1 X124.95 Y105.013 E-.02485
G1 X124.963 Y104.963 E-.02454
G1 X125.013 Y104.95 E-.02454
G1 X125.05 Y104.987 E-.02485
G1 X124.594 Y104.793 E-.23539
