; generated by PrusaSlicer 2.9.1 on 2025-03-13 at 16:01:57 UTC


;
;
; 

; external perimeters extrusion width = 0.45mm
; perimeters extrusion width = 0.45mm
; infill extrusion width = 0.45mm
; solid infill extrusion width = 0.45mm
; top infill extrusion width = 0.40mm
; first layer extrusion width = 0.42mm

M73 P0 R2
M73 Q0 S3
M201 X1000 Y1000 Z200 E5000 ; sets maximum accelerations, mm/sec^2
M203 X200 Y200 Z12 E120 ; sets maximum feedrates, mm / sec
M204 S1250 T1250 ; sets acceleration (S) and retract acceleration (R), mm/sec^2
M205 X8.00 Y8.00 Z0.40 E4.50 ; sets the jerk limits, mm/sec
M205 S0 T0 ; sets the minimum extruding and travel feed rate, mm/sec

; printing object xyz-cali-cube-by-r3d_v1.stl id:0 copy 0
; stop printing object xyz-cali-cube-by-r3d_v1.stl id:0 copy 0

;TYPE:Custom
M862.3 P "MK3" ; printer model check
M862.1 P0.4 ; nozzle diameter check
M115 U3.14.0 ; tell printer latest fw version
G90 ; use absolute coordinates
M83 ; extruder relative mode
M104 S215 ; set extruder temp
M140 S60 ; set bed temp
M190 S60 ; wait for bed temp
M109 S215 ; wait for extruder temp
G28 W ; home all without mesh bed level
G80 X114.846 Y94.8458 W20.3083 H20.3083 ; mesh bed levelling

G1 Z0.2 F720
G1 Y-3 F1000 ; go outside print area
G92 E0
G1 X60 E9 F1000 ; intro line
G1 X100 E12.5 F1000 ; intro line
M73 P2 R2
M73 Q2 S2

G92 E0
M221 S95

; Don't change E values below. Excessive value can damage the printer.

M907 E538 ; set extruder motor current
M75
G21 ; set units to millimeters
G90 ; use absolute coordinates
M83 ; use relative distances for extrusion

M900 K0.05 ; Filament gcode LA 1.5
M900 K30 ; Filament gcode LA 1.0




M107
;LAYER_CHANGE
;Z:0.2
;HEIGHT:0.2
G1 E-.8 F2100
M73 P3 R2
M73 Q3 S2
G1 Z.6 F720
G1 X115.786 Y98.773 F10800
G1 Z.2 F720
M73 Q4 S2
G1 E.8 F2100
M204 S800
;TYPE:Skirt/Brim
;WIDTH:0.42
G1 F1200
M73 P4 R2
G1 X118.773 Y95.786 E.13245
G1 X120.588 Y95.034 E.0616
G1 X129.412 Y95.034 E.27667
G1 X131.227 Y95.786 E.0616
G1 X134.214 Y98.773 E.13245
G1 X134.966 Y100.588 E.0616
G1 X134.966 Y109.412 E.27667
G1 X134.214 Y111.227 E.0616
M73 Q5 S2
G1 X131.227 Y114.214 E.13245
G1 X129.412 Y114.966 E.0616
M73 P5 R2
G1 X120.588 Y114.966 E.27667
G1 X118.773 Y114.214 E.0616
G1 X115.786 Y111.227 E.13245
G1 X115.034 Y109.412 E.0616
G1 X115.034 Y100.588 E.27667
G1 X115.763 Y98.829 E.0597
M73 Q6 S2
M204 S1000
G1 X116.052 Y99.04 F10800
M204 S800
G1 F1200
G1 X119.04 Y96.052 E.13249
G1 X120.588 Y95.411 E.05253
M73 P6 R2
G1 X129.412 Y95.411 E.27667
G1 X130.96 Y96.052 E.05253
G1 X133.948 Y99.04 E.13249
G1 X134.589 Y100.588 E.05253
G1 X134.589 Y109.412 E.27667
G1 X133.948 Y110.96 E.05253
G1 X130.96 Y113.948 E.13249
M73 Q7 S2
G1 X129.412 Y114.589 E.05253
G1 X120.588 Y114.589 E.27667
M73 P7 R2
G1 X119.04 Y113.948 E.05253
G1 X116.052 Y110.96 E.13249
G1 X115.411 Y109.412 E.05253
G1 X115.411 Y100.588 E.27667
G1 X116.03 Y99.095 E.05068
M204 S1000
;WIPE_START
G1 F8640
G1 X116.052 Y99.04 E-.01368
G1 X118.46 Y96.632 E-.78632
;WIPE_END
G1 Z.6 F720
M73 Q8 S2
G1 X118.518 Y100.334 F10800
G1 Z.2 F720
G1 E.8 F2100
M204 S800
G1 F1200
G1 X118.659 Y100.05 E.00994
G1 X119.596 Y99.019 E.04368
G1 X120.273 Y98.517 E.02643
M73 P8 R2
G1 X121.818 Y97.957 E.05153
G1 X127.945 Y97.917 E.19211
G1 X128.851 Y98.129 E.02917
G1 X129.699 Y98.505 E.02908
G1 X130.805 Y99.39 E.04441
G1 X131.573 Y100.459 E.04127
G1 X132.026 Y101.709 E.04169
G1 X132.114 Y107.702 E.18793
G1 X131.799 Y109.029 E.04276
G1 X131.341 Y109.95 E.03225
G1 X130.404 Y110.981 E.04368
G1 X129.719 Y111.489 E.02674
G1 X127.747 Y112.113 E.06485
G1 X122.282 Y112.113 E.17135
G1 X120.97 Y111.799 E.0423
M73 Q9 S2
G1 X120.05 Y111.341 E.03222
G1 X119.019 Y110.404 E.04368
M73 P9 R2
G1 X118.511 Y109.719 E.02674
G1 X117.887 Y107.747 E.06485
G1 X117.887 Y102.282 E.17135
G1 X118.201 Y100.97 E.0423
G1 X118.491 Y100.388 E.02039
M204 S1000
G1 X118.826 Y100.557 F10800
M204 S800
G1 F1200
G1 X118.984 Y100.244 E.01099
G1 X119.861 Y99.288 E.04068
G1 X120.474 Y98.837 E.02386
G1 X121.914 Y98.323 E.04794
G1 X127.882 Y98.29 E.18713
G1 X128.715 Y98.482 E.0268
G1 X129.523 Y98.84 E.02771
G1 X130.548 Y99.666 E.04127
G1 X131.25 Y100.655 E.03803
G1 X131.661 Y101.806 E.03832
G1 X131.737 Y107.683 E.18428
G1 X131.438 Y108.918 E.03984
M73 Q10 S2
G1 X131.016 Y109.756 E.02942
G1 X130.139 Y110.712 E.04068
M73 P10 R2
G1 X129.521 Y111.166 E.02404
G1 X127.718 Y111.736 E.05929
G1 X122.305 Y111.736 E.16972
G1 X121.081 Y111.438 E.0395
G1 X120.244 Y111.016 E.02939
G1 X119.288 Y110.139 E.04068
G1 X118.834 Y109.521 E.02404
G1 X118.264 Y107.718 E.05929
G1 X118.264 Y102.305 E.16972
G1 X118.562 Y101.081 E.0395
G1 X118.799 Y100.61 E.01653
M204 S1000
G1 X119.133 Y100.781 F10800
M204 S800
G1 F1200
G1 X119.307 Y100.439 E.01203
G1 X120.124 Y99.559 E.03765
G1 X120.673 Y99.159 E.0213
G1 X122.009 Y98.689 E.04441
G1 X127.818 Y98.662 E.18214
G1 X128.612 Y98.845 E.02555
M73 Q11 S2
G1 X129.345 Y99.174 E.02519
G1 X130.289 Y99.941 E.03814
G1 X130.926 Y100.85 E.0348
M73 P11 R2
G1 X131.295 Y101.901 E.03493
G1 X131.36 Y107.663 E.18067
G1 X131.077 Y108.806 E.03692
G1 X130.693 Y109.561 E.02656
G1 X129.876 Y110.441 E.03765
G1 X129.324 Y110.844 E.02143
G1 X127.689 Y111.359 E.05375
G1 X122.329 Y111.359 E.16806
G1 X121.194 Y111.077 E.03667
G1 X120.439 Y110.693 E.02656
G1 X119.559 Y109.876 E.03765
G1 X119.156 Y109.324 E.02143
G1 X118.641 Y107.689 E.05375
G1 X118.641 Y102.329 E.16806
G1 X118.923 Y101.194 E.03667
M73 Q12 S2
G1 X119.106 Y100.834 E.01266
M204 S1000
G1 X119.439 Y101.006 F10800
M204 S800
G1 F1200
G1 X119.63 Y100.636 E.01306
G1 X120.386 Y99.831 E.03463
G1 X120.87 Y99.481 E.01873
G1 X122.102 Y99.055 E.04087
G1 X127.756 Y99.035 E.17728
G1 X128.475 Y99.197 E.02311
M73 P12 R2
G1 X129.168 Y99.507 E.0238
G1 X130.028 Y100.215 E.03493
G1 X130.601 Y101.042 E.03155
G1 X130.928 Y101.994 E.03156
G1 X130.983 Y107.642 E.1771
G1 X130.717 Y108.692 E.03396
G1 X130.37 Y109.364 E.02371
G1 X129.614 Y110.169 E.03463
G1 X129.128 Y110.52 E.0188
G1 X127.661 Y110.982 E.04822
G1 X122.352 Y110.982 E.16646
G1 X121.308 Y110.717 E.03377
G1 X120.636 Y110.37 E.02371
G1 X119.831 Y109.614 E.03463
G1 X119.48 Y109.128 E.0188
G1 X119.018 Y107.661 E.04822
M73 Q13 S2
G1 X119.018 Y102.352 E.16646
G1 X119.283 Y101.308 E.03377
M73 P13 R2
G1 X119.411 Y101.059 E.00878
M204 S1000
G1 X119.742 Y101.233 F10800
M204 S800
G1 F1200
G1 X119.951 Y100.835 E.01409
G1 X120.646 Y100.104 E.03163
G1 X121.066 Y99.804 E.01618
G1 X122.194 Y99.422 E.03734
G1 X127.694 Y99.407 E.17245
G1 X128.373 Y99.56 E.02182
G1 X128.988 Y99.839 E.02117
G1 X129.766 Y100.487 E.03175
G1 X130.274 Y101.232 E.02827
G1 X130.561 Y102.085 E.02822
G1 X130.605 Y107.619 E.17352
G1 X130.358 Y108.575 E.03096
G1 X130.049 Y109.165 E.02088
G1 X129.354 Y109.896 E.03163
G1 X128.934 Y110.196 E.01618
G1 X127.632 Y110.605 E.04279
G1 X122.377 Y110.605 E.16477
G1 X121.425 Y110.358 E.03084
M73 Q14 S2
G1 X120.835 Y110.049 E.02088
G1 X120.104 Y109.354 E.03163
G1 X119.804 Y108.934 E.01618
G1 X119.395 Y107.632 E.04279
G1 X119.395 Y102.377 E.16477
G1 X119.642 Y101.425 E.03084
M73 P14 R2
G1 X119.715 Y101.286 E.00492
M204 S1000
G1 X120.044 Y101.462 F10800
M204 S800
G1 F1200
G1 X120.271 Y101.037 E.01511
G1 X120.904 Y100.38 E.02861
G1 X121.259 Y100.129 E.01363
G1 X122.283 Y99.79 E.03382
G1 X127.634 Y99.78 E.16778
G1 X128.236 Y99.912 E.01932
G1 X128.808 Y100.172 E.0197
G1 X129.502 Y100.758 E.02848
G1 X129.946 Y101.419 E.02497
G1 X130.194 Y102.174 E.02492
G1 X130.228 Y107.596 E.17001
G1 X130 Y108.456 E.0279
G1 X129.729 Y108.963 E.01803
G1 X129.096 Y109.62 E.02861
G1 X128.741 Y109.87 E.01361
G1 X127.603 Y110.228 E.03741
G1 X122.402 Y110.228 E.16307
G1 X121.544 Y110 E.02784
M73 Q15 S2
G1 X121.037 Y109.729 E.01803
G1 X120.38 Y109.096 E.02861
G1 X120.13 Y108.741 E.01361
G1 X119.772 Y107.603 E.03741
M73 P15 R2
G1 X119.772 Y102.402 E.16307
G1 X120 Y101.544 E.02784
G1 X120.016 Y101.515 E.00104
M204 S1000
G1 X120.358 Y101.666 F10800
M204 S800
G1 F1200
G1 X120.588 Y101.241 E.01515
G1 X121.45 Y100.455 E.03658
G1 X122.37 Y100.158 E.03031
G1 X127.575 Y100.153 E.1632
G1 X128.099 Y100.264 E.01679
G1 X128.627 Y100.504 E.01819
G1 X129.235 Y101.025 E.02511
G1 X129.616 Y101.604 E.02173
G1 X129.826 Y102.261 E.02163
G1 X129.851 Y107.571 E.16649
G1 X129.642 Y108.334 E.0248
G1 X129.412 Y108.759 E.01515
G1 X128.55 Y109.544 E.03656
G1 X127.574 Y109.851 E.03208
G1 X122.428 Y109.851 E.16135
G1 X121.666 Y109.642 E.02477
M73 Q16 S2
G1 X121.241 Y109.412 E.01515
G1 X120.456 Y108.55 E.03656
G1 X120.149 Y107.574 E.03208
G1 X120.149 Y102.428 E.16135
M73 P16 R2
G1 X120.342 Y101.724 E.02289
M204 S1000
G1 X120.704 Y101.826 F10800
M204 S800
G1 F1200
G1 X120.714 Y101.791 E.00114
G1 X120.904 Y101.449 E.01227
G1 X121.414 Y100.937 E.02266
G1 X121.639 Y100.783 E.00855
G1 X122.455 Y100.526 E.02682
G1 X127.554 Y100.53 E.15988
G1 X127.997 Y100.627 E.01422
G1 X128.443 Y100.834 E.01542
G1 X128.966 Y101.291 E.02178
G1 X129.284 Y101.785 E.01842
G1 X129.457 Y102.344 E.01835
G1 X129.474 Y107.545 E.16307
G1 X129.286 Y108.209 E.02164
G1 X129.096 Y108.551 E.01227
G1 X128.586 Y109.063 E.02266
G1 X128.361 Y109.217 E.00855
G1 X127.545 Y109.474 E.02682
G1 X122.455 Y109.474 E.15959
G1 X121.791 Y109.286 E.02164
M73 Q17 S2
G1 X121.449 Y109.096 E.01227
G1 X120.937 Y108.586 E.02266
G1 X120.783 Y108.361 E.00855
G1 X120.526 Y107.545 E.02682
G1 X120.526 Y102.455 E.15959
G1 X120.688 Y101.884 E.01861
M73 P17 R2
M204 S1000
G1 X121.075 Y102.032 F10800
M204 S800
G1 F1200
G1 X121.218 Y101.66 E.0125
G1 X121.825 Y101.112 E.02564
G1 X122.484 Y100.903 E.02168
G1 X127.531 Y100.907 E.15825
G1 X128.256 Y101.162 E.0241
G1 X128.696 Y101.554 E.01848
G1 X128.932 Y101.921 E.01368
G1 X129.088 Y102.428 E.01663
G1 X129.097 Y107.517 E.15956
G1 X128.782 Y108.34 E.02763
G1 X128.175 Y108.888 E.02564
G1 X127.516 Y109.097 E.02168
G1 X122.483 Y109.097 E.15781
G1 X121.66 Y108.782 E.02763
G1 X121.112 Y108.175 E.02564
G1 X120.903 Y107.516 E.02168
G1 X120.903 Y102.483 E.15781
G1 X121.054 Y102.088 E.01326
M73 Q18 S2
M204 S1000
G1 X121.394 Y102.22 F10800
M204 S800
G1 F1200
G1 X121.528 Y101.875 E.0116
G1 X122.007 Y101.443 E.02022
G1 X122.513 Y101.28 E.01667
G1 X127.509 Y101.284 E.15665
M73 P18 R2
G1 X128.068 Y101.491 E.01869
G1 X128.423 Y101.815 E.01507
G1 X128.72 Y102.512 E.02376
G1 X128.72 Y107.488 E.15602
G1 X128.472 Y108.125 E.02143
G1 X128.089 Y108.496 E.01672
G1 X127.487 Y108.72 E.02014
G1 X122.512 Y108.72 E.15599
G1 X121.875 Y108.472 E.02143
G1 X121.504 Y108.089 E.01672
G1 X121.28 Y107.487 E.02014
G1 X121.28 Y102.512 E.15599
G1 X121.372 Y102.276 E.00794
M204 S1000
G1 X121.71 Y102.409 F10800
M204 S800
G1 F1200
G1 X121.834 Y102.097 E.01053
G1 X122.153 Y101.794 E.01379
G1 X122.544 Y101.657 E.01299
G1 X127.487 Y101.661 E.15498
G1 X127.878 Y101.818 E.01321
M73 Q19 S2
G1 X128.147 Y102.073 E.01162
G1 X128.343 Y102.544 E.016
G1 X128.343 Y107.456 E.15401
G1 X128.166 Y107.903 E.01507
M73 P19 R2
G1 X127.847 Y108.206 E.01379
G1 X127.456 Y108.343 E.01299
G1 X122.544 Y108.343 E.15401
G1 X122.097 Y108.166 E.01507
G1 X121.794 Y107.847 E.01379
G1 X121.657 Y107.456 E.01299
G1 X121.657 Y102.544 E.15401
G1 X121.688 Y102.465 E.00266
M204 S1000
G1 X122.034 Y102.579 F10800
M204 S800
G1 F1200
G1 X122.132 Y102.328 E.00845
G1 X122.366 Y102.111 E.01001
G1 X122.579 Y102.034 E.0071
G1 X127.435 Y102.034 E.15226
G1 X127.866 Y102.325 E.01631
G1 X127.966 Y102.579 E.00856
G1 X127.966 Y107.421 E.15182
G1 X127.868 Y107.672 E.00845
G1 X127.634 Y107.889 E.01001
G1 X127.421 Y107.966 E.0071
G1 X122.579 Y107.966 E.15182
G1 X122.328 Y107.868 E.00845
M73 Q20 S2
G1 X122.111 Y107.634 E.01001
G1 X122.034 Y107.421 E.0071
G1 X122.034 Y102.639 E.14994
M204 S1000
G1 X122.44 Y102.642 F10800
M73 P20 R2
M204 S800
G1 F1200
G1 X122.44 Y102.552 E.00282
G1 X122.621 Y102.411 E.00719
G1 X127.448 Y102.44 E.15135
G1 X127.589 Y102.621 E.00719
G1 X127.56 Y107.448 E.15135
G1 X127.379 Y107.589 E.00719
G1 X122.552 Y107.56 E.15135
G1 X122.411 Y107.379 E.00719
G1 X122.439 Y102.702 E.14665
M204 S1000
;WIPE_START
G1 F8640
G1 X122.44 Y102.642 E-.01386
G1 X122.44 Y102.552 E-.02078
G1 X122.621 Y102.411 E-.05298
G1 X125.706 Y102.43 E-.71238
;WIPE_END
G1 Z.6 F720
; printing object xyz-cali-cube-by-r3d_v1.stl id:0 copy 0
G1 X126.713 Y106.713 F10800
G1 Z.2 F720
M73 Q21 S2
G1 E.8 F2100
M204 S800
;TYPE:Perimeter
;WIDTH:0.419999
G1 F1200
G1 X123.287 Y106.713 E.10742
G1 X123.287 Y103.287 E.10742
M73 P21 R2
G1 X126.713 Y103.287 E.10742
G1 X126.713 Y105 E.05371
G1 X126.713 Y106.653 E.05183
M204 S1000
G1 X127.09 Y107.09 F10800
M204 S800
;TYPE:External perimeter
G1 F1200
G1 X122.91 Y107.09 E.13106
G1 X122.91 Y102.91 E.13106
G1 X127.09 Y102.91 E.13106
G1 X127.09 Y105 E.06553
G1 X127.09 Y107.03 E.06365
M204 S1000
;WIPE_START
G1 F8640
G1 X127.09 Y107.09 E-.01385
G1 X123.685 Y107.09 E-.78615
;WIPE_END
G1 Z.6 F720
M73 Q22 S2
G1 X126.543 Y104.271 F10800
G1 Z.2 F720
G1 E.8 F2100
M73 P22 R2
M204 S800
;TYPE:Solid infill
;WIDTH:0.444579
G1 F1200
G1 X125.899 Y103.626 E.03044
G1 X125.33 Y103.626 E.019
G1 X126.374 Y104.67 E.04931
G1 X126.374 Y105.238 E.01897
G1 X124.762 Y103.626 E.07614
G1 X124.194 Y103.626 E.01897
G1 X126.374 Y105.806 E.10297
G1 X126.373 Y106.374 E.01897
G1 X123.626 Y103.627 E.12975
G1 X123.626 Y104.195 E.01897
G1 X125.805 Y106.374 E.10292
G1 X125.237 Y106.374 E.01897
G1 X123.626 Y104.763 E.07609
G1 X123.626 Y105.331 E.01897
G1 X124.669 Y106.374 E.04926
G1 X124.101 Y106.374 E.01897
G1 X123.457 Y105.729 E.03044
M204 S1000
M106 S84.15
;LAYER_CHANGE
;Z:0.4
;HEIGHT:0.2
;BEFORE_LAYER_CHANGE
G92 E0.0
;0.4


;WIPE_START
G1 F8640
G1 X124.101 Y106.374 E-.21046
G1 X124.669 Y106.374 E-.13115
G1 X123.626 Y105.331 E-.34059
G1 X123.626 Y104.82 E-.1178
M73 Q23 S2
;WIPE_END
G1 Z.4 F720
;AFTER_LAYER_CHANGE
;0.4
M104 S210 ; set temperature
; stop printing object xyz-cali-cube-by-r3d_v1.stl id:0 copy 0
G1 Z.8
G1 X115.034 Y105.729 F10800
G1 Z.4 F720
M73 P23 R2
G1 E.8 F2100
;TYPE:Skirt/Brim
;WIDTH:0.42
G1 F1030
G1 X115.034 Y100.588 E.16119
G1 X115.786 Y98.773 E.0616
G1 X118.773 Y95.786 E.13245
G1 X120.588 Y95.034 E.0616
G1 X129.412 Y95.034 E.27667
G1 X131.227 Y95.786 E.0616
G1 X134.214 Y98.773 E.13245
M73 Q24 S2
G1 X134.966 Y100.588 E.0616
M73 P24 R2
G1 X134.966 Y109.412 E.27667
G1 X134.214 Y111.227 E.0616
G1 X131.227 Y114.214 E.13245
G1 X129.412 Y114.966 E.0616
G1 X120.588 Y114.966 E.27667
G1 X118.773 Y114.214 E.0616
M73 Q25 S2
G1 X115.786 Y111.227 E.13245
G1 X115.034 Y109.412 E.0616
M73 P25 R2
G1 X115.034 Y105.789 E.1136
G1 X115.411 Y105.789 F10800
G1 F1030
G1 X115.411 Y100.588 E.16307
G1 X116.052 Y99.04 E.05253
G1 X119.04 Y96.052 E.13249
G1 X120.588 Y95.411 E.05253
G1 X129.412 Y95.411 E.27667
G1 X130.96 Y96.052 E.05253
M73 P26 R2
M73 Q26 S2
G1 X133.948 Y99.04 E.13249
G1 X134.589 Y100.588 E.05253
G1 X134.589 Y109.412 E.27667
G1 X133.948 Y110.96 E.05253
G1 X130.96 Y113.948 E.13249
G1 X129.412 Y114.589 E.05253
G1 X120.588 Y114.589 E.27667
G1 X119.04 Y113.948 E.05253
M73 P27 R2
M73 Q27 S2
G1 X116.052 Y110.96 E.13249
G1 X115.411 Y109.412 E.05253
G1 X115.411 Y105.849 E.11172
;WIPE_START
G1 F8640
G1 X115.411 Y105.789 E-.01385
G1 X115.411 Y102.384 E-.78615
;WIPE_END
G1 Z.8 F720
; printing object xyz-cali-cube-by-r3d_v1.stl id:0 copy 0
G1 X126.868 Y106.868 F10800
G1 Z.4 F720
G1 E.8 F2100
M204 S800
;TYPE:Perimeter
;WIDTH:0.449999
G1 F1030
G1 X123.132 Y106.868 E.12646
G1 X123.132 Y103.132 E.12646
M73 Q28 S2
G1 X126.868 Y103.132 E.12646
G1 X126.868 Y106.808 E.12443
M73 P28 R2
M204 S1000
G1 X127.275 Y107.275 F10800
M204 S800
;TYPE:External perimeter
G1 F1030
G1 X126.6 Y107.275 E.02285
G1 X123.4 Y107.275 E.10832
G1 X122.725 Y107.275 E.02285
G1 X122.725 Y106.6 E.02285
G1 X122.725 Y103.4 E.10832
G1 X122.725 Y102.725 E.02285
G1 X123.4 Y102.725 E.02285
G1 X126.6 Y102.725 E.10832
G1 X127.275 Y102.725 E.02285
G1 X127.275 Y107.215 E.15198
M204 S1000
;WIPE_START
G1 F8640
M73 Q29 S2
G1 X127.275 Y107.275 E-.01385
G1 X126.6 Y107.275 E-.15586
G1 X123.87 Y107.275 E-.63029
;WIPE_END
G1 Z.8 F720
G1 X123.609 Y103.531 F10800
G1 Z.4 F720
M73 P29 R2
G1 E.8 F2100
;TYPE:Solid infill
;WIDTH:0.548766
G1 F1030
G1 X123.564 Y103.487 E.00265
G1 X123.503 Y103.503 E.00265
G1 X123.487 Y103.564 E.00265
G1 X123.531 Y103.609 E.00265
G1 X123.593 Y103.593 E.00269
;WIDTH:0.449999
