; generated by PrusaSlicer 2.8.1+win64 on 2024-11-13 at 19:47:42 UTC


;
;
; 

; external perimeters extrusion width = 0.45mm
; perimeters extrusion width = 0.45mm
; infill extrusion width = 0.45mm
; solid infill extrusion width = 0.45mm
; top infill extrusion width = 0.40mm
; first layer extrusion width = 0.42mm

M73 P0 R10
M73 Q0 S10
M201 X1000 Y1000 Z200 E5000 ; sets maximum accelerations, mm/sec^2
M203 X200 Y200 Z12 E120 ; sets maximum feedrates, mm / sec
M204 S1250 T1250 ; sets acceleration (S) and retract acceleration (R), mm/sec^2
M205 X8.00 Y8.00 Z0.40 E4.50 ; sets the jerk limits, mm/sec
M205 S0 T0 ; sets the minimum extruding and travel feed rate, mm/sec

; printing object xyz-cali-cube-by-r3d_v1.stl id:0 copy 0
; stop printing object xyz-cali-cube-by-r3d_v1.stl id:0 copy 0

;TYPE:Custom
M862.3 P "MK3" ; printer model check
M862.1 P0.4 ; nozzle diameter check
M115 U3.14.0 ; tell printer latest fw version
G90 ; use absolute coordinates
M83 ; extruder relative mode
M104 S215 ; set extruder temp
M140 S60 ; set bed temp
M190 S60 ; wait for bed temp
M109 S215 ; wait for extruder temp
G28 W ; home all without mesh bed level
G80 X112.242 Y92.3458 W25.4972 H25.3083 ; mesh bed levelling

G1 Z0.2 F720
G1 Y-3 F1000 ; go outside print area
G92 E0
G1 X60 E9 F1000 ; intro line
G1 X100 E12.5 F1000 ; intro line

G92 E0
M221 S95

; Don't change E values below. Excessive value can damage the printer.

M907 E538 ; set extruder motor current
G21 ; set units to millimeters
G90 ; use absolute coordinates
M83 ; use relative distances for extrusion

M900 K0.05 ; Filament gcode LA 1.5
M900 K30 ; Filament gcode LA 1.0




M107
;LAYER_CHANGE
;Z:0.2
;HEIGHT:0.2
G1 E-.8 F2100
G1 Z.6 F720
G1 X113.286 Y96.273 F10800
G1 Z.2 F720
M73 P1 R10
M73 Q1 S10
G1 E.8 F2100
M204 S800
;TYPE:Skirt/Brim
;WIDTH:0.42
G1 F1200
G1 X116.273 Y93.286 E.13245
G1 X118.088 Y92.534 E.0616
G1 X131.912 Y92.534 E.43344
G1 X133.727 Y93.286 E.0616
G1 X136.714 Y96.273 E.13245
G1 X137.466 Y98.064 E.0609
G1 X137.551 Y107.492 E.29562
G1 X137.464 Y111.964 E.14024
G1 X136.713 Y113.728 E.06011
G1 X133.726 Y116.714 E.13243
G1 X131.912 Y117.466 E.06157
G1 X118.088 Y117.466 E.43344
G1 X116.273 Y116.714 E.0616
G1 X113.286 Y113.727 E.13245
G1 X112.535 Y111.968 E.05997
G1 X112.431 Y106.947 E.15746
G1 X112.535 Y98.057 E.27876
G1 X113.263 Y96.329 E.05879
M204 S1000
G1 X113.263 Y96.329 F10800
G1 X113.552 Y96.54
M204 S800
G1 F1200
G1 X116.54 Y93.552 E.13249
G1 X118.088 Y92.911 E.05253
G1 X131.912 Y92.911 E.43344
G1 X133.46 Y93.552 E.05253
M73 Q2 S10
G1 X136.448 Y96.54 E.13249
G1 X137.088 Y98.068 E.05194
M73 P2 R10
G1 X137.174 Y107.496 E.29562
G1 X137.087 Y111.957 E.1399
G1 X136.447 Y113.462 E.05128
G1 X133.459 Y116.448 E.13245
G1 X131.912 Y117.089 E.0525
G1 X118.088 Y117.089 E.43344
G1 X116.54 Y116.448 E.05253
G1 X113.553 Y113.46 E.13247
G1 X112.912 Y111.96 E.05115
G1 X112.808 Y106.945 E.15728
G1 X112.912 Y98.062 E.27854
G1 X113.529 Y96.595 E.0499
M204 S1000
;WIPE_START
G1 F8640
G1 X113.552 Y96.54 E-.01377
G1 X115.96 Y94.133 E-.78623
;WIPE_END
G1 Z.6 F720
G1 X115.973 Y97.963 F10800
G1 Z.2 F720
G1 E.8 F2100
M204 S800
G1 F1200
G1 X116.336 Y97.315 E.02329
G1 X117.154 Y96.467 E.03694
G1 X117.798 Y96.001 E.02492
G1 X119.755 Y95.386 E.06432
G1 X130.19 Y95.39 E.32718
G1 X131.21 Y95.584 E.03255
G1 X132.19 Y96.001 E.03339
G1 X133.36 Y96.94 E.04704
G1 X134.206 Y98.241 E.04866
G1 X134.563 Y99.436 E.0391
G1 X134.698 Y107.543 E.25422
G1 X134.609 Y110.271 E.08558
G1 X134.277 Y111.595 E.0428
G1 X133.701 Y112.639 E.03739
G1 X132.855 Y113.525 E.03841
G1 X132.203 Y113.998 E.02526
G1 X130.246 Y114.613 E.06432
G1 X119.837 Y114.613 E.32637
G1 X118.494 Y114.312 E.04315
G1 X117.28 Y113.641 E.04349
G1 X116.451 Y112.827 E.03643
M73 Q3 S10
G1 X116.023 Y112.234 E.02293
G1 X115.5 Y110.91 E.04463
G1 X115.286 Y107.181 E.11711
G1 X115.377 Y105.314 E.05861
M73 P3 R10
G1 X115.387 Y99.774 E.1737
G1 X115.715 Y98.424 E.04356
G1 X115.943 Y98.016 E.01465
M204 S1000
G1 X115.943 Y98.016 F10800
G1 X116.268 Y98.199
M204 S800
G1 F1200
G1 X116.651 Y97.523 E.02436
G1 X117.412 Y96.742 E.03419
G1 X117.994 Y96.325 E.02245
G1 X119.783 Y95.764 E.05879
G1 X130.172 Y95.767 E.32574
G1 X131.118 Y95.95 E.03021
G1 X132.016 Y96.336 E.03065
G1 X133.098 Y97.213 E.04367
G1 X133.873 Y98.42 E.04497
G1 X134.194 Y99.516 E.03581
G1 X134.242 Y105.827 E.19788
G1 X134.321 Y107.542 E.05383
G1 X134.232 Y110.244 E.08477
G1 X133.918 Y111.478 E.03992
G1 X133.384 Y112.433 E.03431
G1 X132.596 Y113.25 E.03559
G1 X132.007 Y113.674 E.02276
G1 X130.218 Y114.236 E.0588
G1 X119.859 Y114.236 E.3248
G1 X118.605 Y113.951 E.04032
G1 X117.487 Y113.325 E.04018
G1 X116.728 Y112.572 E.03352
G1 X116.343 Y112.033 E.02077
G1 X115.875 Y110.857 E.03969
G1 X115.663 Y107.182 E.11542
G1 X115.754 Y105.329 E.05817
G1 X115.764 Y99.797 E.17345
G1 X116.074 Y98.54 E.04059
G1 X116.238 Y98.252 E.01039
M204 S1000
G1 X116.238 Y98.252 F10800
G1 X116.56 Y98.437
M204 S800
G1 F1200
G1 X116.965 Y97.733 E.02547
G1 X117.669 Y97.019 E.03144
G1 X118.188 Y96.65 E.01997
G1 X119.812 Y96.141 E.05336
G1 X130.153 Y96.144 E.32423
G1 X131.024 Y96.316 E.02784
G1 X131.841 Y96.671 E.02793
G1 X132.835 Y97.485 E.04028
G1 X133.54 Y98.598 E.04131
G1 X133.824 Y99.594 E.03247
G1 X133.865 Y105.841 E.19587
G1 X133.944 Y107.541 E.05336
G1 X133.855 Y110.216 E.08392
G1 X133.559 Y111.358 E.03699
G1 X133.068 Y112.225 E.03124
G1 X132.339 Y112.975 E.03279
G1 X131.813 Y113.35 E.02025
G1 X130.189 Y113.859 E.05336
G1 X119.881 Y113.859 E.3232
G1 X118.718 Y113.59 E.03743
M73 Q4 S10
G1 X117.696 Y113.011 E.03683
G1 X117.007 Y112.318 E.03064
G1 X116.664 Y111.834 E.0186
G1 X116.237 Y110.749 E.03656
M73 P4 R10
G1 X116.04 Y107.165 E.11254
G1 X116.131 Y105.343 E.0572
G1 X116.141 Y99.822 E.17311
G1 X116.433 Y98.658 E.03763
G1 X116.531 Y98.489 E.00613
M204 S1000
G1 X116.531 Y98.489 F10800
G1 X116.851 Y98.676
M204 S800
G1 F1200
G1 X117.278 Y97.944 E.02657
G1 X117.923 Y97.298 E.02862
G1 X118.381 Y96.975 E.01757
G1 X119.84 Y96.518 E.04794
G1 X130.134 Y96.521 E.32276
G1 X130.929 Y96.682 E.02543
G1 X131.665 Y97.005 E.0252
G1 X132.571 Y97.755 E.03688
G1 X133.205 Y98.773 E.0376
G1 X133.454 Y99.67 E.02919
G1 X133.488 Y105.854 E.1939
G1 X133.566 Y107.54 E.05292
G1 X133.478 Y110.188 E.08307
G1 X133.202 Y111.237 E.03401
G1 X132.754 Y112.015 E.02815
G1 X132.082 Y112.697 E.03002
G1 X131.62 Y113.025 E.01777
G1 X130.16 Y113.482 E.04797
G1 X119.902 Y113.482 E.32163
G1 X118.879 Y113.248 E.0329
G1 X117.906 Y112.696 E.03508
G1 X117.288 Y112.065 E.02769
G1 X116.986 Y111.637 E.01642
G1 X116.6 Y110.642 E.03346
G1 X116.417 Y107.149 E.10967
G1 X116.508 Y105.358 E.05623
G1 X116.518 Y99.846 E.17283
G1 X116.792 Y98.778 E.03457
G1 X116.821 Y98.728 E.00181
M204 S1000
G1 X116.821 Y98.728 F10800
G1 X117.149 Y98.9
M204 S800
G1 F1200
G1 X117.589 Y98.158 E.02705
G1 X118.176 Y97.578 E.02587
G1 X118.573 Y97.301 E.01518
G1 X119.869 Y96.895 E.04258
G1 X130.115 Y96.898 E.32126
G1 X130.796 Y97.035 E.02178
G1 X131.488 Y97.34 E.02371
G1 X132.304 Y98.023 E.03336
G1 X132.868 Y98.946 E.03392
G1 X133.084 Y99.744 E.02592
G1 X133.111 Y105.867 E.19198
G1 X133.189 Y107.539 E.05248
G1 X133.102 Y110.159 E.08219
G1 X132.844 Y111.114 E.03102
G1 X132.442 Y111.803 E.02501
G1 X131.828 Y112.419 E.02727
G1 X131.427 Y112.699 E.01533
G1 X130.132 Y113.105 E.04255
G1 X119.924 Y113.105 E.32006
G1 X118.993 Y112.888 E.02997
G1 X118.118 Y112.383 E.03168
G1 X117.309 Y111.441 E.03893
M73 Q5 S10
G1 X116.964 Y110.538 E.03031
G1 X116.794 Y107.134 E.10686
G1 X116.885 Y105.372 E.05532
G1 X116.895 Y99.871 E.17248
M73 P5 R10
G1 X117.134 Y98.958 E.02959
M204 S1000
G1 X117.134 Y98.958 F10800
G1 X117.498 Y99.056
M204 S800
G1 F1200
G1 X117.506 Y99.025 E.001
G1 X117.899 Y98.375 E.02382
G1 X118.763 Y97.627 E.03583
G1 X119.897 Y97.272 E.03726
G1 X130.095 Y97.276 E.31975
G1 X130.699 Y97.4 E.01933
G1 X131.309 Y97.672 E.02094
G1 X132.036 Y98.29 E.02992
G1 X132.53 Y99.115 E.03015
G1 X132.713 Y99.815 E.02269
G1 X132.729 Y105.479 E.17759
G1 X132.812 Y107.537 E.06458
G1 X132.725 Y110.129 E.08132
G1 X132.488 Y110.988 E.02794
G1 X132.131 Y111.589 E.02192
G1 X131.575 Y112.139 E.02452
G1 X131.237 Y112.373 E.01289
G1 X130.103 Y112.728 E.03726
G1 X119.946 Y112.728 E.31847
G1 X119.109 Y112.528 E.02698
G1 X118.333 Y112.073 E.0282
G1 X117.855 Y111.568 E.0218
G1 X117.633 Y111.247 E.01224
G1 X117.328 Y110.435 E.0272
G1 X117.171 Y107.118 E.10412
G1 X117.262 Y105.387 E.05435
G1 X117.272 Y99.897 E.17214
G1 X117.482 Y99.114 E.02542
M204 S1000
G1 X117.482 Y99.114 F10800
G1 X117.845 Y99.214
M204 S800
G1 F1200
G1 X117.862 Y99.152 E.00202
G1 X118.206 Y98.595 E.02053
G1 X118.952 Y97.954 E.03084
G1 X119.926 Y97.649 E.032
G1 X130.075 Y97.653 E.31821
G1 X130.599 Y97.764 E.01679
G1 X131.127 Y98.004 E.01819
G1 X131.765 Y98.554 E.02641
G1 X132.191 Y99.281 E.02642
G1 X132.341 Y99.883 E.01945
G1 X132.352 Y105.482 E.17555
G1 X132.435 Y107.536 E.06445
G1 X132.348 Y110.099 E.08041
G1 X132.133 Y110.859 E.02476
G1 X131.822 Y111.371 E.01878
G1 X131.047 Y112.046 E.03222
G1 X130.074 Y112.351 E.03197
G1 X119.968 Y112.351 E.31687
G1 X119.275 Y112.188 E.02232
G1 X118.549 Y111.762 E.02639
G1 X117.958 Y111.054 E.02892
G1 X117.692 Y110.334 E.02407
G1 X117.547 Y107.102 E.10144
G1 X117.639 Y105.402 E.05338
G1 X117.649 Y99.924 E.17176
G1 X117.829 Y99.271 E.02124
M204 S1000
G1 X117.829 Y99.271 F10800
G1 X118.191 Y99.374
M204 S800
G1 F1200
G1 X118.217 Y99.283 E.00297
G1 X118.511 Y98.818 E.01725
G1 X119.14 Y98.282 E.02591
G1 X119.955 Y98.026 E.02678
M73 Q6 S10
G1 X130.053 Y98.03 E.31662
G1 X130.497 Y98.127 E.01425
M73 P6 R10
G1 X130.943 Y98.334 E.01542
G1 X131.491 Y98.815 E.02286
G1 X131.849 Y99.442 E.02264
G1 X131.969 Y99.948 E.01631
G1 X131.975 Y105.485 E.17361
G1 X132.058 Y107.535 E.06433
G1 X131.971 Y110.068 E.07947
G1 X131.779 Y110.727 E.02152
G1 X131.515 Y111.151 E.01566
G1 X131.076 Y111.572 E.01907
G1 X130.86 Y111.718 E.00817
G1 X130.045 Y111.974 E.02678
G1 X119.989 Y111.974 E.3153
G1 X119.438 Y111.847 E.01773
G1 X118.806 Y111.484 E.02285
G1 X118.428 Y111.077 E.01742
G1 X118.058 Y110.236 E.02881
G1 X117.924 Y107.087 E.09882
G1 X118.016 Y105.416 E.05247
G1 X118.026 Y99.951 E.17135
G1 X118.174 Y99.432 E.01692
M204 S1000
G1 X118.174 Y99.432 F10800
G1 X118.534 Y99.538
M204 S800
G1 F1200
G1 X118.57 Y99.416 E.00399
G1 X118.787 Y99.076 E.01265
G1 X119.325 Y98.612 E.02228
G1 X119.984 Y98.403 E.02168
G1 X130.031 Y98.407 E.31502
G1 X130.756 Y98.662 E.0241
M73 P6 R9
G1 X131.215 Y99.073 E.01932
G1 X131.505 Y99.599 E.01883
G1 X131.597 Y100.009 E.01317
G1 X131.598 Y105.487 E.17176
G1 X131.681 Y107.533 E.0642
M73 Q6 S9
G1 X131.595 Y110.036 E.07853
G1 X131.426 Y110.591 E.01819
G1 X131.211 Y110.926 E.01248
G1 X130.675 Y111.388 E.02219
G1 X130.016 Y111.597 E.02168
G1 X120.009 Y111.597 E.31376
G1 X119.596 Y111.504 E.01327
G1 X119.061 Y111.205 E.01922
G1 X118.612 Y110.676 E.02176
G1 X118.424 Y110.141 E.01778
G1 X118.301 Y107.071 E.09633
G1 X118.393 Y105.431 E.0515
G1 X118.403 Y99.98 E.17091
G1 X118.517 Y99.596 E.01256
M204 S1000
G1 X118.517 Y99.596 F10800
G1 X118.875 Y99.707
M204 S800
G1 F1200
G1 X118.921 Y99.556 E.00495
G1 X119.087 Y99.304 E.00946
G1 X119.507 Y98.943 E.01736
G1 X120.013 Y98.78 E.01667
G1 X130.009 Y98.784 E.31342
G1 X130.568 Y98.991 E.01869
G1 X130.934 Y99.327 E.01558
G1 X131.22 Y100.028 E.02374
G1 X131.221 Y105.49 E.17126
G1 X131.303 Y107.532 E.06408
G1 X131.218 Y110.002 E.07749
G1 X131.076 Y110.449 E.01471
G1 X130.588 Y110.996 E.02298
G1 X129.987 Y111.22 E.02011
G1 X120.029 Y111.22 E.31223
G1 X119.75 Y111.159 E.00895
M73 P7 R9
M73 Q7 S9
G1 X119.316 Y110.925 E.01546
G1 X119.005 Y110.59 E.01433
G1 X118.79 Y110.048 E.01828
G1 X118.678 Y107.056 E.09388
G1 X118.77 Y105.445 E.05059
G1 X118.781 Y100.01 E.17041
G1 X118.857 Y99.764 E.00807
M204 S1000
G1 X118.857 Y99.764 F10800
G1 X119.212 Y99.915
M204 S800
G1 F1200
G1 X119.36 Y99.566 E.01189
G1 X119.683 Y99.276 E.01361
G1 X120.044 Y99.157 E.01192
G1 X129.987 Y99.161 E.31176
G1 X130.378 Y99.318 E.01321
G1 X130.649 Y99.575 E.01171
G1 X130.843 Y100.047 E.016
G1 X130.844 Y105.493 E.17076
G1 X130.927 Y107.515 E.06345
G1 X130.841 Y109.966 E.0769
G1 X130.639 Y110.435 E.01601
G1 X130.317 Y110.724 E.01357
G1 X129.956 Y110.843 E.01192
G1 X120.047 Y110.843 E.31069
G1 X119.568 Y110.643 E.01628
G1 X119.277 Y110.318 E.01368
G1 X119.158 Y109.959 E.01186
G1 X119.055 Y107.041 E.09155
G1 X119.147 Y105.46 E.04966
G1 X119.158 Y100.043 E.16985
G1 X119.188 Y99.97 E.00247
M204 S1000
G1 X119.188 Y99.97 F10800
G1 X119.535 Y100.078
M204 S800
G1 F1200
G1 X119.632 Y99.828 E.00841
G1 X119.866 Y99.611 E.01001
G1 X120.079 Y99.534 E.0071
G1 X129.935 Y99.534 E.30903
G1 X130.185 Y99.644 E.00856
G1 X130.466 Y100.065 E.01587
G1 X130.467 Y105.495 E.17025
G1 X130.55 Y107.498 E.06286
G1 X130.465 Y109.927 E.07621
G1 X130.367 Y110.173 E.0083
G1 X130.134 Y110.389 E.00996
G1 X129.921 Y110.466 E.0071
G1 X120.065 Y110.466 E.30903
G1 X119.818 Y110.358 E.00845
G1 X119.611 Y110.134 E.00956
G1 X119.535 Y109.923 E.00703
G1 X119.432 Y107.026 E.09089
G1 X119.524 Y105.474 E.04875
G1 X119.534 Y100.138 E.16731
M204 S1000
G1 X119.534 Y100.138 F10800
G1 X119.94 Y100.141
M204 S800
G1 F1200
G1 X119.94 Y100.052 E.00279
G1 X120.121 Y99.911 E.00719
G1 X129.948 Y99.94 E.30812
G1 X130.089 Y100.121 E.00719
G1 X130.09 Y105.498 E.16859
G1 X130.173 Y107.497 E.06273
G1 X130.059 Y109.949 E.07696
M73 Q8 S9
G1 X129.879 Y110.089 E.00715
G1 X120.052 Y110.06 E.30812
G1 X119.912 Y109.88 E.00715
M73 P8 R9
G1 X119.809 Y107.011 E.09001
G1 X119.901 Y105.489 E.04781
G1 X119.939 Y100.201 E.16581
M204 S1000
;WIPE_START
G1 F8640
G1 X119.94 Y100.141 E-.01386
G1 X119.94 Y100.052 E-.02055
G1 X120.121 Y99.911 E-.05298
G1 X123.207 Y99.92 E-.71261
;WIPE_END
G1 Z.6 F720
; printing object xyz-cali-cube-by-r3d_v1.stl id:0 copy 0
G1 X124.447 Y103.678 F10800
G1 Z.2 F720
G1 E.8 F2100
M204 S800
;TYPE:External perimeter
;WIDTH:0.38292
G1 F1200
G1 X124.479 Y103.598 E.00244
M204 S1000
;WIPE_START
G1 F8640
G1 X124.447 Y103.678 E-.0199
G1 X124.479 Y103.598 E-.0199
;WIPE_END
G1 E-.7602 F2100
G1 Z.6 F720
G1 X123.4 Y102.695 F10800
G1 Z.2 F720
G1 E.8 F2100
M204 S800
;WIDTH:0.569205
G1 F1200
G1 X123.425 Y102.691 E.00111
G1 X123.593 Y102.828 E.00949
G1 X123.641 Y102.831 E.0021
;WIDTH:0.527623
G1 X123.689 Y102.834 E.00194
;WIDTH:0.48604
G1 X123.737 Y102.837 E.00177
;WIDTH:0.444457
G1 X123.785 Y102.841 E.00161
;WIDTH:0.448424
G1 X124.042 Y102.807 E.00874
;WIDTH:0.493974
G1 X124.299 Y102.773 E.00972
;WIDTH:0.506638
G1 X124.518 Y102.671 E.00932
G1 X124.406 Y103.016 E.01399
;WIDTH:0.489034
G1 X124.487 Y103.177 E.00669
G1 X124.65 Y103.236 E.00643
G1 X124.603 Y103.269 E.00213
G1 X124.551 Y103.374 E.00435
;WIDTH:0.451967
G1 X124.499 Y103.479 E.00399
G1 X124.472 Y103.414 E.00239
;WIDTH:0.489034
G1 X124.445 Y103.349 E.00261
G1 X124.116 Y103.24 E.01286
;WIDTH:0.523342
G1 X123.87 Y103.221 E.00986
;WIDTH:0.557649
G1 X123.625 Y103.203 E.01051
;WIDTH:0.569205
G1 X123.411 Y103.425 E.01349
G1 X123.273 Y103.451 E.00615
G1 X123.192 Y103.346 E.0058
G1 X123.157 Y103.035 E.0137
G1 X123.188 Y102.848 E.00829
G1 X123.23 Y102.724 E.00573
G1 X123.34 Y102.705 E.00488
M204 S1000
;WIPE_START
G1 F8640
G1 X123.4 Y102.695 E-.01405
G1 X123.425 Y102.691 E-.00585
G1 X123.593 Y102.828 E-.05005
G1 X123.641 Y102.831 E-.0111
G1 X123.689 Y102.834 E-.0111
G1 X123.737 Y102.837 E-.0111
G1 X123.785 Y102.841 E-.01112
G1 X124.042 Y102.807 E-.05986
G1 X124.299 Y102.773 E-.05986
G1 X124.518 Y102.671 E-.05578
G1 X124.406 Y103.016 E-.08375
G1 X124.487 Y103.177 E-.04162
G1 X124.65 Y103.236 E-.04003
G1 X124.603 Y103.269 E-.01326
G1 X124.551 Y103.374 E-.02706
G1 X124.499 Y103.479 E-.02706
G1 X124.472 Y103.414 E-.01625
G1 X124.445 Y103.349 E-.01625
G1 X124.116 Y103.24 E-.08003
G1 X123.87 Y103.221 E-.05697
G1 X123.625 Y103.203 E-.05672
G1 X123.472 Y103.362 E-.05113
;WIPE_END
G1 Z.6 F720
G1 X125.339 Y103.055 F10800
G1 Z.2 F720
G1 E.8 F2100
M204 S800
;WIDTH:0.38292
G1 F1200
G1 X125.124 Y103.179 E.00702
M204 S1000
;WIPE_START
G1 F8640
G1 X125.339 Y103.055 E-.05731
G1 X125.124 Y103.179 E-.05731
;WIPE_END
G1 E-.68538 F2100
G1 Z.6 F720
G1 X126.482 Y104.348 F10800
G1 Z.2 F720
G1 E.8 F2100
M204 S800
;WIDTH:0.423559
G1 F1200
G1 X126.457 Y104.151 E.00629
;WIDTH:0.464198
