;FLAVOR:Marlin
;TIME:838
;Filament used: 0.546319m
;Layer height: 0.15
;MINX:109.859
;MINY:81.425
;MINZ:0.2
;MAXX:140.141
;MAXY:128.575
;MAXZ:4.4
;Generated with Cura_SteamEngine main
M82 ;absolute extrusion mode
G21 ; set units to millimeters
G90 ; use absolute positioning
M82 ; absolute extrusion mode
M104 S200 ; set extruder temp
M140 S60 ; set bed temp
M190 S60 ; wait for bed temp
M109 S200 ; wait for extruder temp
G28 W ; home all without mesh bed level
G80 ; mesh bed leveling
G92 E0.0 ; reset extruder distance position
G1 Y-3.0 F1000.0 ; go outside print area
G1 X60.0 E9.0 F1000.0 ; intro line
G1 X100.0 E21.5 F1000.0 ; intro line
G92 E0.0 ; reset extruder distance position
G92 E0
G92 E0
G1 F2100 E-0.8
;LAYER_COUNT:29
;LAYER:0
M107
G0 F3600 X115.864 Y82.943 Z0.2
G0 X113.959 Y88.003
;TYPE:SKIRT
G1 F2100 E0
G1 F1800 X114.867 Y85.432 E0.09069
G1 X115.379 Y83.897 E0.14451
G1 X115.586 Y83.402 E0.16235
G1 X115.864 Y82.943 E0.1802
G1 X116.207 Y82.531 E0.19803
G1 X116.608 Y82.175 E0.21587
G1 X117.057 Y81.882 E0.2337
G1 X117.545 Y81.659 E0.25154
G1 X118.06 Y81.511 E0.26937
G1 X118.783 Y81.425 E0.29358
G1 X123.456 Y81.425 E0.44901
G1 X124.157 Y81.435 E0.47233
G1 X124.692 Y81.483 E0.49019
G1 X125.213 Y81.609 E0.50802
G1 X125.709 Y81.812 E0.52584
G1 X126.17 Y82.086 E0.54368
G1 X126.586 Y82.425 E0.56153
G1 X126.946 Y82.822 E0.57935
G1 X127.296 Y83.366 E0.60087
G1 X127.681 Y84.103 E0.62852
G1 X128.127 Y84.988 E0.66149
G1 X129.412 Y87.368 E0.75145
G1 X130.802 Y89.778 E0.84398
G1 X132.208 Y92.064 E0.93324
G1 X133.697 Y94.34 E1.0237
G1 X134.734 Y95.826 E1.08397
G1 X135.07 Y96.32 E1.10384
G1 X135.373 Y96.862 E1.1245
G1 X135.847 Y97.911 E1.16278
G1 X137.018 Y100.399 E1.25424
G1 X138.267 Y102.873 E1.34642
G1 X139.693 Y105.5 E1.44584
G1 X139.913 Y105.989 E1.46367
G1 X140.058 Y106.506 E1.48153
G1 X140.141 Y107.206 E1.50497
G1 X140.141 Y111.002 E1.63123
G1 X140.131 Y111.704 E1.65458
G1 X140.083 Y112.238 E1.67241
G1 X139.924 Y112.896 E1.69493
G1 X139.223 Y114.392 E1.74988
G1 X138.082 Y116.918 E1.84207
G1 X137.013 Y119.477 E1.93431
G1 X136.041 Y121.997 E2.02414
G1 X135.133 Y124.568 E2.11483
G1 X134.621 Y126.103 E2.16865
G1 X134.414 Y126.598 E2.18649
G1 X134.136 Y127.057 E2.20434
G1 X133.793 Y127.469 E2.22217
G1 X133.392 Y127.825 E2.24001
G1 X132.943 Y128.118 E2.25784
G1 X132.455 Y128.341 E2.27569
G1 X131.94 Y128.489 E2.29351
G1 X131.217 Y128.575 E2.31772
G1 X114.12 Y128.575 E2.88637
G1 X113.422 Y128.566 E2.90959
G1 X112.887 Y128.519 E2.92745
G1 X112.366 Y128.393 E2.94528
G1 X111.869 Y128.191 E2.96312
G1 X111.408 Y127.918 E2.98094
G1 X110.992 Y127.579 E2.99879
G1 X110.631 Y127.183 E3.01662
G1 X110.333 Y126.737 E3.03446
G1 X110.105 Y126.251 E3.05231
G1 X109.952 Y125.737 E3.07015
G1 X109.86 Y124.99 E3.09518
G1 X109.859 Y98.998 E3.95968
G1 X109.869 Y98.294 E3.9831
G1 X109.917 Y97.76 E4.00093
G1 X110.076 Y97.101 E4.02348
G1 X110.778 Y95.605 E4.07844
G1 X111.918 Y93.082 E4.17052
G1 X112.987 Y90.523 E4.26276
G1 X113.959 Y88.003 E4.3526
G1 F2100 E3.5526
G0 F3600 X112.275 Y93.264
G1 F2100 E4.3526
G1 F1800 X113.358 Y90.673 E4.446
G1 X114.333 Y88.143 E4.53618
G1 X115.238 Y85.582 E4.62652
G1 X115.758 Y84.023 E4.68118
G1 X115.955 Y83.558 E4.69798
G1 X116.224 Y83.129 E4.71482
G1 X116.556 Y82.748 E4.73163
G1 X116.944 Y82.424 E4.74844
G1 X117.378 Y82.165 E4.76525
G1 X117.848 Y81.978 E4.78208
G1 X118.341 Y81.867 E4.79888
G1 X119.116 Y81.825 E4.8247
G1 X123.451 Y81.825 E4.96888
G1 X124.152 Y81.835 E4.9922
G1 X124.655 Y81.882 E5.009
G1 X125.145 Y82.008 E5.02583
G1 X125.608 Y82.21 E5.04263
G1 X126.035 Y82.482 E5.05947
G1 X126.413 Y82.817 E5.07627
G1 X126.812 Y83.305 E5.09723
G1 X127.324 Y84.283 E5.13395
G1 X127.775 Y85.179 E5.16731
G1 X129.071 Y87.579 E5.25803
G1 X130.433 Y89.94 E5.34869
G1 X131.893 Y92.313 E5.44136
G1 X133.361 Y94.558 E5.53057
G1 X134.403 Y96.051 E5.59113
G1 X134.739 Y96.545 E5.611
G1 X135.009 Y97.026 E5.62935
G1 X135.5 Y98.112 E5.66899
G1 X136.671 Y100.601 E5.76047
G1 X137.916 Y103.066 E5.85232
G1 X139.341 Y105.691 E5.95167
G1 X139.547 Y106.153 E5.96849
G1 X139.677 Y106.642 E5.98532
G1 X139.741 Y107.231 E6.00503
G1 X139.741 Y110.997 E6.13028
G1 X139.731 Y111.699 E6.15364
G1 X139.684 Y112.202 E6.17044
G1 X139.533 Y112.789 E6.1906
G1 X138.84 Y114.268 E6.24492
G1 X137.731 Y116.721 E6.33446
G1 X136.642 Y119.327 E6.4284
G1 X135.667 Y121.857 E6.51858
G1 X134.763 Y124.414 E6.60878
G1 X134.242 Y125.977 E6.66358
G1 X134.045 Y126.442 E6.68038
G1 X133.776 Y126.871 E6.69722
G1 X133.444 Y127.252 E6.71403
G1 X133.056 Y127.576 E6.73084
G1 X132.622 Y127.835 E6.74765
G1 X132.152 Y128.022 E6.76447
G1 X131.659 Y128.133 E6.78128
G1 X130.884 Y128.175 E6.8071
G1 X114.125 Y128.175 E7.3645
G1 X113.427 Y128.166 E7.38772
G1 X112.923 Y128.119 E7.40456
G1 X112.433 Y127.994 E7.42138
G1 X111.969 Y127.793 E7.43819
G1 X111.543 Y127.522 E7.45499
G1 X111.164 Y127.187 E7.47181
G1 X110.843 Y126.796 E7.48864
G1 X110.588 Y126.36 E7.50544
G1 X110.404 Y125.889 E7.52226
G1 X110.297 Y125.395 E7.53907
G1 X110.26 Y124.942 E7.55418
G1 X110.259 Y99.004 E8.41689
G1 X110.269 Y98.3 E8.4403
G1 X110.316 Y97.796 E8.45714
G1 X110.468 Y97.207 E8.47737
G1 X111.161 Y95.73 E8.53163
G1 X112.275 Y93.264 E8.62163
G1 F2100 E7.82163
;MESH:FORGE.stl
G0 F3600 X113.873 Y97.677
G0 X113.873 Y98.756
G0 X117.886 Y115.78
G1 F2100 E8.62163
G0 F3600 X118.276 Y115.78
;TYPE:WALL-INNER
G1 F1800 X118.481 Y115.58 E8.63116
G1 X118.723 Y115.497 E8.63967
G1 X126.176 Y115.497 E8.88756
G1 X126.176 Y111.564 E9.01837
G1 X126.246 Y111.375 E9.02507
G1 X126.362 Y111.223 E9.03143
G1 X126.545 Y111.103 E9.03871
G1 X126.699 Y111.058 E9.04405
G1 X135.941 Y111.058 E9.35144
G1 X135.941 Y109.439 E9.40529
G1 X135.941 Y107.82 E9.45913
G1 X124 Y107.82 E9.85629
G1 X123.776 Y107.717 E9.86449
G1 X123.651 Y107.604 E9.8701
G1 X123.512 Y107.297 E9.88131
G1 X123.517 Y102.699 E10.03424
G1 X123.582 Y102.498 E10.04126
G1 X123.71 Y102.334 E10.04818
G1 X123.98 Y102.183 E10.05847
G1 X131.502 Y102.181 E10.30865
G1 X131.502 Y98.943 E10.41635
G1 X123.978 Y98.94 E10.6666
G1 X123.71 Y98.789 E10.67683
G1 X123.558 Y98.573 E10.68562
G1 X123.514 Y98.395 E10.69171
G1 X123.512 Y85.625 E11.11645
G1 X119.386 Y85.625 E11.25368
G1 X119.384 Y98.395 E11.67841
G1 X119.34 Y98.573 E11.68451
G1 X119.247 Y98.727 E11.69049
G1 X119.064 Y98.874 E11.6983
G1 X118.869 Y98.942 E11.70517
G1 X114.059 Y98.942 E11.86515
G1 X114.059 Y124.375 E12.71105
G1 X130.614 Y124.375 E13.26168
G1 X130.614 Y121.136 E13.3694
G1 X118.786 Y121.136 E13.76281
G1 X118.573 Y121.098 E13.77
G1 X118.398 Y120.995 E13.77676
G1 X118.279 Y120.858 E13.78279
G1 X118.186 Y120.654 E13.79025
G1 X118.186 Y115.98 E13.94571
G1 X118.276 Y115.78 E13.953
G0 F3600 X118.703 Y115.899
;TYPE:WALL-OUTER
G1 F1800 X126.576 Y115.897 E14.21486
G1 X126.577 Y111.633 E14.35668
G1 X126.638 Y111.513 E14.36116
G1 X126.741 Y111.46 E14.36501
G1 X136.341 Y111.458 E14.68431
G1 X136.341 Y109.439 E14.75146
G1 X136.341 Y107.42 E14.81861
G1 X124.075 Y107.42 E15.22658
G1 X123.958 Y107.348 E15.23115
G1 X123.914 Y107.254 E15.2346
G1 X123.913 Y102.753 E15.3843
G1 X124.009 Y102.609 E15.39006
G1 X124.094 Y102.581 E15.39304
G1 X131.902 Y102.581 E15.65273
G1 X131.902 Y98.543 E15.78704
G1 X124.068 Y98.542 E16.0476
G1 X123.942 Y98.449 E16.05281
G1 X123.912 Y98.36 E16.05593
G1 X123.912 Y85.225 E16.4928
G1 X118.986 Y85.225 E16.65664
G1 X118.986 Y98.36 E17.09351
G1 X118.911 Y98.499 E17.09877
G1 X118.833 Y98.542 E17.10173
G1 X113.659 Y98.542 E17.27382
G1 X113.659 Y124.775 E18.14633
G1 X131.014 Y124.775 E18.72356
G1 X131.014 Y120.736 E18.8579
G1 X118.73 Y120.736 E19.26646
G1 X118.617 Y120.644 E19.27131
G1 X118.588 Y120.571 E19.27392
G1 X118.586 Y116.056 E19.42409
G1 X118.703 Y115.899 E19.4306
G0 F3600 X118.903 Y115.899
G0 X118.903 Y115.197
G0 X119.395 Y99.242
G0 X119.395 Y99.113
;TYPE:SKIN
G1 F1800 X118.934 Y99.318 E19.44739
G1 X114.44 Y99.323 E19.59686
G1 X114.44 Y123.994 E20.41742
G1 X130.234 Y123.995 E20.94273
G1 X130.234 Y121.516 E21.02518
G1 X118.755 Y121.513 E21.40697
G1 X118.405 Y121.437 E21.41889
G1 X118.181 Y121.307 E21.4275
G1 X117.958 Y121.063 E21.43849
G1 X117.853 Y120.838 E21.44675
G1 X117.807 Y120.564 E21.45599
G1 X117.807 Y116.073 E21.60536
G1 X117.838 Y115.847 E21.61295
G1 X117.981 Y115.545 E21.62406
G1 X118.284 Y115.251 E21.63811
G1 X118.668 Y115.119 E21.65161
G1 X125.796 Y115.117 E21.88869
G1 X125.797 Y111.592 E22.00593
G1 X125.898 Y111.216 E22.01888
G1 X126.075 Y110.971 E22.02893
G1 X126.368 Y110.768 E22.04079
G1 X126.641 Y110.68 E22.05033
G1 X135.561 Y110.678 E22.34701
G1 X135.561 Y108.2 E22.42943
G1 X124.09 Y108.199 E22.81096
G1 X123.693 Y108.107 E22.82451
G1 X123.423 Y107.913 E22.83557
G1 X123.222 Y107.632 E22.84706
G1 X123.134 Y107.352 E22.85682
G1 X123.132 Y102.687 E23.01198
G1 X123.258 Y102.296 E23.02564
G1 X123.598 Y101.944 E23.04192
G1 X124.03 Y101.803 E23.05703
G1 X131.122 Y101.801 E23.29292
G1 X131.122 Y99.323 E23.37533
G1 X124.03 Y99.319 E23.61122
G1 X123.802 Y99.272 E23.61896
G1 X123.468 Y99.081 E23.63175
G1 X123.276 Y98.856 E23.64159
G1 X123.143 Y98.477 E23.65495
G1 X123.134 Y98.432 E23.65648
G1 X123.132 Y86.005 E24.0698
G1 X119.768 Y86.005 E24.18169
G1 X119.762 Y98.442 E24.59535
G1 X119.622 Y98.856 E24.60988
G1 X119.395 Y99.113 E24.62129
G0 F3600 X119.395 Y99.242
G0 X122.409 Y86.205
G1 F1800 X122.931 Y86.728 E24.64586
G0 F3600 X122.931 Y87.293
G1 F1800 X121.843 Y86.205 E24.69704
G0 F3600 X121.278 Y86.205
G1 F1800 X122.931 Y87.859 E24.77481
G0 F3600 X122.931 Y88.425
G1 F1800 X120.712 Y86.205 E24.87921
G0 F3600 X120.146 Y86.205
G1 F1800 X122.932 Y88.991 E25.01026
G0 F3600 X122.932 Y89.557
G1 F1800 X119.967 Y86.591 E25.14975
G0 F3600 X119.967 Y87.157
G1 F1800 X122.932 Y90.122 E25.28921
G0 F3600 X122.932 Y90.688
G1 F1800 X119.967 Y87.722 E25.4287
G0 F3600 X119.966 Y88.287
G1 F1800 X122.933 Y91.254 E25.56826
G0 F3600 X122.933 Y91.82
G1 F1800 X119.966 Y88.853 E25.70782
G0 F3600 X119.966 Y89.419
G1 F1800 X122.933 Y92.386 E25.84737
G0 F3600 X122.933 Y92.952
G1 F1800 X119.965 Y89.984 E25.98698
G0 F3600 X119.965 Y90.549
G1 F1800 X122.933 Y93.517 E26.12659
G0 F3600 X122.934 Y94.084
G1 F1800 X119.965 Y91.115 E26.26624
G0 F3600 X119.964 Y91.68
G1 F1800 X122.934 Y94.649 E26.40591
G0 F3600 X122.934 Y95.215
G1 F1800 X119.964 Y92.246 E26.54559
G0 F3600 X119.964 Y92.812
G1 F1800 X122.934 Y95.781 E26.68527
G0 F3600 X122.934 Y96.347
G1 F1800 X119.964 Y93.376 E26.82499
G0 F3600 X119.964 Y93.942
G1 F1800 X122.934 Y96.913 E26.96471
G0 F3600 X122.934 Y97.478
G1 F1800 X119.964 Y94.508 E27.10441
G0 F3600 X119.963 Y95.073
G1 F1800 X122.934 Y98.044 E27.24416
G0 F3600 X123.015 Y98.69
G1 F1800 X119.963 Y95.639 E27.38769
G0 F3600 X119.963 Y96.204
G1 F1800 X125.362 Y101.603 E27.64165
G0 F3600 X125.927 Y101.602
G1 F1800 X123.796 Y99.472 E27.74186
G0 F3600 X124.409 Y99.518
G1 F1800 X126.492 Y101.602 E27.83986
G0 F3600 X127.057 Y101.602
G1 F1800 X124.974 Y99.518 E27.93786
G0 F3600 X125.541 Y99.519
G1 F1800 X127.623 Y101.602 E28.03581
G0 F3600 X128.188 Y101.601
G1 F1800 X126.107 Y99.52 E28.1337
G0 F3600 X126.673 Y99.52
G1 F1800 X128.754 Y101.601 E28.23158
G0 F3600 X129.319 Y101.601
G1 F1800 X127.239 Y99.521 E28.32942
G0 F3600 X127.805 Y99.521
G1 F1800 X129.884 Y101.6 E28.42721
G0 F3600 X130.45 Y101.6
G1 F1800 X128.371 Y99.521 E28.525
G0 F3600 X128.937 Y99.521
G1 F1800 X130.921 Y101.505 E28.61832
G0 F3600 X130.921 Y100.94
G1 F1800 X129.503 Y99.522 E28.68502
G0 F3600 X130.07 Y99.523
G1 F1800 X130.921 Y100.374 E28.72505
G0 F3600 X130.921 Y99.808
G1 F1800 X130.635 Y99.523 E28.73848
G0 F3600 X124.796 Y101.603
G1 F1800 X119.962 Y96.769 E28.96585
G0 F3600 X119.962 Y97.335
G1 F1800 X124.23 Y101.603 E29.16661
G0 F3600 X123.745 Y101.683
G1 F1800 X119.962 Y97.901 E29.34452
G0 F3600 X119.957 Y98.461
G1 F1800 X123.379 Y101.883 E29.50548
G0 F3600 X123.11 Y102.179
G1 F1800 X119.816 Y98.886 E29.6604
G0 F3600 X119.562 Y99.197
G1 F1800 X122.955 Y102.591 E29.82002
G0 F3600 X122.932 Y103.133
G1 F1800 X119.211 Y99.412 E29.99504
G0 F3600 X118.755 Y99.522
G1 F1800 X122.933 Y103.7 E30.19156
G0 F3600 X122.934 Y104.266
G1 F1800 X118.19 Y99.522 E30.41471
G0 F3600 X117.624 Y99.522
G1 F1800 X122.934 Y104.832 E30.66447
G0 F3600 X122.934 Y105.398
G1 F1800 X117.058 Y99.522 E30.94086
G0 F3600 X116.493 Y99.523
G1 F1800 X122.935 Y105.964 E31.24385
G0 F3600 X122.935 Y106.53
G1 F1800 X115.928 Y99.523 E31.57344
G0 F3600 X115.362 Y99.523
G1 F1800 X122.936 Y107.096 E31.92967
G1 X123.006 Y107.166
G0 F3600 X123.17 Y107.897
G1 F1800 X114.796 Y99.523 E32.32356
G0 F3600 X114.639 Y99.931
G1 F1800 X125.768 Y111.061 E32.84706
G0 F3600 X126.035 Y110.761
G1 F1800 X123.462 Y108.188 E32.96808
G1 X123.392 Y108.118
G0 F3600 X124.237 Y108.398
G1 F1800 X126.393 Y110.554 E33.0695
G0 F3600 X126.886 Y110.481
G1 F1800 X124.803 Y108.398 E33.16747
G0 F3600 X125.369 Y108.398
G1 F1800 X127.452 Y110.481 E33.26545
G0 F3600 X128.018 Y110.481
G1 F1800 X125.935 Y108.398 E33.36343
G0 F3600 X126.5 Y108.398
G1 F1800 X128.583 Y110.481 E33.46141
G0 F3600 X129.148 Y110.481
G1 F1800 X127.066 Y108.398 E33.55936
G0 F3600 X127.632 Y108.398
G1 F1800 X129.713 Y110.48 E33.65727
G0 F3600 X130.279 Y110.48
G1 F1800 X128.198 Y108.399 E33.75515
G0 F3600 X128.764 Y108.399
G1 F1800 X130.845 Y110.48 E33.85304
G0 F3600 X131.41 Y110.479
G1 F1800 X129.329 Y108.399 E33.9509
G0 F3600 X129.895 Y108.399
G1 F1800 X131.975 Y110.479 E34.04873
G0 F3600 X132.54 Y110.479
G1 F1800 X130.461 Y108.399 E34.14655
G0 F3600 X131.026 Y108.399
G1 F1800 X133.106 Y110.479 E34.24438
G0 F3600 X133.672 Y110.479
G1 F1800 X131.592 Y108.399 E34.34222
G0 F3600 X132.158 Y108.4
G1 F1800 X134.237 Y110.478 E34.43999
G0 F3600 X134.802 Y110.478
G1 F1800 X132.724 Y108.4 E34.53773
G0 F3600 X133.29 Y108.4
G1 F1800 X135.36 Y110.47 E34.6351
G0 F3600 X135.36 Y109.904
G1 F1800 X133.856 Y108.4 E34.70584
G0 F3600 X134.421 Y108.4
G1 F1800 X135.36 Y109.339 E34.75001
G0 F3600 X135.36 Y108.773
G1 F1800 X134.987 Y108.4 E34.76755
G0 F3600 X125.948 Y110.83
G0 X125.621 Y111.479
G1 F1800 X114.639 Y100.497 E35.28411
G0 F3600 X114.639 Y101.063
G1 F1800 X125.598 Y112.021 E35.79957
G0 F3600 X125.597 Y112.586
G1 F1800 X114.639 Y101.628 E36.315
G0 F3600 X114.639 Y102.194
G1 F1800 X125.597 Y113.152 E36.83043
G0 F3600 X125.597 Y113.717
G1 F1800 X114.639 Y102.76 E37.34584
G0 F3600 X114.639 Y103.325
G1 F1800 X125.596 Y114.282 E37.86122
G0 F3600 X125.596 Y114.848
G1 F1800 X114.639 Y103.891 E38.3766
G0 F3600 X114.639 Y104.457
G1 F1800 X125.099 Y114.916 E38.86859
G0 F3600 X124.533 Y114.916
G1 F1800 X114.639 Y105.023 E39.33395
G0 F3600 X114.639 Y105.588
G1 F1800 X123.968 Y114.917 E39.77275
G0 F3600 X123.402 Y114.917
G1 F1800 X114.639 Y106.154 E40.18494
G0 F3600 X114.639 Y106.72
G1 F1800 X122.837 Y114.918 E40.57055
G0 F3600 X122.272 Y114.918
G1 F1800 X114.639 Y107.285 E40.92958
G0 F3600 X114.639 Y107.851
G1 F1800 X121.707 Y114.918 E41.26201
G0 F3600 X121.141 Y114.918
G1 F1800 X114.639 Y108.417 E41.56782
G0 F3600 X114.639 Y108.982
G1 F1800 X120.576 Y114.919 E41.84708
G0 F3600 X120.01 Y114.919
G1 F1800 X114.639 Y109.548 E42.09972
G0 F3600 X114.639 Y110.114
G1 F1800 X119.445 Y114.92 E42.32578
G0 F3600 X118.88 Y114.92
G1 F1800 X114.639 Y110.679 E42.52526
G0 F3600 X114.639 Y111.245
G1 F1800 X118.397 Y115.003 E42.70202
G0 F3600 X118.04 Y115.211
G1 F1800 X114.639 Y111.811 E42.86197
G0 F3600 X114.639 Y112.376
G1 F1800 X117.783 Y115.52 E43.00986
G0 F3600 X117.625 Y115.928
G1 F1800 X114.639 Y112.942 E43.15031
G0 F3600 X114.639 Y113.508
G1 F1800 X117.608 Y116.477 E43.28996
G0 F3600 X117.608 Y117.043
G1 F1800 X114.639 Y114.074 E43.42962
G0 F3600 X114.639 Y114.639
G1 F1800 X117.608 Y117.608 E43.56927
G0 F3600 X117.608 Y118.174
G1 F1800 X114.639 Y115.205 E43.70892
G0 F3600 X114.639 Y115.771
G1 F1800 X117.608 Y118.74 E43.84857
G0 F3600 X117.608 Y119.305
G1 F1800 X114.639 Y116.336 E43.98823
G0 F3600 X114.639 Y116.902
G1 F1800 X117.608 Y119.871 E44.12788
G0 F3600 X117.608 Y120.437
G1 F1800 X114.639 Y117.468 E44.26753
G0 F3600 X114.639 Y118.033
G1 F1800 X117.865 Y121.259 E44.41927
G0 F3600 X118.042 Y121.436
G1 F1800 X120.399 Y123.793 E44.53014
G0 F3600 X119.834 Y123.793
G1 F1800 X114.639 Y118.599 E44.77447
G0 F3600 X114.639 Y119.165
G1 F1800 X119.267 Y123.793 E44.99216
G0 F3600 X118.702 Y123.793
