; generated by PrusaSlicer 2.8.1+win64 on 2024-10-31 at 15:29:52 UTC

; 

; external perimeters extrusion width = 0.42mm
; perimeters extrusion width = 0.44mm
; infill extrusion width = 0.44mm
; solid infill extrusion width = 0.44mm
; top infill extrusion width = 0.40mm
; first layer extrusion width = 0.42mm

M201 X500 Y500 Z100 E5000 ; sets maximum accelerations, mm/sec^2
M203 X500 Y500 Z10 E60 ; sets maximum feedrates, mm / sec
M204 S500 T1000 ; sets acceleration (S) and retract acceleration (R), mm/sec^2
M205 X8.00 Y8.00 Z0.40 E5.00 ; sets the jerk limits, mm/sec
M205 S0 T0 ; sets the minimum extruding and travel feed rate, mm/sec

; printing object xyz-cali-cube-by-r3d_v1.stl id:0 copy 0
; stop printing object xyz-cali-cube-by-r3d_v1.stl id:0 copy 0

;TYPE:Custom
G90 ; use absolute coordinates
M83 ; extruder relative mode
M104 S150 ; set temporary nozzle temp to prevent oozing during homing
M140 S60 ; set final bed temp
G4 S30 ; allow partial nozzle warmup
G28 ; home all axis
G1 Z50 F240
G1 X2.0 Y10 F3000
M140 S60 ; set final bed temp
M109 S210 ; wait for nozzle temp to stabilize
G1 Z0.28 F240
G92 E0
G1 X2.0 Y140 E10 F1500 ; prime the nozzle
G1 X2.3 Y140 F5000
G92 E0
G1 X2.3 Y10 E10 F1200 ; prime the nozzle
G92 E0
G21 ; set units to millimeters
G90 ; use absolute coordinates
M83 ; use relative distances for extrusion
; Filament gcode
M107
;LAYER_CHANGE
;Z:0.2
;HEIGHT:0.2
G1 E-5 F3600
G1 Z.2 F9000
G1 X112.579 Y95.508
G1 Z.2
G1 E5 F2400
M204 S500
;TYPE:Skirt/Brim
;WIDTH:0.42
G1 F1200
G1 X115.508 Y92.579 E.12988
G1 X116.939 Y91.705 E.05257
G1 X118.029 Y91.534 E.03459
G1 X131.971 Y91.534 E.43714
G1 X133.601 Y91.929 E.05259
G1 X134.492 Y92.579 E.03458
G1 X137.421 Y95.508 E.12988
G1 X138.295 Y96.939 E.05257
G1 X138.466 Y98.029 E.03459
G1 X138.466 Y111.971 E.43714
G1 X138.071 Y113.601 E.05259
G1 X137.421 Y114.492 E.03458
G1 X134.492 Y117.421 E.12988
G1 X133.061 Y118.295 E.05257
G1 X131.971 Y118.466 E.03459
G1 X118.029 Y118.466 E.43714
G1 X116.399 Y118.071 E.05259
G1 X115.508 Y117.421 E.03458
G1 X112.579 Y114.492 E.12988
G1 X111.705 Y113.061 E.05257
G1 X111.534 Y111.973 E.03453
G1 X111.534 Y98.028 E.43724
G1 X111.929 Y96.398 E.05259
G1 X112.543 Y95.556 E.03267
G1 X112.543 Y95.556 F9000
G1 X112.841 Y95.78
G1 F1200
G1 X112.845 Y95.774 E.00023
G1 X115.774 Y92.845 E.12988
G1 X117.138 Y92.038 E.04969
G1 X118.029 Y91.911 E.02822
G1 X131.971 Y91.911 E.43714
G1 X133.506 Y92.305 E.04969
G1 X134.226 Y92.845 E.02822
G1 X137.155 Y95.774 E.12988
G1 X137.962 Y97.138 E.04969
G1 X138.089 Y98.029 E.02822
G1 X138.089 Y111.971 E.43714
G1 X137.695 Y113.506 E.04969
G1 X137.155 Y114.226 E.02822
G1 X134.226 Y117.155 E.12988
G1 X132.862 Y117.962 E.04969
G1 X131.971 Y118.089 E.02822
G1 X118.029 Y118.089 E.43714
G1 X116.494 Y117.695 E.04969
G1 X115.774 Y117.155 E.02822
G1 X112.845 Y114.226 E.12988
G1 X112.038 Y112.862 E.04969
G1 X111.911 Y111.973 E.02816
G1 X111.911 Y98.028 E.43724
G1 X112.306 Y96.493 E.0497
G1 X112.805 Y95.828 E.02607
G1 E-3.5 F3600
;WIPE_START
G1 F7200
G1 X112.841 Y95.78 E-.0285
G1 X112.845 Y95.774 E-.00343
G1 X115.031 Y93.589 E-1.46807
;WIPE_END
G1 X116.069 Y97.668 F9000
G1 E5 F2400
G1 F1200
G1 X116.266 Y97.318 E.01259
G1 X117.033 Y96.5 E.03516
G1 X117.639 Y96.03 E.02405
G1 X119.554 Y95.386 E.06335
G1 X130.387 Y95.39 E.33966
G1 X131.335 Y95.574 E.03028
G1 X132.243 Y95.965 E.031
G1 X133.46 Y96.987 E.04983
G1 X134.172 Y98.03 E.0396
G1 X134.576 Y99.318 E.04232
G1 X134.614 Y110.408 E.34772
G1 X134.305 Y111.668 E.04068
G1 X133.734 Y112.682 E.03649
G1 X132.967 Y113.5 E.03516
G1 X132.361 Y113.97 E.02405
G1 X130.447 Y114.613 E.06331
G1 X119.59 Y114.613 E.34041
G1 X118.332 Y114.305 E.04061
G1 X117.318 Y113.734 E.03649
G1 X116.5 Y112.967 E.03516
G1 X116.03 Y112.361 E.02405
G1 X115.387 Y110.447 E.06331
G1 X115.387 Y99.59 E.34041
G1 X115.695 Y98.332 E.04061
G1 X116.04 Y97.721 E.022
G1 X116.04 Y97.721 F9000
G1 X116.365 Y97.906
G1 F1200
G1 X116.582 Y97.526 E.01372
G1 X117.296 Y96.771 E.03258
G1 X117.844 Y96.348 E.02171
G1 X119.585 Y95.764 E.05758
G1 X130.368 Y95.767 E.33809
G1 X131.241 Y95.94 E.0279
G1 X132.066 Y96.299 E.02821
G1 X133.196 Y97.257 E.04645
G1 X133.844 Y98.217 E.03632
G1 X134.207 Y99.401 E.03883
G1 X134.236 Y110.386 E.34443
G1 X133.946 Y111.551 E.03764
G1 X133.418 Y112.474 E.03334
G1 X132.704 Y113.229 E.03258
G1 X132.156 Y113.652 E.02171
G1 X130.416 Y114.236 E.05755
G1 X119.614 Y114.236 E.33869
G1 X118.449 Y113.946 E.03764
G1 X117.526 Y113.418 E.03334
G1 X116.771 Y112.704 E.03258
G1 X116.348 Y112.156 E.02171
G1 X115.764 Y110.416 E.05755
G1 X115.764 Y99.614 E.33869
G1 X116.054 Y98.449 E.03764
G1 X116.335 Y97.958 E.01774
G1 X116.335 Y97.958 F9000
G1 X116.658 Y98.146
G1 F1200
G1 X116.896 Y97.735 E.01489
G1 X117.558 Y97.042 E.03005
G1 X118.048 Y96.666 E.01937
G1 X119.615 Y96.141 E.05182
G1 X130.349 Y96.144 E.33656
G1 X131.146 Y96.305 E.02549
G1 X131.888 Y96.633 E.02544
G1 X132.93 Y97.525 E.04301
G1 X133.514 Y98.402 E.03304
G1 X133.838 Y99.482 E.03535
G1 X133.859 Y110.362 E.34114
G1 X133.587 Y111.431 E.03459
G1 X133.104 Y112.265 E.03022
G1 X132.442 Y112.958 E.03005
G1 X131.952 Y113.334 E.01937
G1 X130.385 Y113.859 E.05182
G1 X119.638 Y113.859 E.33696
G1 X118.569 Y113.587 E.03459
G1 X117.735 Y113.104 E.03022
G1 X117.042 Y112.442 E.03005
G1 X116.666 Y111.952 E.01937
G1 X116.141 Y110.385 E.05182
G1 X116.141 Y99.638 E.33696
G1 X116.413 Y98.569 E.03459
G1 X116.628 Y98.198 E.01344
G1 X116.628 Y98.198 F9000
G1 X116.949 Y98.387
G1 F1200
G1 X117.209 Y97.947 E.01602
G1 X117.819 Y97.315 E.02754
G1 X118.252 Y96.985 E.01707
G1 X119.646 Y96.518 E.0461
G1 X130.329 Y96.521 E.33496
G1 X131.048 Y96.67 E.02302
G1 X131.708 Y96.965 E.02267
G1 X132.662 Y97.792 E.03959
G1 X133.183 Y98.584 E.02972
G1 X133.468 Y99.562 E.03194
G1 X133.482 Y110.338 E.33787
G1 X133.229 Y111.31 E.03149
G1 X132.791 Y112.053 E.02704
G1 X132.181 Y112.685 E.02754
G1 X131.748 Y113.015 E.01707
G1 X130.355 Y113.482 E.04607
G1 X119.662 Y113.482 E.33527
G1 X118.69 Y113.229 E.03149
G1 X117.947 Y112.791 E.02704
G1 X117.315 Y112.181 E.02754
G1 X116.985 Y111.748 E.01707
G1 X116.518 Y110.355 E.04607
G1 X116.518 Y99.662 E.33527
G1 X116.771 Y98.69 E.03149
G1 X116.919 Y98.439 E.00914
G1 X116.919 Y98.439 F9000
G1 X117.238 Y98.631
G1 F1200
G1 X117.52 Y98.161 E.01719
G1 X118.455 Y97.304 E.03977
G1 X119.676 Y96.895 E.04037
G1 X130.31 Y96.898 E.33342
G1 X130.913 Y97.023 E.01931
G1 X131.528 Y97.297 E.02111
G1 X132.393 Y98.058 E.03612
G1 X132.85 Y98.764 E.02637
G1 X133.098 Y99.639 E.02852
G1 X133.105 Y110.313 E.33468
G1 X132.872 Y111.186 E.02833
G1 X132.48 Y111.839 E.02388
G1 X131.545 Y112.696 E.03977
G1 X130.324 Y113.105 E.04037
G1 X119.687 Y113.105 E.33352
G1 X118.814 Y112.872 E.02833
G1 X118.161 Y112.48 E.02388
G1 X117.304 Y111.545 E.03977
G1 X116.895 Y110.324 E.04037
G1 X116.895 Y99.687 E.33352
G1 X117.128 Y98.814 E.02833
G1 X117.207 Y98.682 E.00482
G1 X117.207 Y98.682 F9000
G1 X117.523 Y98.876
G1 F1200
G1 X117.829 Y98.378 E.01833
G1 X118.336 Y97.864 E.02264
G1 X118.656 Y97.624 E.01254
G1 X119.707 Y97.272 E.03475
G1 X130.29 Y97.276 E.33182
G1 X130.814 Y97.387 E.01679
G1 X131.345 Y97.628 E.01828
G1 X132.122 Y98.321 E.03264
G1 X132.516 Y98.941 E.02303
G1 X132.728 Y99.713 E.0251
G1 X132.728 Y110.287 E.33154
G1 X132.516 Y111.059 E.0251
G1 X132.171 Y111.622 E.0207
G1 X131.664 Y112.136 E.02264
G1 X131.344 Y112.376 E.01254
G1 X130.294 Y112.728 E.03472
G1 X119.713 Y112.728 E.33176
G1 X118.941 Y112.516 E.0251
G1 X118.378 Y112.171 E.0207
G1 X117.864 Y111.664 E.02264
G1 X117.624 Y111.344 E.01254
G1 X117.272 Y110.294 E.03472
G1 X117.272 Y99.713 E.33176
G1 X117.484 Y98.941 E.0251
G1 X117.492 Y98.928 E.00048
G1 X117.492 Y98.928 F9000
G1 X117.838 Y99.071
G1 F1200
G1 X118.136 Y98.597 E.01756
G1 X118.857 Y97.945 E.03048
G1 X119.737 Y97.649 E.02911
G1 X130.268 Y97.653 E.33019
G1 X130.711 Y97.75 E.01422
G1 X131.159 Y97.958 E.01549
G1 X131.85 Y98.583 E.02921
G1 X132.162 Y99.071 E.01816
G1 X132.351 Y99.74 E.0218
G1 X132.351 Y110.26 E.32985
G1 X132.162 Y110.929 E.0218
G1 X131.864 Y111.403 E.01756
G1 X131.143 Y112.055 E.03048
G1 X130.263 Y112.351 E.02911
G1 X119.74 Y112.351 E.32994
G1 X119.071 Y112.162 E.0218
G1 X118.597 Y111.864 E.01756
G1 X117.945 Y111.143 E.03048
G1 X117.649 Y110.263 E.02911
G1 X117.649 Y99.74 E.32994
G1 X117.822 Y99.129 E.01991
G1 X118.183 Y99.235 F9000
G1 F1200
G1 X118.192 Y99.204 E.00101
G1 X118.417 Y98.85 E.01315
G1 X119.056 Y98.266 E.02714
G1 X119.768 Y98.026 E.02356
G1 X130.246 Y98.03 E.32853
G1 X130.971 Y98.285 E.0241
G1 X131.576 Y98.843 E.02581
G1 X131.808 Y99.205 E.01348
G1 X131.974 Y99.768 E.0184
G1 X131.974 Y110.232 E.32809
G1 X131.808 Y110.796 E.01843
G1 X131.583 Y111.15 E.01315
G1 X131.152 Y111.581 E.01911
G1 X130.944 Y111.734 E.0081
G1 X130.232 Y111.974 E.02356
G1 X119.768 Y111.974 E.32809
G1 X119.204 Y111.808 E.01843
G1 X118.85 Y111.583 E.01315
G1 X118.419 Y111.152 E.01911
G1 X118.266 Y110.944 E.0081
G1 X118.026 Y110.232 E.02356
G1 X118.026 Y99.768 E.32809
G1 X118.166 Y99.293 E.01553
G1 X118.166 Y99.293 F9000
G1 X118.548 Y99.455
G1 F1200
G1 X118.698 Y99.102 E.01203
G1 X119.254 Y98.588 E.02374
G1 X119.799 Y98.403 E.01805
G1 X130.224 Y98.407 E.32687
G1 X130.782 Y98.613 E.01865
G1 X131.301 Y99.101 E.02234
G1 X131.597 Y99.798 E.02374
G1 X131.597 Y110.202 E.32621
G1 X131.302 Y110.898 E.0237
G1 X130.746 Y111.412 E.02374
G1 X130.201 Y111.597 E.01805
G1 X119.798 Y111.597 E.32618
G1 X119.102 Y111.302 E.0237
G1 X118.588 Y110.746 E.02374
G1 X118.403 Y110.201 E.01805
G1 X118.403 Y99.798 E.32618
G1 X118.525 Y99.51 E.00981
G1 X118.525 Y99.51 F9000
G1 X118.856 Y99.648
G1 F1200
G1 X118.978 Y99.356 E.00992
G1 X119.358 Y98.975 E.01687
G1 X119.831 Y98.78 E.01604
G1 X130.202 Y98.784 E.32518
G1 X130.592 Y98.94 E.01317
G1 X131.023 Y99.357 E.0188
G1 X131.22 Y99.829 E.01604
G1 X131.22 Y110.171 E.32427
G1 X131.022 Y110.644 E.01608
G1 X130.642 Y111.025 E.01687
G1 X130.169 Y111.22 E.01604
G1 X119.829 Y111.22 E.3242
G1 X119.356 Y111.022 E.01608
G1 X118.975 Y110.642 E.01687
G1 X118.78 Y110.169 E.01604
G1 X118.78 Y99.829 E.3242
G1 X118.833 Y99.704 E.00426
G1 X118.833 Y99.704 F9000
G1 X119.169 Y99.835
G1 F1200
G1 X119.257 Y99.61 E.00758
G1 X119.61 Y99.257 E.01565
G1 X119.864 Y99.157 E.00856
G1 X130.182 Y99.164 E.32351
G1 X130.4 Y99.267 E.00756
G1 X130.743 Y99.61 E.01521
G1 X130.843 Y99.864 E.00856
G1 X130.843 Y110.136 E.32207
G1 X130.743 Y110.39 E.00856
G1 X130.39 Y110.743 E.01565
G1 X130.136 Y110.843 E.00856
G1 X119.864 Y110.843 E.32207
G1 X119.61 Y110.743 E.00856
G1 X119.257 Y110.39 E.01565
G1 X119.157 Y110.136 E.00856
G1 X119.157 Y99.893 E.32116
G1 X119.157 Y99.893 F9000
G1 X119.563 Y99.894
G1 F1200
G1 X119.563 Y99.837 E.00179
G1 X119.906 Y99.534 E.01435
G1 X130.094 Y99.534 E.31944
G1 X130.466 Y99.906 E.0165
G1 X130.437 Y110.163 E.3216
G1 X130.094 Y110.466 E.01435
G1 X119.837 Y110.437 E.3216
G1 X119.534 Y110.094 E.01435
G1 X119.563 Y99.954 E.31793
G1 X119.563 Y99.954 F9000
G1 X119.911 Y100.022
G1 F1200
G1 X120.022 Y99.911 E.00492
G1 X129.978 Y99.911 E.31216
G1 X130.089 Y100.022 E.00492
G1 X130.089 Y109.978 E.31216
G1 X129.978 Y110.089 E.00492
G1 X120.022 Y110.089 E.31216
G1 X119.911 Y109.978 E.00492
G1 X119.911 Y100.082 E.31028
G1 E-3.5 F3600
;WIPE_START
G1 F7200
G1 X119.911 Y100.022 E-.0285
G1 X120.022 Y99.911 E-.07456
G1 X122.963 Y99.911 E-1.39694
;WIPE_END
; printing object xyz-cali-cube-by-r3d_v1.stl id:0 copy 0
G1 X124.447 Y103.678 F9000
G1 E5 F2400
;TYPE:External perimeter
;WIDTH:0.38292
G1 F1200
G1 X124.479 Y103.598 E.00244
G1 X124.479 Y103.598 F9000
G1 X125.396 Y103.044
G1 F1200
G1 X125.124 Y103.179 E.00858
G1 X125.124 Y103.179 F9000
G1 X126.482 Y104.349
;WIDTH:0.423559
G1 F1200
G1 X126.457 Y104.151 E.00632
;WIDTH:0.464198
G1 X126.431 Y103.954 E.00696
;WIDTH:0.473534
G1 X126.427 Y103.002 E.03409
;WIDTH:0.479042
G1 X126.424 Y102.955 E.00171
G1 X126.424 Y102.955 F9000
G1 X127.287 Y101.815
;WIDTH:0.38292
G1 F1200
G1 X127.288 Y102.319 E.01425
G1 X127.307 Y102.397 E.00227
G1 X127.307 Y102.397 F9000
G1 X127.938 Y102.397
G1 F1200
G1 X127.307 Y102.397 E.01784
G1 X127.287 Y102.497 E.00288
G1 X127.287 Y104.346 E.05227
G1 E-3.5 F3600
;WIPE_START
G1 F7200
G1 X127.938 Y102.397 E-.97605
G1 X127.307 Y102.397 E-.29973
G1 X127.287 Y102.497 E-.04844
G1 X127.287 Y102.867 E-.17578
;WIPE_END
G1 X128.157 Y107.636 F9000
G1 E5 F2400
;WIDTH:0.424802
G1 F1200
G1 X128.251 Y107.625 E.00301
;WIDTH:0.40164
G1 X128.474 Y107.518 E.00738
;WIDTH:0.38292
G1 X128.983 Y107.56 E.01444
G1 E-3.5 F3600
;WIPE_START
G1 F7200
G1 X128.157 Y107.636 E-.39401
G1 X128.251 Y107.625 E-.04495
G1 X128.474 Y107.518 E-.11749
G1 X128.983 Y107.56 E-.2426
;WIPE_END
G1 E-.70095 F3600
G1 X125.344 Y108.217 F9000
G1 E5 F2400
G1 F1200
G1 X125.344 Y106.367 E.0523
G1 E-3.5 F3600
;WIPE_START
G1 F7200
G1 X125.344 Y108.217 E-.87875
G1 X125.344 Y106.909 E-.62125
;WIPE_END
G1 X122.237 Y106.859 F9000
G1 E5 F2400
;TYPE:Perimeter
;WIDTH:0.415688
G1 F1200
G1 X122.167 Y106.899 E.0025
G1 X122.237 Y106.94 E.00251
G1 X122.261 Y106.899 E.00147
G1 X122.261 Y106.899 F9000
G1 X122.604 Y107.081
;TYPE:External perimeter
;WIDTH:0.420559
G1 F1200
G1 X122.574 Y107.085 E.00095
;WIDTH:0.419999
G1 X122.311 Y107.411 E.01313
G1 X122.186 Y107.473 E.00437
G1 X121.975 Y107.449 E.00666
G1 X121.859 Y107.239 E.00752
G1 X121.841 Y106.732 E.01591
G1 X121.896 Y106.549 E.00599
G1 X122.029 Y106.42 E.00581
G1 X122.256 Y106.416 E.00712
G1 X122.566 Y106.698 E.01314
;WIDTH:0.420559
G1 X122.727 Y106.705 E.00506
;WIDTH:0.451368
G1 X122.975 Y106.661 E.00855
;WIDTH:0.482176
G1 X123.224 Y106.617 E.00924
G1 X123.291 Y106.526 E.00413
;WIDTH:0.451095
G1 X123.359 Y106.435 E.00386
;WIDTH:0.462841
G1 X123.339 Y106.666 E.0081
;WIDTH:0.505667
G1 X123.32 Y106.898 E.00896
G1 X123.344 Y107.155 E.00993
;WIDTH:0.462732
G1 X123.367 Y107.412 E.00901
;WIDTH:0.450998
G1 X123.306 Y107.308 E.00409
;WIDTH:0.482199
G1 X123.245 Y107.204 E.0044
;WIDTH:0.505667
G1 X123.019 Y107.12 E.00928
G1 X122.866 Y107.094 E.00597
;WIDTH:0.463113
G1 X122.713 Y107.068 E.00542
;WIDTH:0.420559
G1 X122.663 Y107.074 E.00158
G1 E-3.5 F3600
;WIPE_START
G1 F7200
G1 X122.604 Y107.081 E-.02822
G1 X122.574 Y107.085 E-.01438
G1 X122.311 Y107.411 E-.19896
G1 X122.186 Y107.473 E-.06628
G1 X121.975 Y107.449 E-.10087
G1 X121.859 Y107.239 E-.11396
G1 X121.841 Y106.732 E-.24098
G1 X121.896 Y106.549 E-.09077
G1 X122.029 Y106.42 E-.08801
G1 X122.256 Y106.416 E-.10784
G1 X122.566 Y106.698 E-.19906
G1 X122.727 Y106.705 E-.07655
G1 X122.975 Y106.661 E-.11964
G1 X123.088 Y106.641 E-.05448
;WIPE_END
G1 X123.394 Y102.989 F9000
G1 E5 F2400
;TYPE:Perimeter
;WIDTH:0.415612
G1 F1200
G1 X123.324 Y103.029 E.0025
G1 X123.394 Y103.07 E.00251
G1 X123.418 Y103.029 E.00147
G1 X123.418 Y103.029 F9000
G1 X123.761 Y103.211
;TYPE:External perimeter
;WIDTH:0.42056
G1 F1200
G1 X123.731 Y103.215 E.00095
;WIDTH:0.419999
G1 X123.468 Y103.541 E.01313
G1 X123.343 Y103.603 E.00437
G1 X123.132 Y103.579 E.00666
G1 X123.016 Y103.369 E.00752
G1 X122.998 Y102.862 E.01591
G1 X123.053 Y102.679 E.00599
G1 X123.186 Y102.55 E.00581
G1 X123.413 Y102.546 E.00712
G1 X123.65 Y102.779 E.01042
G1 X123.786 Y102.841 E.00469
;WIDTH:0.448517
G1 X124.043 Y102.807 E.00874
;WIDTH:0.494073
G1 X124.299 Y102.773 E.00969
;WIDTH:0.507232
G1 X124.521 Y102.665 E.00953
G1 X124.406 Y103.016 E.01426
;WIDTH:0.489034
G1 X124.488 Y103.175 E.00664
;WIDTH:0.485906
G1 X124.659 Y103.224 E.00655
;WIDTH:0.468874
G1 X124.556 Y103.379 E.00659
;WIDTH:0.441887
G1 X124.499 Y103.479 E.00382
;WIDTH:0.450403
G1 X124.451 Y103.406 E.00296
;WIDTH:0.485906
G1 X124.402 Y103.333 E.00324
G1 X124.136 Y103.265 E.01011
;WIDTH:0.453233
G1 X123.87 Y103.198 E.00936
;WIDTH:0.42056
G1 X123.82 Y103.204 E.00158
G1 X123.82 Y103.204 F9000
G1 X124.558 Y102.6
;WIDTH:0.518522
G1 F1200
G1 X124.688 Y102.507 E.00632
;WIDTH:0.469261
G1 X124.818 Y102.414 E.00567
;WIDTH:0.419999
G1 X125.292 Y102.215 E.01612
G1 X125.782 Y102.248 E.0154
G1 X126.16 Y102.466 E.01368
;WIDTH:0.437878
G1 X126.342 Y102.69 E.00948
;WIDTH:0.479042
G1 X126.424 Y102.955 E.01006
G1 X126.439 Y102.654 E.01093
;WIDTH:0.449521
G1 X126.454 Y102.352 E.01022
;WIDTH:0.419999
G1 X126.421 Y101.84 E.01609
G1 X126.438 Y101.694 E.00461
G1 X126.619 Y101.59 E.00655
G1 X127.215 Y101.635 E.01874
