; generated by PrusaSlicer 2.8.1+win64 on 2024-10-28 at 20:55:58 UTC


;
;

;
;

;
;

;
;

;
;
; 

; external perimeters extrusion width = 0.45mm
; perimeters extrusion width = 0.45mm
; infill extrusion width = 0.45mm
; solid infill extrusion width = 0.45mm
; top infill extrusion width = 0.42mm
; first layer extrusion width = 0.50mm

M73 P0 R7
M73 Q0 S7
M201 X2500 Y2500 Z200 E2500 ; sets maximum accelerations, mm/sec^2
M203 X200 Y200 Z40 E100 ; sets maximum feedrates, mm / sec
M204 P2000 R1200 T2000 ; sets acceleration (P, T) and retract acceleration (R), mm/sec^2
M205 X8.00 Y8.00 Z2.00 E10.00 ; sets the jerk limits, mm/sec
M205 S0 T0 ; sets the minimum extruding and travel feed rate, mm/sec

M486 S0
M486 Axyz-cali-cube-by-r3d_v1.stl
M486 S-1

;TYPE:Custom
M17 ; enable steppers
M862.3 P "MK4" ; printer model check
M862.1 P0.4 A0 F0 ; nozzle check
M115 U6.1.2+7894
M555 X114.916 Y91.1 W32 H23.8005

G90 ; use absolute coordinates
M83 ; extruder relative mode

M140 S60 ; set bed temp
M104 T0 S170 ; set extruder temp for bed leveling
M109 T0 R170 ; wait for temp

M84 E ; turn off E motor

G28 ; home all without mesh bed level

G1 X42 Y-4 Z5 F4800

M302 S160 ; lower cold extrusion limit to 160C


G1 E-2 F2400 ; retraction


M84 E ; turn off E motor

G29 P9 X10 Y-4 W32 H4

M106 S100

G0 Z40 F10000

M190 S60 ; wait for bed temp

M107

;
; MBL
;
M84 E ; turn off E motor
G29 P1 ; invalidate mbl & probe print area
G29 P1 X0 Y0 W50 H20 C ; probe near purge place
G29 P3.2 ; interpolate mbl probes
G29 P3.13 ; extrapolate mbl outside probe area
G29 A ; activate mbl

; prepare for purge
M104 S215
G0 X0 Y-4 Z15 F4800 ; move away and ready for the purge
M109 S215

G92 E0
M569 S0 E ; set spreadcycle mode for extruder

;
; Extrude purge line
;
G92 E0 ; reset extruder position
G1 E2 F2400 ; deretraction after the initial one before nozzle cleaning
G0 E7 X15 Z0.2 F500 ; purge
G0 X25 E4 F500 ; purge
M73 P1 R7
M73 Q1 S7
G0 X35 E4 F650 ; purge
G0 X45 E4 F800 ; purge
G0 X48 Z0.05 F8000 ; wipe, move close to the bed
G0 X51 Z0.2 F8000 ; wipe, move quickly away from the bed

G92 E0
M221 S100 ; set flow to 100%
G21 ; set units to millimeters
G90 ; use absolute coordinates
M83 ; use relative distances for extrusion
M900 K0.05 ; Filament gcode



M142 S36 ; set heatbreak target temp
M107
;LAYER_CHANGE
;Z:0.2
;HEIGHT:0.2
G1 E-.8 F2100
G1 Z.8 F720
G1 X116.784 Y97.356 F12000
G1 Z.2 F720
G1 E.8 F1500
M204 P600
;TYPE:Skirt/Brim
;WIDTH:0.5
G1 F1200
G3 X119.696 Y95.774 I3.447 J2.874 E.12901
G1 X130.29 Y95.773 E.40264
G1 X131.3 Y96.002 E.03936
M73 P2 R7
M73 Q2 S7
G3 X134.21 Y99.561 I-1.572 J4.255 E.18323
G1 X134.247 Y105.382 E.22124
G3 X134.25 Y109.274 I-12.554 J1.955 E.14851
G3 X131.923 Y113.721 I-4.577 J.438 E.20178
G3 X130.13 Y114.242 I-2.361 J-4.78 E.07133
G1 X119.874 Y114.242 E.38979
G3 X115.788 Y110.427 I.363 J-4.485 E.22924
G2 X115.626 Y107.993 I-16.032 J-.157 E.0928
G3 X115.752 Y104.875 I13.042 J-1.033 E.11888
G1 X115.772 Y99.722 E.19585
G3 X116.746 Y97.403 I4.459 J.508 E.09689
M204 P1000
G1 X116.746 Y97.403 F12000
G1 X117.1 Y97.69
M204 P600
G1 F1200
G3 X119.764 Y96.227 I3.127 J2.536 E.11845
G1 X130.216 Y96.224 E.39724
G3 X133.759 Y99.639 I-.446 J4.009 E.20115
G1 X133.79 Y105.389 E.21854
G3 X133.794 Y109.236 I-12.569 J1.936 E.14677
G3 X132.988 Y112.214 I-4.311 J.431 E.11989
G3 X130.109 Y113.785 I-3.255 J-2.54 E.12819
G1 X119.893 Y113.785 E.38827
M73 Q3 S7
G3 X116.244 Y110.39 I.34 J-4.024 E.20415
M73 P3 R7
G2 X116.08 Y107.943 I-16.063 J-.156 E.0933
G3 X116.209 Y104.882 I13.556 J-.962 E.11669
G1 X116.224 Y99.793 E.19342
G3 X117.063 Y97.737 I4.003 J.433 E.08551
M204 P1000
G1 X117.063 Y97.737 F12000
G1 X117.421 Y98.019
M204 P600
G1 F1200
G3 X119.83 Y96.68 I2.802 J2.203 E.10755
G1 X130.144 Y96.676 E.392
G1 X130.964 Y96.853 E.03188
G3 X133.308 Y99.714 I-1.219 J3.389 E.14762
G1 X133.333 Y105.403 E.21622
G3 X133.338 Y109.199 I-12.343 J1.914 E.14483
G3 X132.614 Y111.949 I-3.901 J.444 E.11059
G3 X130.089 Y113.328 I-2.871 J-2.257 E.11239
G1 X119.913 Y113.328 E.38675
G3 X116.7 Y110.351 I.316 J-3.563 E.17916
G2 X116.535 Y107.892 I-16.088 J-.154 E.09376
G3 X116.666 Y104.896 I13.528 J-.906 E.11421
G1 X116.677 Y99.863 E.19129
G3 X117.384 Y98.066 I3.546 J.359 E.07432
M204 P1000
G1 X117.384 Y98.066 F12000
G1 X117.748 Y98.342
M204 P600
G1 F1200
G3 X119.894 Y97.133 I2.471 J1.877 E.09626
G1 X130.119 Y97.133 E.38861
G3 X132.856 Y99.79 I-.341 J3.09 E.15609
M73 P4 R7
M73 Q4 S7
G1 X132.876 Y105.416 E.21382
G3 X132.882 Y109.163 I-12.124 J1.893 E.14297
G3 X132.243 Y111.682 I-3.497 J.454 E.10115
G3 X130.067 Y112.871 I-2.488 J-1.967 E.09683
G1 X119.933 Y112.871 E.38516
G3 X117.156 Y110.311 I.292 J-3.103 E.15421
G2 X116.989 Y107.842 I-16.105 J-.152 E.09414
G3 X117.123 Y104.909 I13.535 J-.849 E.11181
G1 X117.129 Y99.93 E.18923
G3 X117.712 Y98.39 I3.09 J.289 E.06334
M204 P1000
G1 X117.712 Y98.39 F12000
G1 X118.08 Y98.659
M204 P600
G1 F1200
G3 X119.955 Y97.586 I2.136 J1.557 E.08458
G1 X130.095 Y97.59 E.38538
G3 X132.404 Y99.863 I-.313 J2.628 E.13252
G1 X132.419 Y105.428 E.21151
G3 X132.426 Y109.128 I-11.91 J1.872 E.14118
G3 X132.136 Y111.009 I-3.6 J.409 E.07319
G3 X130.045 Y112.414 I-2.371 J-1.27 E.09964
G1 X119.954 Y112.414 E.38352
G3 X117.612 Y110.269 I.268 J-2.644 E.12936
M73 P5 R7
M73 Q5 S7
G2 X117.443 Y107.791 I-16.111 J-.149 E.09449
G3 X117.581 Y104.922 I13.578 J-.788 E.10937
G1 X117.586 Y99.953 E.18885
G3 X118.046 Y98.708 I2.63 J.263 E.05099
M204 P1000
G1 X118.046 Y98.708 F12000
G1 X118.42 Y98.968
M204 P600
G1 F1200
G3 X119.977 Y98.043 I1.792 J1.243 E.07098
G1 X130.07 Y98.048 E.3836
G3 X131.952 Y99.933 I-.285 J2.166 E.10887
G1 X131.962 Y105.441 E.20934
G3 X131.969 Y109.107 I-11.965 J1.857 E.13987
G3 X131.724 Y110.81 I-3.203 J.408 E.06619
G3 X130.024 Y111.957 I-1.953 J-1.062 E.08101
G1 X119.977 Y111.957 E.38185
G3 X118.061 Y110.182 I.241 J-2.181 E.10632
G2 X117.898 Y107.741 I-15.183 J-.209 E.09308
G3 X118.038 Y104.936 I13.665 J-.725 E.10693
G1 X118.043 Y99.976 E.18851
G3 X118.386 Y99.017 I2.169 J.235 E.03907
M204 P1000
G1 X118.386 Y99.017 F12000
G1 X118.768 Y99.267
M204 P600
G1 F1200
G3 X120.001 Y98.5 I1.44 J.941 E.05697
G1 X130.045 Y98.505 E.38174
G3 X131.5 Y99.999 I-.257 J1.705 E.08512
G1 X131.505 Y105.453 E.20729
G3 X131.512 Y109.084 I-11.818 J1.84 E.13854
G3 X131.312 Y110.61 I-2.829 J.405 E.05922
G3 X130 Y111.5 I-1.533 J-.849 E.06252
G1 X120 Y111.5 E.38006
G3 X118.511 Y110.1 I.213 J-1.718 E.08309
M73 P6 R7
M73 Q6 S7
G2 X118.352 Y107.691 I-14.376 J-.261 E.09186
G3 X118.495 Y104.949 I13.805 J-.657 E.10453
G1 X118.5 Y99.999 E.18813
G3 X118.736 Y99.318 I1.708 J.209 E.0276
M204 P1000
G1 X118.736 Y99.318 F12000
G1 X119.126 Y99.553
M204 P600
G1 F1200
G3 X120.023 Y98.957 I1.081 J.654 E.04229
G1 X130.019 Y98.962 E.37991
G3 X131.043 Y100.022 I-.233 J1.249 E.05976
G1 X131.048 Y105.466 E.20691
G3 X131.056 Y109.061 I-11.672 J1.823 E.13717
G3 X130.9 Y110.411 I-2.48 J.399 E.0523
G3 X129.978 Y111.043 I-1.118 J-.644 E.04394
G1 X120.023 Y111.043 E.37835
G3 X118.962 Y110.023 I.188 J-1.257 E.05966
G2 X118.807 Y107.641 I-13.704 J-.301 E.09084
G3 X118.952 Y104.963 I13.941 J-.587 E.10209
G1 X118.957 Y100.022 E.18779
G3 X119.096 Y99.605 I1.25 J.185 E.01679
M204 P1000
G1 X119.096 Y99.605 F12000
G1 X119.496 Y99.823
M204 P600
G1 F1200
G3 X120.045 Y99.414 I.718 J.391 E.02685
G1 X129.999 Y99.423 E.37832
G3 X130.586 Y100.045 I-.22 J.795 E.03417
G1 X130.591 Y105.478 E.20649
G3 X130.599 Y109.039 I-11.527 J1.807 E.13587
G3 X130.463 Y110.249 I-1.92 J.397 E.04705
G3 X129.955 Y110.586 I-.688 J-.487 E.02371
G1 X120.045 Y110.586 E.37664
G3 X119.415 Y109.958 I.169 J-.8 E.03575
M73 P7 R7
M73 Q7 S7
G1 X119.41 Y109.021 E.03561
G3 X119.409 Y104.976 I13.174 J-2.025 E.15433
G1 X119.415 Y100.045 E.18741
G3 X119.47 Y99.877 I.799 J.169 E.00673
M204 P1000
G1 X119.47 Y99.877 F12000
G1 X119.872 Y100.113
M204 P600
G1 F1200
G1 X120.029 Y99.906 E.00987
G1 X129.887 Y99.871 E.37467
G1 X130.128 Y100.113 E.01298
G1 X130.134 Y105.491 E.2044
G3 X130.142 Y109.017 I-11.38 J1.79 E.13454
G1 X130.128 Y109.89 E.03318
G1 X129.887 Y110.129 E.0129
G1 X120.113 Y110.129 E.37147
G1 X119.872 Y109.888 E.01295
G2 X119.689 Y107.01 I-23.652 J.059 E.10967
G1 X119.866 Y104.99 E.07707
G1 X119.871 Y100.173 E.18308
M204 P1000
G1 E-.64 F2100
;WIPE_START
G1 F9600
G1 X119.872 Y100.113 E-.01247
G1 X120.029 Y99.906 E-.05399
G1 X120.479 Y99.904 E-.09354
;WIPE_END
M486 S0
G1 X123.342 Y106.458 Z.325 F12000
G1 Z.2 F720
G1 E.8 F1500
M204 P600
;TYPE:External perimeter
;WIDTH:0.4501
G1 F1200
G1 X123.359 Y106.435 E.00097
;WIDTH:0.462156
G1 X123.338 Y106.667 E.00812
;WIDTH:0.505208
G2 X123.341 Y107.156 I1.649 J.234 E.01887
;WIDTH:0.460671
G1 X123.365 Y107.413 E.00897
;WIDTH:0.448347
G1 X123.305 Y107.309 E.00405
;WIDTH:0.480559
G1 X123.244 Y107.205 E.00439
;WIDTH:0.505208
G2 X122.862 Y107.094 I-.558 J1.204 E.01535
;WIDTH:0.462045
G1 X122.707 Y107.067 E.00548
;WIDTH:0.466484
G1 X122.625 Y107.069 E.00289
;WIDTH:0.514086
G1 X122.542 Y107.07 E.00325
;WIDTH:0.561688
G1 X122.459 Y107.072 E.00358
G1 X122.36 Y107.281 E.00998
G3 X122.101 Y107.333 I-.199 J-.324 E.01164
G1 X122.004 Y107.151 E.0089
G1 X122.038 Y106.636 E.02226
G3 X122.329 Y106.522 I.22 J.133 E.01449
G1 X122.451 Y106.715 E.00985
G1 X122.541 Y106.712 E.00388
;WIDTH:0.514086
G1 X122.631 Y106.708 E.00353
;WIDTH:0.466484
G1 X122.721 Y106.705 E.00317
;WIDTH:0.449989
G1 X122.972 Y106.661 E.00863
;WIDTH:0.481095
G1 X123.224 Y106.617 E.00932
G1 X123.292 Y106.526 E.00414
;WIDTH:0.4501
G1 X123.307 Y106.506 E.00085
M204 P1000
G1 E-.64 F2100
;WIPE_START
G1 F9600
G1 X123.342 Y106.458 E-.01235
G1 X123.359 Y106.435 E-.00594
G1 X123.338 Y106.667 E-.04841
G2 X123.336 Y107.115 I1.649 J.233 E-.0933
;WIPE_END
G1 X124.447 Y103.681 Z.263 F12000
G1 Z.2 F720
G1 E.8 F1500
M204 P600
;WIDTH:0.38292
G1 F1200
G1 X124.479 Y103.598 E.00251
M204 P1000
G1 X124.479 Y103.598 F12000
G1 X125.515 Y103.085
M204 P600
G1 F1200
G1 X125.317 Y103.059 E.00565
G1 X125.124 Y103.179 E.00643
M204 P1000
G1 E-.64 F2100
;WIPE_START
G1 F9600
G1 X125.515 Y103.085 E-.08357
G1 X125.317 Y103.059 E-.0415
G1 X125.174 Y103.148 E-.03493
;WIPE_END
G1 X126.482 Y104.348 Z.231 F12000
G1 Z.2 F720
G1 E.8 F1500
M204 P600
;WIDTH:0.423559
G1 F1200
G1 X126.457 Y104.151 E.00629
;WIDTH:0.464198
G1 X126.431 Y103.954 E.00696
;WIDTH:0.473532
G1 X126.427 Y103.002 E.03409
;WIDTH:0.47904
G1 X126.424 Y102.955 E.00171
M204 P1000
G1 X126.424 Y102.955 F12000
G1 X127.307 Y102.397
M204 P600
;WIDTH:0.38292
G1 F1200
G1 X127.936 Y102.397 E.01778
M204 P1000
G1 E-.64 F2100
;WIPE_START
G1 F9600
G1 X127.307 Y102.397 E-.13071
G1 X127.448 Y102.397 E-.02929
;WIPE_END
G1 X127.287 Y104.345 Z.234 F12000
G1 Z.2 F720
G1 E.8 F1500
M204 P600
G1 F1200
G1 X127.287 Y101.814 E.07155
M204 P1000
G1 E-.64 F2100
;WIPE_START
G1 F9600
G1 X127.287 Y102.584 E-.16
;WIPE_END
G1 X128.122 Y107.637 Z.289 F12000
G1 Z.2 F720
M73 Q8 S7
G1 E.8 F1500
M73 P8 R7
M204 P600
;WIDTH:0.426044
G1 F1200
G1 X128.251 Y107.625 E.00413
;WIDTH:0.401638
G1 X128.474 Y107.518 E.00738
;WIDTH:0.38292
G1 X128.984 Y107.56 E.01447
M204 P1000
G1 E-.64 F2100
;WIPE_START
G1 F9600
G1 X128.217 Y107.628 E-.16
;WIPE_END
G1 X125.344 Y108.217 Z.251 F12000
G1 Z.2 F720
G1 E.8 F1500
M204 P600
G1 F1200
G1 X125.344 Y106.367 E.0523
M204 P1000
G1 E-.64 F2100
;WIPE_START
G1 F9600
G1 X125.344 Y107.137 E-.16
;WIPE_END
G1 X123.805 Y102.838 Z.28 F12000
G1 Z.2 F720
G1 E.8 F1500
M204 P600
;WIDTH:0.447755
G1 F1200
G1 X124.04 Y102.807 E.00798
;WIDTH:0.494158
G1 X124.299 Y102.773 E.0098
;WIDTH:0.507249
G1 X124.518 Y102.671 E.00933
G1 X124.406 Y103.016 E.014
;WIDTH:0.489033
G2 X124.65 Y103.236 I.272 J-.057 E.01304
G2 X124.551 Y103.374 I.125 J.194 E.00645
;WIDTH:0.451962
G1 X124.5 Y103.479 E.00397
G1 X124.472 Y103.414 E.00241
;WIDTH:0.489033
G1 X124.445 Y103.349 E.00261
G1 X124.116 Y103.24 E.01286
;WIDTH:0.525984
G1 X123.865 Y103.221 E.01011
;WIDTH:0.562935
G1 X123.615 Y103.202 E.01084
G1 X123.514 Y103.417 E.01027
G3 X123.259 Y103.462 I-.16 J-.164 E.0119
G1 X123.183 Y103.306 E.0075
G3 X123.189 Y102.774 I1.815 J-.247 E.02309
G3 X123.486 Y102.653 I.243 J.171 E.01465
G1 X123.607 Y102.845 E.00981
G1 X123.65 Y102.844 E.00186
;WIDTH:0.522539
G1 X123.693 Y102.843 E.00172
;WIDTH:0.482143
G1 X123.737 Y102.842 E.00161
;WIDTH:0.441747
G1 X123.745 Y102.842 E.00027
M204 P1000
G1 E-.64 F2100
;WIPE_START
G1 F9600
G1 X123.805 Y102.838 E-.0125
G1 X124.04 Y102.807 E-.04926
G1 X124.299 Y102.773 E-.05429
G1 X124.491 Y102.683 E-.04395
;WIPE_END
G1 X125.272 Y102.225 Z.216 F12000
G1 Z.2 F720
G1 E.8 F1500
M204 P600
;WIDTH:0.499999
G1 F1200
G1 X125.33 Y102.207 E.00231
G1 X125.447 Y102.201 E.00445
G1 X125.967 Y102.31 E.02019
G1 X126.3 Y102.563 E.01589
G1 X126.369 Y102.684 E.00529
;WIDTH:0.493626
G1 X126.424 Y102.955 E.01036
;WIDTH:0.499999
G1 X126.399 Y101.805 E.04372
G1 X126.42 Y101.703 E.00396
G1 X126.634 Y101.57 E.00958
G1 X127.231 Y101.598 E.02271
;WIDTH:0.498678
G1 X127.25 Y101.67 E.00282
;WIDTH:0.460092
G1 X127.268 Y101.742 E.00257
;WIDTH:0.421506
G1 X127.287 Y101.814 E.00234
G1 X127.307 Y101.743 E.00232
;WIDTH:0.460092
G1 X127.326 Y101.671 E.00258
;WIDTH:0.498678
G1 X127.346 Y101.599 E.00283
;WIDTH:0.499999
G1 X127.975 Y101.515 E.02412
G1 X128.193 Y101.613 E.00908
G1 X128.23 Y101.772 E.0062
G1 X128.155 Y102.327 E.02129
G1 X128.082 Y102.35 E.00291
;WIDTH:0.460973
G1 X128.009 Y102.374 E.00267
;WIDTH:0.421947
G1 X127.936 Y102.397 E.00241
;WIDTH:0.428617
G1 X128.027 Y102.418 E.003
;WIDTH:0.474313
G1 X128.118 Y102.44 E.00336
;WIDTH:0.499999
G3 X128.349 Y103.415 I-2.52 J1.11 E.0383
G1 X128.29 Y104.496 E.04115
G3 X128.05 Y104.703 I-.26 J-.059 E.0129
G1 X127.468 Y104.578 E.02262
G3 X127.339 Y104.485 I-.021 J-.107 E.00677
;WIDTH:0.460973
G1 X127.313 Y104.415 E.0026
;WIDTH:0.421947
G1 X127.287 Y104.345 E.00235
G1 X127.264 Y104.416 E.00235
;WIDTH:0.460973
G1 X127.24 Y104.487 E.00261
;WIDTH:0.499999
G1 X127.217 Y104.558 E.00284
G1 X126.642 Y104.565 E.02186
G1 X126.548 Y104.532 E.00379
;WIDTH:0.480044
G1 X126.515 Y104.44 E.00355
;WIDTH:0.431482
G1 X126.482 Y104.348 E.00316
;WIDTH:0.421947
G1 X126.445 Y104.417 E.00247
;WIDTH:0.460973
G1 X126.408 Y104.486 E.00272
;WIDTH:0.499999
G1 X126.371 Y104.555 E.00298
;WIDTH:0.548095
G1 X126.182 Y104.61 E.00827
;WIDTH:0.59619
G1 X125.992 Y104.665 E.0091
;WIDTH:0.644285
G1 X125.803 Y104.72 E.00984
;WIDTH:0.649263
G1 X125.298 Y104.754 E.02552
;WIDTH:0.64952
G3 X125.056 Y104.691 I-.073 J-.214 E.01336
;WIDTH:0.59968
G1 X124.93 Y104.611 E.00691
;WIDTH:0.54984
G1 X124.804 Y104.53 E.00631
;WIDTH:0.499999
G3 X124.413 Y104.092 I.476 J-.817 E.02269
G1 X124.41 Y103.924 E.00639
G1 X124.346 Y104.071 E.00609
G3 X123.609 Y104.679 I-1.936 J-1.596 E.03654
G1 X123.055 Y104.764 E.0213
;WIDTH:0.541261
G1 X122.871 Y104.745 E.00766
;WIDTH:0.582523
G3 X122.544 Y104.649 I-.019 J-.542 E.01555
;WIDTH:0.540532
G1 X122.103 Y104.285 E.02366
;WIDTH:0.499999
G1 X121.808 Y103.775 E.02239
G1 X121.699 Y103.13 E.02486
G1 X121.777 Y102.486 E.02465
G1 X122.102 Y101.873 E.02637
G1 X122.567 Y101.512 E.02237
G1 X123.116 Y101.366 E.02159
G1 X123.486 Y101.369 E.01406
G3 X124.104 Y101.667 I-.459 J1.742 E.02624
G1 X124.414 Y102.136 E.02137
;WIDTH:0.509868
G1 X124.547 Y102.449 E.0132
;WIDTH:0.518886
G1 X124.558 Y102.599 E.00595
G1 X124.83 Y102.367 E.01415
;WIDTH:0.499999
G1 X125.215 Y102.244 E.01536
M204 P1000
G1 E-.64 F2100
;WIPE_START
G1 F9600
G1 X125.272 Y102.225 E-.01249
G1 X125.33 Y102.207 E-.01262
G1 X125.447 Y102.201 E-.02435
G1 X125.967 Y102.31 E-.11041
G1 X125.967 Y102.31 E-.00013
;WIPE_END
G1 X124.382 Y107.568 Z.296 F12000
G1 Z.2 F720
G1 E.8 F1500
M204 P600
;WIDTH:0.360125
G1 F1200
G3 X124.538 Y107.407 I.234 J.071 E.00614
;WIDTH:0.363177
G1 X124.545 Y106.367 E.0277
;WIDTH:0.408785
G1 X124.559 Y106.302 E.00202
;WIDTH:0.454392
G1 X124.573 Y106.237 E.00227
;WIDTH:0.499999
G1 X124.586 Y106.172 E.00252
G3 X125.224 Y106.174 I.315 J1.702 E.02439
;WIDTH:0.462123
G1 X125.288 Y106.214 E.00263
;WIDTH:0.432249
G1 X125.344 Y106.367 E.00527
;WIDTH:0.422522
G1 X125.305 Y106.248 E.00395
;WIDTH:0.462123
G1 X125.266 Y106.128 E.0044
;WIDTH:0.499999
G1 X125.207 Y105.61 E.01981
;WIDTH:0.538464
G1 X125.239 Y105.548 E.00287
;WIDTH:0.576928
G1 X125.271 Y105.487 E.00306
;WIDTH:0.615393
