; generated by PrusaSlicer 2.8.1+win64 on 2024-10-28 at 18:14:42 UTC


;
;

;
;

;
;

;
;

;
;
; 

; external perimeters extrusion width = 0.45mm
; perimeters extrusion width = 0.45mm
; infill extrusion width = 0.45mm
; solid infill extrusion width = 0.45mm
; top infill extrusion width = 0.42mm
; first layer extrusion width = 0.50mm

M73 P0 R1
M73 Q0 S1
M201 X4000 Y4000 Z200 E2500 ; sets maximum accelerations, mm/sec^2
M203 X300 Y300 Z40 E100 ; sets maximum feedrates, mm / sec
M204 P4000 R1200 T4000 ; sets acceleration (P, T) and retract acceleration (R), mm/sec^2
M205 X8.00 Y8.00 Z2.00 E10.00 ; sets the jerk limits, mm/sec
M205 S0 T0 ; sets the minimum extruding and travel feed rate, mm/sec

M486 S0
M486 Axyz-cali-cube-by-r3d_v1.stl
M486 S-1

;TYPE:Custom
M17 ; enable steppers
M862.1 P0.4 ; nozzle diameter check
M862.3 P "MK4S" ; printer model check
M862.5 P2 ; g-code level check
M862.6 P"Input shaper" ; FW feature check
M115 U6.0.4+14924

M555 X118.1 Y94.1 W32 H17.8

G90 ; use absolute coordinates
M83 ; extruder relative mode

M140 S60 ; set bed temp
M104 T0 S170 ; set extruder temp for bed leveling
M109 T0 R170 ; wait for temp

M84 E ; turn off E motor

G28 ; home all without mesh bed level

G1 X42 Y-4 Z5 F4800

M302 S160 ; lower cold extrusion limit to 160C


G1 E-2 F2400 ; retraction


M84 E ; turn off E motor

G29 P9 X10 Y-4 W32 H4

M106 S100

G0 Z40 F10000

M190 S60 ; wait for bed temp

M107

;
; MBL
;
M84 E ; turn off E motor
G29 P1 ; invalidate mbl & probe print area
G29 P1 X0 Y0 W50 H20 C ; probe near purge place
G29 P3.2 ; interpolate mbl probes
G29 P3.13 ; extrapolate mbl outside probe area
G29 A ; activate mbl

; prepare for purge
M104 S230
G0 X0 Y-4 Z15 F4800 ; move away and ready for the purge
M73 P2 R1
M73 Q2 S1
M109 S230

G92 E0
M569 S0 E ; set spreadcycle mode for extruder

;
; Extrude purge line
;
G92 E0 ; reset extruder position
G1 E2 F2400 ; deretraction after the initial one before nozzle cleaning
M73 P3 R1
M73 Q3 S1
G0 E7 X15 Z0.2 F500 ; purge
G0 X25 E4 F500 ; purge
M73 P7 R1
M73 Q7 S1
G0 X35 E4 F650 ; purge
M73 P9 R1
M73 Q9 S1
G0 X45 E4 F800 ; purge
M73 P10 R1
M73 Q10 S1
G0 X48 Z0.05 F8000 ; wipe, move close to the bed
M73 P11 R0
M73 Q11 S1
G0 X51 Z0.2 F8000 ; wipe, move quickly away from the bed

G92 E0
M221 S100 ; set flow to 100%
G21 ; set units to millimeters
G90 ; use absolute coordinates
M83 ; use relative distances for extrusion
M572 S0.036 ; Filament gcode

M142 S36 ; set heatbreak target temp
M107
;LAYER_CHANGE
;Z:0.2
;HEIGHT:0.2
G1 E-.7 F2100
M73 P12 R0
G1 Z.8 F720
G1 X119.793 Y100.346 F18000
G1 Z.2 F720
M73 Q13 S1
G1 E.7 F1500
M73 P13 R0
M73 Q13 S0
M204 P500
;TYPE:Skirt/Brim
;WIDTH:0.5
G1 F2400
G3 X122.509 Y98.796 I3.45 J2.89 E.12138
G1 X127.541 Y98.802 E.19125
G3 X131.211 Y102.562 I-.798 J4.45 E.21308
G1 X131.243 Y107.123 E.17335
G3 X127.321 Y111.223 I-4.475 J-.354 E.23343
M73 P14 R0
M73 Q14 S0
G1 X122.82 Y111.238 E.17107
G3 X118.777 Y107.321 I.41 J-4.469 E.23126
G1 X118.762 Y102.82 E.17107
G3 X119.755 Y100.392 I4.481 J.416 E.10117
M204 P4000
M204 T4000
G1 X119.755 Y100.392 F18000
G1 X120.108 Y100.68
M204 P500
G1 F2400
G3 X122.539 Y99.253 I3.133 J2.553 E.10944
G1 X127.511 Y99.259 E.18897
M73 Q15 S0
G3 X130.754 Y102.593 I-.772 J3.995 E.18817
M73 P15 R0
G1 X130.786 Y107.104 E.17145
G3 X127.248 Y110.771 I-4.013 J-.33 E.20969
G1 X122.842 Y110.781 E.16746
G3 X119.229 Y107.248 I.384 J-4.007 E.20763
M73 Q16 S0
G1 X119.219 Y102.842 E.16746
M73 P16 R0
G3 X120.071 Y100.727 I4.022 J.391 E.08785
M204 P4000
G1 X120.071 Y100.727 F18000
G1 X120.429 Y101.01
M204 P500
G1 F2400
G3 X122.571 Y99.71 I2.811 J2.22 E.09729
G1 X127.424 Y99.709 E.18444
G1 X127.911 Y99.835 E.01912
G3 X130.297 Y102.625 I-1.178 J3.423 E.14633
G1 X130.328 Y107.084 E.16947
G3 X127.178 Y110.319 I-3.55 J-.306 E.18585
M73 P17 R0
M73 Q17 S0
G1 X122.865 Y110.324 E.16392
G3 X119.681 Y107.178 I.356 J-3.546 E.18394
G1 X119.676 Y102.865 E.16392
G3 X120.392 Y101.057 I3.564 J.365 E.07485
M204 P4000
G1 X120.392 Y101.057 F18000
G1 X120.754 Y101.333
M204 P500
G1 F2400
G3 X122.659 Y100.16 I2.479 J1.891 E.08697
G1 X127.338 Y100.159 E.17783
M73 Q18 S0
G3 X129.84 Y102.658 I-.588 J3.091 E.14272
M73 P18 R0
G1 X129.871 Y107.064 E.16746
G3 X127.11 Y109.867 I-3.088 J-.281 E.16199
G1 X122.889 Y109.867 E.16042
G3 X120.133 Y107.111 I.328 J-3.084 E.16018
G1 X120.133 Y102.889 E.16046
G3 X120.718 Y101.381 I3.1 J.335 E.06219
M73 P19 R0
M73 Q19 S0
M204 P4000
G1 X120.718 Y101.381 F18000
G1 X121.086 Y101.651
M204 P500
G1 F2400
G3 X122.745 Y100.609 I2.141 J1.568 E.07626
G1 X127.254 Y100.609 E.17137
G1 X127.622 Y100.702 E.01443
G3 X129.391 Y102.745 I-.878 J2.547 E.10759
G1 X129.414 Y107.043 E.16335
G3 X127.046 Y109.414 I-2.627 J-.256 E.13798
G1 X122.955 Y109.414 E.15548
G3 X120.586 Y107.046 I.258 J-2.627 E.13791
M73 P20 R0
M73 Q20 S0
G1 X120.586 Y102.955 E.15548
G3 X121.051 Y101.7 I2.641 J.264 E.05142
M204 P4000
G1 X121.051 Y101.7 F18000
G1 X121.425 Y101.961
M204 P500
G1 F2400
G3 X122.828 Y101.059 I1.796 J1.254 E.06503
G1 X127.172 Y101.059 E.1651
G3 X128.941 Y102.828 I-.405 J2.174 E.10106
G1 X128.957 Y107.021 E.15936
G3 X127.022 Y108.957 I-2.165 J-.229 E.1125
M73 P21 R0
M73 Q21 S0
G1 X122.978 Y108.957 E.1537
G3 X121.043 Y107.022 I.231 J-2.165 E.11246
G1 X121.043 Y102.978 E.1537
G3 X121.391 Y102.01 I2.178 J.237 E.03946
M204 P4000
G1 X121.391 Y102.01 F18000
G1 X121.772 Y102.261
M204 P500
G1 F2400
G3 X122.907 Y101.51 I1.444 J.95 E.05316
G1 X127.093 Y101.51 E.15909
G1 X127.306 Y101.561 E.00832
G3 X128.49 Y102.907 I-.543 J1.671 E.0715
G1 X128.5 Y107 E.15556
M73 P22 R0
M73 Q22 S0
G3 X127 Y108.5 I-1.706 J-.206 E.0869
G1 X123 Y108.5 E.15203
G3 X121.5 Y107 I.206 J-1.706 E.0869
G1 X121.5 Y103 E.15203
G3 X121.74 Y102.311 I1.716 J.211 E.02794
M204 P4000
G1 X121.74 Y102.311 F18000
G1 X122.129 Y102.549
M204 P500
G1 F2400
G3 X122.981 Y101.962 I1.083 J.66 E.0405
G1 X127.019 Y101.962 E.15347
G3 X128.038 Y102.981 I-.238 J1.257 E.05818
M73 P23 R0
M73 Q23 S0
G1 X128.043 Y106.977 E.15187
G3 X126.977 Y108.043 I-1.248 J-.182 E.06141
G1 X123.023 Y108.043 E.15028
G3 X121.957 Y106.977 I.182 J-1.248 E.06141
G1 X121.957 Y103.023 E.15028
G3 X122.099 Y102.601 I1.255 J.186 E.01701
M204 P4000
G1 X122.099 Y102.601 F18000
G1 X122.498 Y102.82
M204 P500
G1 F2400
G3 X123.045 Y102.414 I.716 J.394 E.02671
G1 X126.999 Y102.423 E.15028
G3 X127.586 Y103.045 I-.22 J.795 E.03417
M73 P24 R0
M73 Q24 S0
G1 X127.586 Y106.955 E.1486
G3 X126.955 Y107.586 I-.8 J-.169 E.03588
G1 X123.045 Y107.586 E.1486
G3 X122.414 Y106.955 I.169 J-.8 E.03588
G1 X122.414 Y103.045 E.1486
G3 X122.471 Y102.874 I.8 J.169 E.00686
M204 P4000
G1 X122.471 Y102.874 F18000
G1 X122.889 Y103.07
M204 P500
G1 F2400
G3 X123.113 Y102.871 I.343 J.162 E.01171
G1 X126.887 Y102.871 E.14344
G3 X127.129 Y103.113 I-.119 J.361 E.01349
G1 X127.129 Y106.887 E.14344
M73 P25 R0
G3 X126.887 Y107.129 I-.361 J-.119 E.01349
M73 Q25 S0
G1 X123.113 Y107.129 E.14344
G3 X122.871 Y106.887 I.119 J-.361 E.01349
G1 X122.871 Y103.127 E.1429
M204 P4000
G1 E-.7 F2100
G1 X122.871 Y103.127 F18000
M486 S0
G1 X126.093 Y103.907 Z.258
G1 Z.2 F720
G1 E.7 F1500
M204 P500
;TYPE:Perimeter
;WIDTH:0.499999
G1 F2400
G1 X126.093 Y105 E.04154
G1 X126.093 Y106.093 E.04154
G1 X123.907 Y106.093 E.08308
M73 P26 R0
G1 X123.907 Y103.907 E.08308
M73 Q26 S0
G1 X126.033 Y103.907 E.0808
M204 P4000
G1 X126.55 Y103.45 F18000
M204 P500
;TYPE:External perimeter
G1 F2400
G1 X126.55 Y105 E.05891
G1 X126.55 Y106.55 E.05891
G1 X123.45 Y106.55 E.11782
G1 X123.45 Y103.45 E.11782
G1 X126.49 Y103.45 E.11554
M73 P27 R0
M73 Q27 S0
M204 P4000
G1 X126.549 Y103.846 F18000
G1 E-.7 F2100
G1 X124.836 Y104.09 Z.23 F18000
G1 Z.2 F720
G1 E.7 F1500
M204 P500
;TYPE:Solid infill
;WIDTH:0.570672
G1 F2400
G1 X125.704 Y104.958 E.05387
G1 X125.704 Y105.704 E.03274
G1 X124.296 Y104.296 E.08738
G1 X124.296 Y105.042 E.03274
G1 X125.164 Y105.91 E.05387
M204 P4000
M106 S127.5
;LAYER_CHANGE
;Z:0.4
;HEIGHT:0.2
;BEFORE_LAYER_CHANGE
G92 E0.0
;0.4
M201 X3999.96 Y3999.96

G1 E-.7 F2100
G1 X125.164 Y105.91 Z.2 F18000
M73 Q28 S0
G1 X126.368 Y103.632 Z.4 F9625.247
;AFTER_LAYER_CHANGE
;0.4
M74 W0.0364665

M104 S225 ; set temperature
G1 X126.368 Y103.632 F18000
M73 P28 R0
G1 Z.4 F720
G1 E.7 F1500
;TYPE:Perimeter
;WIDTH:0.449999
G1 F1200
G1 X126.368 Y106.368 E.09261
G1 X123.632 Y106.368 E.09261
G1 X123.632 Y103.632 E.09261
G1 X126.308 Y103.632 E.09058
G1 X126.775 Y103.225 F18000
M73 P29 R0
;TYPE:External perimeter
G1 F1200
G1 X126.775 Y106.775 E.12016
G1 X123.225 Y106.775 E.12016
M73 Q29 S0
G1 X123.225 Y103.225 E.12016
G1 X126.715 Y103.225 E.11813
G1 X126.774 Y103.621 F18000
M73 P30 R0
M73 Q30 S0
G1 E-.7 F2100
G1 X123.978 Y103.978 Z.449 F18000
G1 Z.4 F720
G1 E.7 F1500
;TYPE:Solid infill
G1 F1200
G1 X126.022 Y103.978 E.06919
G1 X126.022 Y106.022 E.06919
G1 X123.978 Y106.022 E.06919
G1 X123.978 Y104.182 E.06228
G1 X124.385 Y104.385 E.01539
G1 X125.615 Y104.385 E.04163
G1 X125.615 Y105.615 E.04163
M73 P31 R0
M73 Q31 S0
G1 X124.385 Y105.615 E.04163
G1 X124.385 Y104.589 E.03473
G1 X124.794 Y104.794 E.01549
;WIDTH:0.454205
G1 X125.206 Y104.794 E.01409
G1 X125.206 Y105.206 E.01409
G1 X124.794 Y105.206 E.01409
G1 X124.794 Y104.998 E.00711
M106 S255
;LAYER_CHANGE
;Z:0.6
;HEIGHT:0.2
;BEFORE_LAYER_CHANGE
G92 E0.0
;0.6
M201 X3999.96 Y3999.96

G1 E-.7 F2100
G1 X124.794 Y104.998 Z.4 F18000
G1 X126.368 Y103.632 Z.6 F7921.103
;AFTER_LAYER_CHANGE
;0.6
M74 W0.0405131

G1 X126.368 Y103.632 F18000
G1 Z.6 F720
G1 E.7 F1500
;TYPE:Perimeter
;WIDTH:0.449999
G1 F1200
G1 X126.368 Y106.368 E.09261
G1 X123.632 Y106.368 E.09261
G1 X123.632 Y103.632 E.09261
M73 P32 R0
M73 Q32 S0
G1 X126.308 Y103.632 E.09058
G1 X126.775 Y103.225 F18000
;TYPE:External perimeter
G1 F1200
G1 X126.775 Y106.775 E.12016
G1 X123.225 Y106.775 E.12016
G1 X123.225 Y103.225 E.12016
M73 P33 R0
M73 Q33 S0
G1 X126.715 Y103.225 E.11813
G1 X126.774 Y103.621 F18000
G1 E-.7 F2100
G1 X123.978 Y106.022 Z.664 F18000
G1 Z.6 F720
G1 E.7 F1500
;TYPE:Solid infill
G1 F1200
G1 X123.978 Y103.978 E.06919
G1 X126.022 Y103.978 E.06919
M73 P34 R0
G1 X126.022 Y106.022 E.06919
M73 Q34 S0
G1 X124.182 Y106.022 E.06228
G1 X124.385 Y105.615 E.01539
G1 X124.385 Y104.385 E.04163
G1 X125.615 Y104.385 E.04163
G1 X125.615 Y105.615 E.04163
G1 X124.589 Y105.615 E.03473
G1 X124.794 Y105.206 E.01549
;WIDTH:0.454205
G1 X124.794 Y104.794 E.01409
G1 X125.206 Y104.794 E.01409
G1 X125.206 Y105.206 E.01409
G1 X124.998 Y105.206 E.00711
;LAYER_CHANGE
;Z:0.8
;HEIGHT:0.2
;BEFORE_LAYER_CHANGE
G92 E0.0
;0.8
M201 X3999.95 Y3999.95

G1 E-.7 F2100
M73 P35 R0
G1 X124.998 Y105.206 Z.6 F18000
M73 Q35 S0
G1 X126.368 Y103.745 Z.8 F7642.212
;AFTER_LAYER_CHANGE
;0.8
M74 W0.0445597

G1 X126.368 Y103.745 F18000
G1 Z.8 F720
G1 E.7 F1500
;TYPE:Perimeter
;WIDTH:0.449999
G1 F1200
G1 X126.368 Y104.381 E.02153
G1 X126.293 Y104.418 E.00283
G1 X126.176 Y104.691 E.01005
G1 X126.168 Y105.176 E.01642
G1 X126.274 Y105.519 E.01215
G1 X126.368 Y105.569 E.0036
G1 X126.368 Y106.368 E.02705
G1 X123.632 Y106.368 E.09261
G1 X123.632 Y105.723 E.02183
G1 X123.715 Y105.681 E.00315
G1 X123.832 Y105.321 E.01281
G1 X123.832 Y105.176 E.00491
G1 X123.826 Y104.591 E.0198
G1 X123.695 Y104.294 E.01099
G1 X123.632 Y104.263 E.00238
G1 X123.632 Y103.745 E.01753
G1 X123.787 Y103.832 E.00602
G1 X124.243 Y103.832 E.01544
G1 X124.502 Y103.775 E.00898
G1 X124.616 Y103.632 E.00619
G1 X125.372 Y103.632 E.02559
G1 X125.441 Y103.751 E.00466
G1 X125.597 Y103.814 E.00569
G1 X126.213 Y103.832 E.02086
M73 P36 R0
G1 X126.316 Y103.774 E.004
M73 Q36 S0
G1 X126.316 Y103.774 F18000
G1 X126.341 Y103.352
;TYPE:External perimeter
G1 F1200
G1 X126.388 Y103.326 E.00182
G1 X126.416 Y103.225 E.00355
G1 X126.775 Y103.225 E.01215
G1 X126.775 Y104.587 E.0461
G1 X126.591 Y104.709 E.00747
G1 X126.575 Y105.176 E.01582
G1 X126.61 Y105.29 E.00404
G1 X126.775 Y105.377 E.00631
G1 X126.775 Y106.775 E.04732
G1 X123.225 Y106.775 E.12016
G1 X123.225 Y105.523 E.04238
G1 X123.386 Y105.441 E.00612
G1 X123.425 Y105.321 E.00427
G1 X123.425 Y104.679 E.02173
G1 X123.379 Y104.55 E.00464
G1 X123.225 Y104.477 E.00577
G1 X123.225 Y103.225 E.04238
G1 X123.584 Y103.225 E.01215
G1 X123.612 Y103.326 E.00355
M73 P37 R0
G1 X123.787 Y103.425 E.00681
G1 X124.312 Y103.413 E.01778
G1 X124.444 Y103.225 E.00778
M73 Q37 S0
G1 X125.543 Y103.225 E.0372
G1 X125.643 Y103.398 E.00676
G1 X125.695 Y103.419 E.0019
G1 X126.213 Y103.425 E.01753
G1 X126.289 Y103.382 E.00296
G1 X126.657 Y103.225 F18000
G1 X126.022 Y104.182
;TYPE:Internal infill
;WIDTH:0.45
G1 F1200
G2 X126.022 Y105.751 I1.328 J.784 E.05571
G1 X126.022 Y106.022 E.00917
G1 X124.178 Y104.178 E.08827
G2 X124.783 Y103.978 I.084 J-.761 E.02225
G1 X125.204 Y103.978 E.01425
G2 X125.736 Y104.178 I.499 J-.519 E.01978
G1 X125.822 Y104.178 E.00291
G1 X123.978 Y106.022 E.08827
G3 X124.178 Y105.344 I2.325 J.317 E.02402
M73 P38 R0
G2 X124.12 Y104.348 I-3.037 J-.324 E.03392
M73 Q38 S0
G1 X124.049 Y104.221 E.00492
;LAYER_CHANGE
;Z:1
;HEIGHT:0.2
;BEFORE_LAYER_CHANGE
G92 E0.0
;1
M201 X3999.95 Y3999.95

G1 E-.7 F2100
G1 X124.049 Y104.221 Z.8 F18000
G1 X126.368 Y103.684 Z1 F8946.585
;AFTER_LAYER_CHANGE
;1
M74 W0.0482789

G1 X126.368 Y103.684 F18000
G1 Z1 F720
G1 E.7 F1500
;TYPE:Perimeter
;WIDTH:0.449999
G1 F1200
G1 X126.368 Y104.381 E.02359
G1 X126.293 Y104.418 E.00283
G1 X126.192 Y104.618 E.00758
G1 X126.168 Y105.176 E.01891
G1 X126.274 Y105.519 E.01215
G1 X126.368 Y105.569 E.0036
G1 X126.368 Y106.368 E.02705
G1 X123.632 Y106.368 E.09261
G1 X123.632 Y105.723 E.02183
G1 X123.715 Y105.681 E.00315
G1 X123.832 Y105.321 E.01281
G1 X123.829 Y104.619 E.02376
G1 X123.704 Y104.304 E.01147
G1 X123.632 Y104.263 E.0028
G1 X123.632 Y103.685 E.01956
G1 X123.935 Y103.832 E.0114
G1 X124.462 Y103.827 E.01784
G1 X124.749 Y103.713 E.01045
M73 P39 R0
G1 X124.79 Y103.632 E.00307
M73 Q39 S0
G1 X125.2 Y103.632 E.01388
G1 X125.241 Y103.713 E.00307
G1 X125.505 Y103.824 E.00969
G1 X126.07 Y103.832 E.01913
G1 X126.314 Y103.711 E.00922
G1 X126.314 Y103.711 F18000
G1 X126.194 Y103.358
;TYPE:External perimeter
G1 F1200
G1 X126.232 Y103.344 E.00137
G1 X126.272 Y103.225 E.00425
G1 X126.775 Y103.225 E.01703
G1 X126.775 Y104.587 E.0461
G1 X126.617 Y104.665 E.00596
G1 X126.583 Y104.732 E.00254
G1 X126.575 Y105.176 E.01503
G1 X126.61 Y105.29 E.00404
G1 X126.775 Y105.377 E.00631
G1 X126.775 Y106.775 E.04732
G1 X123.225 Y106.775 E.12016
G1 X123.225 Y105.523 E.04238
G1 X123.386 Y105.441 E.00612
G1 X123.425 Y105.321 E.00427
G1 X123.425 Y104.679 E.02173
G1 X123.382 Y104.554 E.00447
G1 X123.225 Y104.477 E.00592
G1 X123.225 Y103.225 E.04238
M73 P40 R0
G1 X123.733 Y103.225 E.0172
M73 Q40 S0
G1 X123.773 Y103.345 E.00428
G1 X123.935 Y103.425 E.00612
G1 X124.476 Y103.404 E.01833
G1 X124.589 Y103.225 E.00717
G1 X125.402 Y103.225 E.02752
G1 X125.514 Y103.404 E.00715
G1 X126.003 Y103.425 E.01657
G1 X126.138 Y103.378 E.00484
G1 X126.507 Y103.225 F18000
G1 X126.022 Y104.182
;TYPE:Internal infill
;WIDTH:0.45
G1 F1200
G2 X126.022 Y105.751 I1.327 J.784 E.05572
G1 X126.022 Y106.022 E.00917
G1 X124.175 Y104.175 E.08841
G2 X125.012 Y103.978 I.123 J-1.352 E.02962
G2 X125.822 Y104.178 I.673 J-.987 E.02885
G1 X123.978 Y106.022 E.08827
G3 X124.178 Y105.344 I2.327 J.318 E.02402
M73 P41 R0
M73 Q41 S0
G1 X124.174 Y104.587 E.02562
G2 X124.042 Y104.221 I-.909 J.122 E.01327
;LAYER_CHANGE
;Z:1.2
;HEIGHT:0.2
;BEFORE_LAYER_CHANGE
G92 E0.0
;1.2
M201 X3999.94 Y3999.94

G1 E-.7 F2100
G1 X124.042 Y104.221 Z1 F18000
G1 X126.336 Y103.65 Z1.2 F8889.382
;AFTER_LAYER_CHANGE
;1.2
M74 W0.0520099

G1 X126.336 Y103.65 F18000
G1 Z1.2 F720
G1 E.7 F1500
;TYPE:Perimeter
;WIDTH:0.449999
G1 F1200
G1 X126.368 Y103.636 E.00118
G1 X126.368 Y104.382 E.02525
G1 X126.293 Y104.419 E.00283
G1 X126.177 Y104.683 E.00976
G1 X126.168 Y105.176 E.01669
G1 X126.274 Y105.519 E.01215
G1 X126.368 Y105.569 E.0036
G1 X126.368 Y106.368 E.02705
G1 X123.632 Y106.368 E.09261
G1 X123.632 Y105.723 E.02183
G1 X123.715 Y105.681 E.00315
G1 X123.832 Y105.321 E.01281
G1 X123.832 Y104.679 E.02173
G1 X123.757 Y104.385 E.01027
G1 X123.632 Y104.264 E.00589
M73 P42 R0
G1 X123.632 Y103.632 E.02139
G1 X123.977 Y103.823 E.01335
M73 Q42 S0
G1 X124.084 Y103.832 E.00363
G1 X124.691 Y103.811 E.02056
