; generated by PrusaSlicer 2.8.1+win64 on 2024-11-10 at 04:11:14 UTC


;
;

;
;

;
;

;
;

;
;
; 

; external perimeters extrusion width = 0.45mm
; perimeters extrusion width = 0.45mm
; infill extrusion width = 0.45mm
; solid infill extrusion width = 0.45mm
; top infill extrusion width = 0.42mm
; first layer extrusion width = 0.50mm

M73 P0 R6
M73 Q0 S6
M201 X4000 Y4000 Z200 E2500 ; sets maximum accelerations, mm/sec^2
M203 X300 Y300 Z40 E100 ; sets maximum feedrates, mm / sec
M204 P4000 R1200 T4000 ; sets acceleration (P, T) and retract acceleration (R), mm/sec^2
M205 X8.00 Y8.00 Z2.00 E10.00 ; sets the jerk limits, mm/sec
M205 S0 T0 ; sets the minimum extruding and travel feed rate, mm/sec

M486 S0
M486 Axyz-cali-cube-by-r3d_v1.stl
M486 S-1

;TYPE:Custom
M17 ; enable steppers
M862.1 P0.4 ; nozzle diameter check
M862.3 P "MK4S" ; printer model check
M862.5 P2 ; g-code level check
M862.6 P"Input shaper" ; FW feature check
M115 U6.0.4+14924

M555 X114.916 Y91.1 W32 H23.8005

G90 ; use absolute coordinates
M83 ; extruder relative mode

M140 S60 ; set bed temp
M104 T0 S170 ; set extruder temp for bed leveling
M109 T0 R170 ; wait for temp

M84 E ; turn off E motor

G28 ; home all without mesh bed level

G1 X42 Y-4 Z5 F4800

M302 S160 ; lower cold extrusion limit to 160C


G1 E-2 F2400 ; retraction


M84 E ; turn off E motor

G29 P9 X10 Y-4 W32 H4

M106 S100

G0 Z40 F10000

M190 S60 ; wait for bed temp

M107

;
; MBL
;
M84 E ; turn off E motor
G29 P1 ; invalidate mbl & probe print area
G29 P1 X0 Y0 W50 H20 C ; probe near purge place
G29 P3.2 ; interpolate mbl probes
G29 P3.13 ; extrapolate mbl outside probe area
G29 A ; activate mbl

; prepare for purge
M104 S230
G0 X0 Y-4 Z15 F4800 ; move away and ready for the purge
M109 S230

G92 E0
M569 S0 E ; set spreadcycle mode for extruder

;
; Extrude purge line
;
G92 E0 ; reset extruder position
G1 E2 F2400 ; deretraction after the initial one before nozzle cleaning
G0 E7 X15 Z0.2 F500 ; purge
G0 X25 E4 F500 ; purge
M73 P1 R6
M73 Q1 S6
G0 X35 E4 F650 ; purge
G0 X45 E4 F800 ; purge
G0 X48 Z0.05 F8000 ; wipe, move close to the bed
G0 X51 Z0.2 F8000 ; wipe, move quickly away from the bed

G92 E0
M221 S100 ; set flow to 100%
G21 ; set units to millimeters
G90 ; use absolute coordinates
M83 ; use relative distances for extrusion
M572 S0.036 ; Filament gcode

M142 S36 ; set heatbreak target temp
M107
;LAYER_CHANGE
;Z:0.2
;HEIGHT:0.2
G1 E-.7 F2100
M73 P2 R6
G1 Z.8 F720
G1 X116.784 Y97.356 F18000
G1 Z.2 F720
M73 Q2 S6
G1 E.7 F1500
M204 P500
;TYPE:Skirt/Brim
;WIDTH:0.5
G1 F2400
G3 X119.696 Y95.774 I3.447 J2.874 E.12901
G1 X130.29 Y95.773 E.40264
G1 X131.3 Y96.002 E.03936
G3 X134.21 Y99.561 I-1.572 J4.255 E.18323
G1 X134.247 Y105.376 E.22101
G3 X134.251 Y109.244 I-12.717 J1.947 E.14757
G3 X134.02 Y111.24 I-6.469 J.261 E.07668
G3 X130.13 Y114.242 I-4.274 J-1.516 E.19736
G1 X119.874 Y114.242 E.38979
G3 X115.787 Y110.424 I.363 J-4.485 E.22938
G2 X115.626 Y107.993 I-15.768 J-.176 E.09269
G3 X115.752 Y104.868 I13.615 J-1.014 E.11913
G1 X115.772 Y99.722 E.19558
G3 X116.746 Y97.403 I4.459 J.508 E.09689
M204 P4000
M204 T4000
G1 X116.746 Y97.403 F18000
G1 X117.1 Y97.69
M204 P500
G1 F2400
G3 X119.764 Y96.227 I3.127 J2.536 E.11845
G1 X130.216 Y96.224 E.39724
G3 X133.759 Y99.639 I-.446 J4.009 E.20115
G1 X133.79 Y105.389 E.21854
G3 X133.795 Y109.214 I-12.556 J1.928 E.14593
G3 X133.592 Y111.079 I-6.173 J.271 E.07158
G3 X130.109 Y113.785 I-3.839 J-1.345 E.17717
G1 X119.893 Y113.785 E.38827
G3 X116.243 Y110.386 I.34 J-4.024 E.20431
G2 X116.08 Y107.943 I-15.804 J-.174 E.09315
G3 X116.209 Y104.882 I13.557 J-.962 E.11669
G1 X116.224 Y99.793 E.19342
G3 X117.063 Y97.737 I4.003 J.433 E.08551
M73 P3 R6
M73 Q3 S6
M204 P4000
G1 X117.063 Y97.737 F18000
G1 X117.421 Y98.019
M204 P500
G1 F2400
G3 X119.83 Y96.68 I2.802 J2.203 E.10755
G1 X130.144 Y96.676 E.392
G1 X130.964 Y96.853 E.03188
G3 X133.308 Y99.714 I-1.219 J3.389 E.14762
G1 X133.333 Y105.403 E.21622
G3 X133.339 Y109.186 I-12.403 J1.909 E.14433
G3 X133.155 Y110.944 I-5.777 J.284 E.06744
G3 X130.089 Y113.328 I-3.396 J-1.203 E.15589
G1 X119.913 Y113.328 E.38675
G3 X116.699 Y110.348 I.316 J-3.564 E.17929
G2 X116.535 Y107.892 I-15.833 J-.172 E.09365
G3 X116.666 Y104.896 I13.528 J-.906 E.11421
G1 X116.677 Y99.863 E.19129
G3 X117.384 Y98.066 I3.546 J.359 E.07432
M204 P4000
G1 X117.384 Y98.066 F18000
G1 X117.748 Y98.342
M204 P500
G1 F2400
G3 X119.894 Y97.133 I2.471 J1.877 E.09626
G1 X130.119 Y97.133 E.38861
G3 X132.856 Y99.79 I-.341 J3.09 E.15609
G1 X132.876 Y105.416 E.21382
G3 X132.882 Y109.159 I-12.256 J1.891 E.1428
G3 X132.718 Y110.809 I-5.389 J.296 E.06327
G3 X130.067 Y112.871 I-2.952 J-1.06 E.1347
G1 X119.933 Y112.871 E.38516
G3 X117.155 Y110.308 I.293 J-3.104 E.15433
G2 X116.989 Y107.842 I-15.855 J-.17 E.09403
G3 X117.123 Y104.909 I13.535 J-.849 E.11181
G1 X117.129 Y99.93 E.18923
G3 X117.712 Y98.39 I3.09 J.289 E.06334
M204 P4000
G1 X117.712 Y98.39 F18000
G1 X118.08 Y98.659
M204 P500
G1 F2400
G3 X119.955 Y97.586 I2.136 J1.557 E.08458
G1 X130.095 Y97.59 E.38538
G3 X132.404 Y99.863 I-.313 J2.628 E.13252
G1 X132.419 Y105.428 E.21151
G3 X132.536 Y108.217 I-13.288 J1.956 E.10628
G2 X132.386 Y110.287 I12.583 J1.956 E.07897
G3 X130.045 Y112.414 I-2.609 J-.519 E.12874
G1 X119.954 Y112.414 E.38352
G3 X117.611 Y110.267 I.269 J-2.645 E.12946
M73 P4 R6
M73 Q4 S6
G2 X117.443 Y107.791 I-15.866 J-.167 E.09442
G3 X117.581 Y104.922 I13.578 J-.788 E.10937
G1 X117.586 Y99.953 E.18885
G3 X118.046 Y98.708 I2.63 J.263 E.05099
M204 P4000
G1 X118.046 Y98.708 F18000
G1 X118.42 Y98.968
M204 P500
G1 F2400
G3 X119.977 Y98.043 I1.792 J1.243 E.07098
G1 X130.07 Y98.048 E.3836
G3 X131.952 Y99.933 I-.285 J2.166 E.10887
G1 X131.962 Y105.441 E.20934
G3 X132.081 Y108.179 I-13.223 J1.945 E.10434
G2 X131.937 Y110.198 I11.688 J1.849 E.07702
G3 X130.024 Y111.957 I-2.156 J-.424 E.10569
G1 X119.977 Y111.957 E.38185
G3 X118.061 Y110.18 I.241 J-2.182 E.10638
G2 X117.898 Y107.741 I-14.955 J-.226 E.09301
G3 X118.038 Y104.936 I13.665 J-.725 E.10693
G1 X118.043 Y99.976 E.18851
G3 X118.386 Y99.017 I2.169 J.235 E.03907
M204 P4000
G1 X118.386 Y99.017 F18000
G1 X118.768 Y99.267
M204 P500
G1 F2400
G3 X120.001 Y98.5 I1.44 J.941 E.05697
G1 X130.045 Y98.505 E.38174
G3 X131.5 Y99.999 I-.257 J1.705 E.08512
G1 X131.505 Y105.453 E.20729
G3 X131.625 Y108.141 I-13.174 J1.936 E.10244
G2 X131.487 Y110.113 I10.9 J1.755 E.07523
G3 X130 Y111.5 I-1.701 J-.333 E.08259
G1 X120 Y111.5 E.38006
G3 X118.511 Y110.099 I.213 J-1.718 E.08312
G2 X118.352 Y107.691 I-13.253 J-.334 E.09185
G3 X118.495 Y104.949 I13.805 J-.657 E.10453
G1 X118.5 Y99.999 E.18813
G3 X118.736 Y99.318 I1.708 J.209 E.0276
M204 P4000
G1 X118.736 Y99.318 F18000
G1 X119.126 Y99.553
M204 P500
G1 F2400
G3 X120.023 Y98.957 I1.081 J.654 E.04229
G1 X130.019 Y98.962 E.37991
G3 X131.043 Y100.022 I-.233 J1.249 E.05976
G1 X131.048 Y105.466 E.20691
G3 X131.207 Y107.516 I-31.589 J3.478 E.07816
G1 X131.17 Y108.102 E.02232
G2 X131.006 Y110.163 I16.658 J2.361 E.07863
G3 X129.978 Y111.043 I-1.22 J-.385 E.05419
M73 P5 R6
G1 X120.023 Y111.043 E.37835
G3 X118.962 Y110.024 I.188 J-1.257 E.05963
M73 Q5 S6
G2 X118.807 Y107.641 I-12.657 J-.369 E.0909
G3 X118.927 Y105.383 I8.774 J-.663 E.08618
G1 X118.957 Y100.022 E.20376
G3 X119.096 Y99.605 I1.25 J.185 E.01679
M204 P4000
G1 X119.096 Y99.605 F18000
G1 X119.496 Y99.823
M204 P500
G1 F2400
G3 X120.045 Y99.414 I.718 J.391 E.02685
G1 X129.999 Y99.423 E.37832
G3 X130.586 Y100.045 I-.22 J.795 E.03417
G1 X130.591 Y105.478 E.20649
G3 X130.75 Y107.497 I-37.494 J3.97 E.07698
G1 X130.714 Y108.064 E.02159
G2 X130.575 Y110.007 I11.081 J1.767 E.07413
G3 X129.955 Y110.586 I-.793 J-.228 E.03386
G1 X120.045 Y110.586 E.37664
G3 X119.415 Y109.958 I.169 J-.8 E.03575
G2 X119.261 Y107.591 I-12.236 J-.393 E.09029
G3 X119.383 Y105.426 I8.399 J-.614 E.08264
G1 X119.415 Y100.045 E.20452
G3 X119.47 Y99.877 I.799 J.169 E.00673
M204 P4000
G1 X119.47 Y99.877 F18000
G1 X119.888 Y100.072
M204 P500
G1 F2400
G3 X120.113 Y99.871 I.344 J.161 E.01179
G1 X129.887 Y99.871 E.37147
G3 X130.128 Y100.113 I-.119 J.362 E.01346
G1 X130.159 Y105.971 E.22264
G3 X130.142 Y109.017 I-9.023 J1.471 E.11631
G1 X130.128 Y109.89 E.03318
G3 X129.887 Y110.129 I-.36 J-.123 E.01337
G1 X120.113 Y110.129 E.37147
G3 X119.872 Y109.888 I.12 J-.362 E.01343
G2 X119.715 Y107.541 I-12.243 J-.364 E.08954
G3 X119.838 Y105.469 I8.033 J-.564 E.07911
G1 X119.871 Y100.129 E.20296
M204 P4000
G1 E-.7 F2100
G1 X119.871 Y100.129 F18000
M486 S0
G1 X124.447 Y103.681 Z.301
G1 Z.2 F720
G1 E.7 F1500
M204 P500
;TYPE:External perimeter
;WIDTH:0.38292
G1 F2400
G1 X124.478 Y103.598 E.0025
M204 P4000
G1 X124.478 Y103.598 F18000
G1 X125.516 Y103.086
M204 P500
G1 F2400
G1 X125.316 Y103.059 E.00571
G1 X125.124 Y103.179 E.0064
M204 P4000
G1 E-.7 F2100
G1 X125.124 Y103.179 F18000
G1 X126.482 Y104.348 Z.231
G1 Z.2 F720
G1 E.7 F1500
M204 P500
;WIDTH:0.423608
G1 F2400
G1 X126.457 Y104.151 E.00629
;WIDTH:0.464296
G1 X126.431 Y103.953 E.007
;WIDTH:0.473508
G1 X126.427 Y103.003 E.03401
;WIDTH:0.47903
G1 X126.424 Y102.957 E.00167
M204 P4000
G1 X126.427 Y103.356 F18000
G1 X127.307 Y102.397
M204 P500
;WIDTH:0.38292
G1 F2400
G1 X127.287 Y101.814 E.01649
M204 P4000
G1 X127.287 Y101.814 F18000
G1 X127.936 Y102.397
M204 P500
G1 F2400
G1 X127.307 Y102.397 E.01778
G1 X127.287 Y102.497 E.00288
G1 X127.287 Y104.345 E.05225
M204 P4000
G1 X127.338 Y103.949 F18000
G1 E-.7 F2100
G1 X128.172 Y107.642 Z.266 F18000
G1 Z.2 F720
G1 E.7 F1500
M204 P500
;WIDTH:0.43666
G1 F2400
G1 X128.323 Y107.58 E.00534
;WIDTH:0.40979
G1 X128.474 Y107.518 E.00498
;WIDTH:0.38292
G1 X128.984 Y107.56 E.01447
M73 P6 R6
M204 P4000
G1 E-.7 F2100
G1 X128.984 Y107.56 F18000
G1 X125.344 Y108.217 Z.265
G1 Z.2 F720
G1 E.7 F1500
M204 P500
G1 F2400
M73 Q6 S6
G1 X125.344 Y106.367 E.0523
M204 P4000
G1 X125.344 Y106.767 F18000
G1 E-.7 F2100
G1 X123.805 Y102.838 Z.274 F18000
G1 Z.2 F720
G1 E.7 F1500
M204 P500
;WIDTH:0.447755
G1 F2400
G1 X124.04 Y102.807 E.00798
;WIDTH:0.494158
G1 X124.299 Y102.773 E.0098
;WIDTH:0.507532
G1 X124.521 Y102.665 E.00954
G1 X124.406 Y103.016 E.01427
;WIDTH:0.489033
G1 X124.488 Y103.175 E.00664
;WIDTH:0.486005
G1 X124.659 Y103.224 E.00655
;WIDTH:0.46885
G2 X124.555 Y103.379 I.444 J.407 E.00664
;WIDTH:0.441877
G1 X124.499 Y103.479 E.0038
G1 X124.469 Y103.42 E.0022
;WIDTH:0.46885
G1 X124.438 Y103.361 E.00236
;WIDTH:0.489033
G1 X124.116 Y103.24 E.01276
;WIDTH:0.527703
G1 X123.864 Y103.221 E.01019
;WIDTH:0.566372
G1 X123.612 Y103.202 E.011
G1 X123.512 Y103.416 E.01028
G1 X123.39 Y103.487 E.00614
G1 X123.26 Y103.46 E.00578
G1 X123.177 Y103.308 E.00754
G1 X123.164 Y102.875 E.01885
G1 X123.219 Y102.717 E.00728
G1 X123.341 Y102.653 E.006
G1 X123.519 Y102.683 E.00786
G1 X123.604 Y102.845 E.00796
G1 X123.648 Y102.844 E.00192
;WIDTH:0.525117
G1 X123.692 Y102.843 E.00176
;WIDTH:0.483862
G1 X123.736 Y102.842 E.00161
;WIDTH:0.442607
G1 X123.745 Y102.842 E.0003
M204 P4000
G1 X124.142 Y102.793 F18000
G1 E-.7 F2100
G1 X123.342 Y106.457 Z.265 F18000
G1 Z.2 F720
G1 E.7 F1500
M204 P500
;WIDTH:0.451187
G1 F2400
G1 X123.358 Y106.436 E.0009
;WIDTH:0.46291
G1 X123.338 Y106.667 E.0081
;WIDTH:0.505207
G2 X123.341 Y107.156 I1.663 J.233 E.01886
;WIDTH:0.460671
G1 X123.365 Y107.413 E.00897
;WIDTH:0.448346
G1 X123.305 Y107.309 E.00405
;WIDTH:0.480558
G1 X123.244 Y107.205 E.00439
;WIDTH:0.505207
G2 X122.862 Y107.094 I-.558 J1.204 E.01535
;WIDTH:0.462045
G1 X122.707 Y107.067 E.00548
;WIDTH:0.466495
G1 X122.625 Y107.069 E.00289
;WIDTH:0.514108
G1 X122.542 Y107.07 E.00325
;WIDTH:0.561721
G1 X122.459 Y107.072 E.00358
G1 X122.36 Y107.281 E.00998
G3 X122.102 Y107.333 I-.2 J-.322 E.0116
G1 X122.03 Y107.216 E.00593
G1 X122.009 Y106.743 E.02042
G1 X122.06 Y106.586 E.00712
G1 X122.184 Y106.521 E.00604
G1 X122.364 Y106.552 E.00788
G1 X122.451 Y106.715 E.00797
G1 X122.541 Y106.712 E.00388
;WIDTH:0.514108
G1 X122.631 Y106.708 E.00353
;WIDTH:0.466495
G1 X122.721 Y106.705 E.00317
;WIDTH:0.450322
G1 X122.972 Y106.661 E.00863
;WIDTH:0.481761
G1 X123.223 Y106.617 E.0093
G1 X123.29 Y106.527 E.00409
;WIDTH:0.451187
G1 X123.306 Y106.506 E.0009
M204 P4000
G1 X123.33 Y106.905 F18000
G1 X124.383 Y107.569
M204 P500
;WIDTH:0.360125
G1 F2400
G1 X124.48 Y107.422 E.00465
G1 X124.538 Y107.407 E.00158
;WIDTH:0.363177
G1 X124.545 Y106.367 E.0277
;WIDTH:0.408785
G1 X124.559 Y106.302 E.00202
;WIDTH:0.454392
G1 X124.573 Y106.237 E.00227
;WIDTH:0.499999
G1 X124.586 Y106.172 E.00252
G1 X124.76 Y106.139 E.00673
G1 X125.224 Y106.174 E.01769
;WIDTH:0.462123
G1 X125.288 Y106.214 E.00263
;WIDTH:0.432249
G1 X125.344 Y106.367 E.00527
;WIDTH:0.422522
G1 X125.305 Y106.248 E.00395
;WIDTH:0.462123
G1 X125.266 Y106.128 E.0044
;WIDTH:0.499999
G1 X125.207 Y105.61 E.01981
;WIDTH:0.538502
G1 X125.239 Y105.548 E.00288
;WIDTH:0.577005
G1 X125.271 Y105.486 E.0031
;WIDTH:0.615508
G1 X125.303 Y105.425 E.00328
;WIDTH:0.654011
G1 X125.335 Y105.363 E.00355
G1 X125.874 Y105.316 E.02749
;WIDTH:0.650923
G1 X126.042 Y105.3 E.00853
G1 X126.091 Y105.338 E.00313
;WIDTH:0.613192
G1 X126.14 Y105.376 E.00294
;WIDTH:0.575461
G1 X126.189 Y105.414 E.00275
;WIDTH:0.53773
G1 X126.238 Y105.452 E.00255
;WIDTH:0.499999
G1 X126.292 Y105.637 E.00732
G1 X126.227 Y106.07 E.01664
G1 X126.547 Y106.036 E.01223
G1 X126.996 Y106.255 E.01899
G1 X127.249 Y106.474 E.01272
G1 X127.281 Y106.534 E.00258
G1 X127.499 Y106.301 E.01213
G1 X127.996 Y106 E.02208
G1 X128.145 Y105.97 E.00578
G1 X128.684 Y106.056 E.02074
G1 X129.021 Y106.351 E.01702
;WIDTH:0.505396
G1 X129.221 Y106.85 E.02067
G1 X129.249 Y107.361 E.01968
;WIDTH:0.519318
G1 X129.217 Y107.52 E.00642
G1 X129.155 Y107.546 E.00266
;WIDTH:0.489229
G1 X129.094 Y107.573 E.00248
;WIDTH:0.487675
G1 X129.159 Y107.632 E.00325
;WIDTH:0.516211
G1 X129.223 Y107.692 E.00345
;WIDTH:0.520295
G1 X129.19 Y107.989 E.01186
G1 X128.877 Y108.417 E.02105
;WIDTH:0.499999
G1 X128.652 Y108.535 E.00966
G1 X128.099 Y108.594 E.02114
G1 X127.867 Y108.488 E.00969
G1 X127.368 Y108.153 E.02284
G1 X127.263 Y108.051 E.00556
G1 X127.074 Y108.266 E.01088
G1 X126.599 Y108.521 E.02049
G1 X126.493 Y108.547 E.00415
G1 X126.087 Y108.379 E.0167
G1 X125.944 Y108.435 E.00584
G1 X125.43 Y108.432 E.01954
G1 X125.401 Y108.361 E.00291
;WIDTH:0.460973
G1 X125.373 Y108.289 E.00269
;WIDTH:0.421947
G1 X125.344 Y108.217 E.00245
G1 X125.316 Y108.289 E.00243
;WIDTH:0.460973
G1 X125.287 Y108.361 E.0027
;WIDTH:0.499999
G1 X125.258 Y108.432 E.00291
G1 X124.739 Y108.435 E.01973
G1 X124.563 Y108.381 E.007
G1 X124.404 Y108.493 E.00739
G1 X124.215 Y108.52 E.00726
G3 X123.942 Y108.5 I-.109 J-.391 E.01061
G1 X123.511 Y108.193 E.02011
G1 X123.384 Y107.96 E.01009
G1 X123.34 Y107.68 E.01077
;WIDTH:0.467562
G1 X123.356 Y107.494 E.00659
;WIDTH:0.464521
G1 X123.25 Y107.751 E.00975
;WIDTH:0.499999
G1 X123.143 Y108.008 E.01058
G1 X122.713 Y108.436 E.02306
G1 X122.462 Y108.571 E.01083
G3 X121.794 Y108.627 I-.472 J-1.605 E.02565
G1 X121.385 Y108.48 E.01652
;WIDTH:0.502168
G1 X120.975 Y108.103 E.02127
;WIDTH:0.52159
G1 X120.825 Y107.803 E.01335
G1 X120.757 Y107.454 E.01415
;WIDTH:0.50575
G1 X120.731 Y106.845 E.02346
;WIDTH:0.50628
G1 X120.787 Y106.273 E.02214
G1 X120.97 Y105.806 E.01932
;WIDTH:0.499999
G1 X121.334 Y105.447 E.01943
G1 X121.794 Y105.256 E.01893
;WIDTH:0.540664
G1 X122.331 Y105.219 E.02228
;WIDTH:0.58055
G1 X122.505 Y105.233 E.0078
G1 X122.763 Y105.41 E.01399
;WIDTH:0.540275
G1 X123.021 Y105.586 E.01292
;WIDTH:0.499999
G1 X123.051 Y105.763 E.00682
G1 X123.242 Y105.985 E.01113
G1 X123.298 Y106.156 E.00684
;WIDTH:0.464647
G1 X123.353 Y106.327 E.0063
G1 X123.45 Y106.233 E.00474
;WIDTH:0.499999
G1 X123.547 Y106.139 E.00513
G1 X124.065 Y106.139 E.01969
G1 X124.184 Y106.172 E.00469
G1 X124.198 Y106.238 E.00256
;WIDTH:0.454392
G1 X124.211 Y106.303 E.00227
;WIDTH:0.408785
G1 X124.225 Y106.368 E.00202
;WIDTH:0.363177
G1 X124.228 Y107.258 E.0237
;WIDTH:0.361437
G1 X124.237 Y107.564 E.00811
;WIDTH:0.360125
G1 X124.323 Y107.567 E.00227
M204 P4000
G1 X124.545 Y107.234 F18000
G1 E-.7 F2100
G1 X125.313 Y102.221 Z.289 F18000
G1 Z.2 F720
G1 E.7 F1500
M204 P500
;WIDTH:0.499999
G1 F2400
G3 X125.49 Y102.195 I.425 J2.303 E.0068
G1 X126.07 Y102.361 E.02293
G1 X126.3 Y102.562 E.01161
