; generated by PrusaSlicer 2.8.1+win64 on 2024-10-28 at 17:53:53 UTC

; 

; external perimeters extrusion width = 0.42mm
; perimeters extrusion width = 0.44mm
; infill extrusion width = 0.44mm
; solid infill extrusion width = 0.44mm
; top infill extrusion width = 0.40mm
; first layer extrusion width = 0.42mm

M201 X500 Y500 Z100 E5000 ; sets maximum accelerations, mm/sec^2
M203 X500 Y500 Z10 E60 ; sets maximum feedrates, mm / sec
M204 S500 T1000 ; sets acceleration (S) and retract acceleration (R), mm/sec^2
M205 X8.00 Y8.00 Z0.40 E5.00 ; sets the jerk limits, mm/sec
M205 S0 T0 ; sets the minimum extruding and travel feed rate, mm/sec

; printing object xyz-cali-cube-by-r3d_v1.stl id:0 copy 0
; stop printing object xyz-cali-cube-by-r3d_v1.stl id:0 copy 0

;TYPE:Custom
G90 ; use absolute coordinates
M83 ; extruder relative mode
M104 S150 ; set temporary nozzle temp to prevent oozing during homing
M140 S60 ; set final bed temp
G4 S30 ; allow partial nozzle warmup
G28 ; home all axis
G1 Z50 F240
G1 X2.0 Y10 F3000
M140 S60 ; wait for bed temp to stabilize
M109 S210 ; wait for nozzle temp to stabilize
G1 Z0.28 F240
G92 E0
G1 X2.0 Y140 E10 F1500 ; prime the nozzle
G1 X2.3 Y140 F5000
G92 E0
G1 X2.3 Y10 E10 F1200 ; prime the nozzle
G92 E0
G21 ; set units to millimeters
G90 ; use absolute coordinates
M83 ; use relative distances for extrusion
; Filament gcode
M107
;LAYER_CHANGE
;Z:0.2
;HEIGHT:0.2
G1 E-5 F3600
G1 Z.2 F9000
G1 X115.579 Y98.508
G1 Z.2
G1 E5 F2400
M204 S500
;TYPE:Skirt/Brim
;WIDTH:0.42
G1 F1200
G1 X118.508 Y95.579 E.12988
G1 X119.939 Y94.705 E.05257
G1 X121.029 Y94.534 E.03459
G1 X128.971 Y94.534 E.24902
G1 X130.601 Y94.929 E.05259
G1 X131.492 Y95.579 E.03458
G1 X134.421 Y98.508 E.12988
G1 X135.295 Y99.939 E.05257
G1 X135.466 Y101.029 E.03459
G1 X135.466 Y108.971 E.24902
G1 X135.071 Y110.601 E.05259
G1 X134.421 Y111.492 E.03458
G1 X131.492 Y114.421 E.12988
G1 X130.061 Y115.295 E.05257
G1 X128.971 Y115.466 E.03459
G1 X121.029 Y115.466 E.24902
G1 X119.399 Y115.071 E.05259
G1 X118.508 Y114.421 E.03458
G1 X115.579 Y111.492 E.12988
G1 X114.705 Y110.061 E.05257
G1 X114.534 Y108.971 E.03459
G1 X114.534 Y101.029 E.24902
G1 X114.929 Y99.399 E.05259
G1 X115.543 Y98.556 E.0327
G1 X115.543 Y98.556 F9000
G1 X115.841 Y98.78
G1 F1200
G1 X115.845 Y98.774 E.00023
G1 X118.774 Y95.845 E.12988
G1 X120.138 Y95.038 E.04969
G1 X121.029 Y94.911 E.02822
G1 X128.971 Y94.911 E.24902
G1 X130.506 Y95.305 E.04969
G1 X131.226 Y95.845 E.02822
G1 X134.155 Y98.774 E.12988
G1 X134.962 Y100.138 E.04969
G1 X135.089 Y101.029 E.02822
G1 X135.089 Y108.971 E.24902
G1 X134.695 Y110.506 E.04969
G1 X134.155 Y111.226 E.02822
G1 X131.226 Y114.155 E.12988
G1 X129.862 Y114.962 E.04969
G1 X128.971 Y115.089 E.02822
G1 X121.029 Y115.089 E.24902
G1 X119.494 Y114.695 E.04969
G1 X118.774 Y114.155 E.02822
G1 X115.845 Y111.226 E.12988
G1 X115.038 Y109.862 E.04969
G1 X114.911 Y108.971 E.02822
G1 X114.911 Y101.029 E.24902
G1 X115.305 Y99.494 E.04969
G1 X115.805 Y98.828 E.02611
G1 E-3.5 F3600
;WIPE_START
G1 F7200
G1 X115.841 Y98.78 E-.0285
G1 X115.845 Y98.774 E-.00343
G1 X118.031 Y96.589 E-1.46807
;WIPE_END
G1 X119.104 Y100.532 F9000
G1 E5 F2400
G1 F1200
G1 X120.525 Y99.109 E.06305
G1 X121.301 Y98.708 E.02739
G1 X122.123 Y98.454 E.02698
G1 X127.72 Y98.429 E.17549
G1 X128.504 Y98.63 E.02538
G1 X129.264 Y98.977 E.0262
G1 X130.453 Y99.981 E.04879
G1 X131.112 Y100.91 E.03571
G1 X131.516 Y101.981 E.03589
G1 X131.615 Y107.39 E.16962
G1 X131.316 Y108.631 E.04002
G1 X130.896 Y109.468 E.02936
G1 X129.468 Y110.896 E.06332
G1 X128.633 Y111.315 E.02929
G1 X127.502 Y111.602 E.03659
G1 X122.59 Y111.613 E.15401
G1 X121.367 Y111.315 E.03947
G1 X120.532 Y110.896 E.02929
G1 X119.104 Y109.468 E.06332
G1 X118.685 Y108.633 E.02929
G1 X118.398 Y107.502 E.03659
G1 X118.387 Y102.59 E.15401
G1 X118.685 Y101.367 E.03947
G1 X119.077 Y100.585 E.02743
G1 X119.077 Y100.585 F9000
G1 X119.413 Y100.756
G1 F1200
G1 X119.427 Y100.729 E.00095
G1 X120.725 Y99.43 E.05758
G1 X121.429 Y99.063 E.02489
G1 X122.208 Y98.823 E.02556
G1 X127.649 Y98.8 E.1706
G1 X128.393 Y98.991 E.02408
G1 X129.082 Y99.308 E.02378
G1 X130.189 Y100.251 E.0456
G1 X130.789 Y101.106 E.03275
G1 X131.152 Y102.082 E.03265
G1 X131.237 Y107.371 E.16585
G1 X130.955 Y108.519 E.03706
G1 X130.573 Y109.271 E.02645
G1 X129.271 Y110.573 E.05773
G1 X128.52 Y110.955 E.02642
G1 X127.432 Y111.231 E.03519
G1 X122.614 Y111.236 E.15107
G1 X121.48 Y110.955 E.03663
G1 X120.729 Y110.573 E.02642
G1 X119.427 Y109.271 E.05773
G1 X119.045 Y108.52 E.02642
G1 X118.769 Y107.432 E.03519
G1 X118.764 Y102.614 E.15107
G1 X119.045 Y101.48 E.03663
G1 X119.386 Y100.809 E.0236
G1 X119.386 Y100.809 F9000
G1 X119.721 Y100.982
G1 F1200
G1 X119.748 Y100.928 E.00189
G1 X120.925 Y99.75 E.05221
G1 X121.557 Y99.418 E.02238
G1 X122.292 Y99.191 E.02412
G1 X127.58 Y99.171 E.1658
G1 X128.252 Y99.341 E.02173
G1 X128.9 Y99.639 E.02236
G1 X129.925 Y100.522 E.04242
G1 X130.444 Y101.26 E.02829
G1 X130.787 Y102.183 E.03087
G1 X130.86 Y107.351 E.16206
G1 X130.595 Y108.405 E.03408
G1 X130.252 Y109.072 E.02352
G1 X129.072 Y110.252 E.05232
G1 X128.406 Y110.595 E.02349
G1 X127.362 Y110.859 E.03376
G1 X122.638 Y110.859 E.14812
G1 X121.594 Y110.595 E.03376
G1 X120.928 Y110.252 E.02349
G1 X119.748 Y109.072 E.05232
G1 X119.405 Y108.406 E.02349
G1 X119.141 Y107.362 E.03376
G1 X119.141 Y102.638 E.14812
G1 X119.405 Y101.594 E.03376
G1 X119.693 Y101.035 E.01972
G1 X119.693 Y101.035 F9000
G1 X120.026 Y101.209
G1 F1200
G1 X120.069 Y101.129 E.00285
G1 X121.127 Y100.069 E.04696
G1 X121.685 Y99.773 E.0198
G1 X122.377 Y99.56 E.0227
G1 X127.511 Y99.542 E.16097
G1 X128.142 Y99.702 E.02041
G1 X128.716 Y99.969 E.01985
G1 X129.66 Y100.79 E.03923
G1 X130.12 Y101.454 E.02533
G1 X130.422 Y102.281 E.0276
G1 X130.483 Y107.33 E.15832
G1 X130.236 Y108.289 E.03105
G1 X129.931 Y108.871 E.0206
G1 X128.871 Y109.931 E.047
G1 X128.289 Y110.235 E.02059
G1 X127.338 Y110.482 E.03081
G1 X122.662 Y110.482 E.14661
G1 X121.711 Y110.235 E.03081
G1 X121.129 Y109.931 E.02059
G1 X120.069 Y108.871 E.047
G1 X119.765 Y108.289 E.02059
G1 X119.518 Y107.338 E.03081
G1 X119.518 Y102.662 E.14661
G1 X119.765 Y101.711 E.03081
G1 X119.999 Y101.262 E.01588
G1 X119.999 Y101.262 F9000
G1 X120.331 Y101.439
G1 F1200
G1 X120.388 Y101.331 E.00383
G1 X121.33 Y100.388 E.04179
G1 X121.815 Y100.128 E.01725
G1 X122.461 Y99.929 E.02119
G1 X127.443 Y99.914 E.15621
G1 X128 Y100.052 E.01799
G1 X128.532 Y100.3 E.0184
G1 X129.392 Y101.057 E.03592
G1 X129.795 Y101.646 E.02238
G1 X130.056 Y102.377 E.02434
G1 X130.105 Y107.308 E.15462
G1 X129.877 Y108.17 E.02796
G1 X129.612 Y108.669 E.01772
G1 X128.669 Y109.612 E.04181
G1 X128.171 Y109.877 E.01769
G1 X127.313 Y110.105 E.02784
G1 X122.687 Y110.105 E.14504
G1 X121.829 Y109.877 E.02784
G1 X121.331 Y109.612 E.01769
G1 X120.388 Y108.669 E.04181
G1 X120.123 Y108.171 E.01769
G1 X119.895 Y107.313 E.02784
G1 X119.895 Y102.687 E.14504
G1 X120.123 Y101.829 E.02784
G1 X120.302 Y101.492 E.01196
G1 X120.302 Y101.492 F9000
G1 X120.632 Y101.671
G1 F1200
G1 X120.706 Y101.535 E.00485
G1 X121.535 Y100.706 E.03676
G1 X121.944 Y100.483 E.01461
G1 X122.545 Y100.297 E.01973
G1 X127.375 Y100.286 E.15144
G1 X127.89 Y100.413 E.01663
G1 X128.346 Y100.628 E.01581
G1 X129.122 Y101.321 E.03262
G1 X129.467 Y101.835 E.01941
G1 X129.69 Y102.471 E.02113
G1 X129.728 Y107.284 E.15091
G1 X129.52 Y108.049 E.02486
G1 X129.294 Y108.465 E.01484
G1 X128.465 Y109.294 E.03676
G1 X128.049 Y109.52 E.01484
G1 X127.287 Y109.728 E.02477
G1 X122.713 Y109.728 E.14341
G1 X121.951 Y109.52 E.02477
G1 X121.535 Y109.294 E.01484
G1 X120.706 Y108.465 E.03676
G1 X120.48 Y108.049 E.01484
G1 X120.272 Y107.287 E.02477
G1 X120.272 Y102.713 E.14341
G1 X120.48 Y101.951 E.02477
G1 X120.604 Y101.723 E.00814
G1 X120.604 Y101.723 F9000
G1 X120.932 Y101.905
G1 F1200
G1 X121.022 Y101.742 E.00584
G1 X121.742 Y101.022 E.03193
G1 X122.63 Y100.666 E.03
G1 X127.309 Y100.658 E.14671
G1 X127.747 Y100.763 E.01412
G1 X128.159 Y100.957 E.01428
G1 X128.851 Y101.584 E.02928
G1 X129.139 Y102.02 E.01638
G1 X129.323 Y102.563 E.01798
G1 X129.351 Y107.259 E.14724
G1 X129.163 Y107.924 E.02167
G1 X128.978 Y108.258 E.01197
G1 X128.258 Y108.978 E.03193
G1 X127.924 Y109.163 E.01197
G1 X127.26 Y109.351 E.02164
G1 X122.74 Y109.351 E.14172
G1 X122.076 Y109.163 E.02164
G1 X121.742 Y108.978 E.01197
G1 X121.022 Y108.258 E.03193
G1 X120.837 Y107.924 E.01197
G1 X120.649 Y107.26 E.02164
G1 X120.649 Y102.74 E.14172
G1 X120.837 Y102.076 E.02164
G1 X120.903 Y101.958 E.00424
G1 X120.903 Y101.958 F9000
G1 X121.28 Y102.101
G1 F1200
G1 X121.337 Y101.951 E.00503
G1 X121.951 Y101.337 E.02723
G1 X122.714 Y101.034 E.02574
G1 X127.246 Y101.03 E.1421
G1 X127.971 Y101.285 E.0241
G1 X128.576 Y101.843 E.02581
G1 X128.808 Y102.203 E.01343
G1 X128.955 Y102.651 E.01478
G1 X128.974 Y107.232 E.14364
G1 X128.663 Y108.049 E.02741
G1 X128.049 Y108.663 E.02723
G1 X127.232 Y108.974 E.02741
G1 X122.768 Y108.974 E.13997
G1 X121.951 Y108.663 E.02741
G1 X121.337 Y108.049 E.02723
G1 X121.026 Y107.232 E.02741
G1 X121.026 Y102.768 E.13997
G1 X121.258 Y102.157 E.02049
G1 X121.258 Y102.157 F9000
G1 X121.6 Y102.289
G1 F1200
G1 X121.648 Y102.164 E.0042
G1 X122.164 Y101.648 E.02288
G1 X122.798 Y101.403 E.02131
G1 X127.224 Y101.407 E.13877
G1 X127.782 Y101.613 E.01865
G1 X128.301 Y102.101 E.02234
G1 X128.587 Y102.74 E.02195
G1 X128.597 Y107.203 E.13993
G1 X128.352 Y107.836 E.02128
G1 X127.836 Y108.352 E.02288
G1 X127.202 Y108.597 E.02131
G1 X122.798 Y108.597 E.13808
G1 X122.164 Y108.352 E.02131
G1 X121.648 Y107.836 E.02288
G1 X121.403 Y107.202 E.02131
G1 X121.403 Y102.798 E.13808
G1 X121.578 Y102.345 E.01523
G1 X121.578 Y102.345 F9000
G1 X121.918 Y102.479
G1 F1200
G1 X121.956 Y102.383 E.00324
G1 X122.383 Y101.956 E.01893
G1 X122.829 Y101.78 E.01503
G1 X127.202 Y101.784 E.13711
G1 X127.592 Y101.94 E.01317
G1 X128.023 Y102.357 E.0188
G1 X128.22 Y102.829 E.01604
G1 X128.22 Y107.171 E.13614
G1 X128.044 Y107.617 E.01503
G1 X127.617 Y108.044 E.01893
G1 X127.171 Y108.22 E.01503
G1 X122.829 Y108.22 E.13614
G1 X122.383 Y108.044 E.01503
G1 X121.956 Y107.617 E.01893
G1 X121.78 Y107.171 E.01503
G1 X121.78 Y102.829 E.13614
G1 X121.896 Y102.535 E.00991
G1 X121.896 Y102.535 F9000
G1 X122.234 Y102.667
G1 F1200
G1 X122.257 Y102.61 E.00193
G1 X122.61 Y102.257 E.01565
G1 X122.864 Y102.157 E.00856
G1 X127.182 Y102.164 E.13539
G1 X127.4 Y102.267 E.00756
G1 X127.743 Y102.61 E.01521
G1 X127.843 Y102.864 E.00856
G1 X127.843 Y107.136 E.13395
G1 X127.743 Y107.39 E.00856
G1 X127.39 Y107.743 E.01565
G1 X127.136 Y107.843 E.00856
G1 X122.864 Y107.843 E.13395
G1 X122.61 Y107.743 E.00856
G1 X122.257 Y107.39 E.01565
G1 X122.157 Y107.136 E.00856
G1 X122.157 Y102.864 E.13395
G1 X122.213 Y102.723 E.00476
G1 X122.213 Y102.723 F9000
G1 X122.563 Y102.837
G1 F1200
G1 X122.906 Y102.534 E.01435
G1 X127.094 Y102.534 E.13131
G1 X127.466 Y102.906 E.0165
G1 X127.437 Y107.163 E.13348
G1 X127.094 Y107.466 E.01435
G1 X122.837 Y107.437 E.13348
G1 X122.534 Y107.094 E.01435
G1 X122.563 Y102.897 E.1316
G1 X122.563 Y102.897 F9000
G1 X122.911 Y103.022
G1 F1200
G1 X123.022 Y102.911 E.00492
G1 X126.978 Y102.911 E.12404
G1 X127.089 Y103.022 E.00492
G1 X127.089 Y106.978 E.12404
G1 X126.978 Y107.089 E.00492
G1 X123.022 Y107.089 E.12404
G1 X122.911 Y106.978 E.00492
G1 X122.911 Y103.082 E.12216
; printing object xyz-cali-cube-by-r3d_v1.stl id:0 copy 0
G1 X122.911 Y103.082 F9000
G1 X124.064 Y104.064
;TYPE:Perimeter
;WIDTH:0.419999
G1 F1200
G1 X125.936 Y104.064 E.0587
G1 X125.936 Y105 E.02935
G1 X125.936 Y105.936 E.02935
G1 X124.064 Y105.936 E.0587
G1 X124.064 Y104.124 E.05681
G1 X124.064 Y104.124 F9000
G1 X123.687 Y103.687
G1 F1200
G1 X126.313 Y103.687 E.08234
G1 X126.313 Y105 E.04117
G1 X126.313 Y106.313 E.04117
G1 X123.687 Y106.313 E.08234
G1 X123.687 Y103.747 E.08045
G1 X123.31 Y103.31 F9000
;TYPE:External perimeter
G1 F1200
G1 X126.69 Y103.31 E.10598
G1 X126.69 Y105 E.05299
G1 X126.69 Y106.69 E.05299
G1 X123.31 Y106.69 E.10598
G1 X123.31 Y103.37 E.1041
G1 E-3.5 F3600
;WIPE_START
G1 F7200
G1 X123.31 Y103.31 E-.0285
G1 X126.408 Y103.31 E-1.4715
;WIPE_END
G1 X125.815 Y104.981 F9000
G1 E5 F2400
;TYPE:Solid infill
;WIDTH:0.436085
G1 F1200
G1 X125.188 Y104.355 E.02897
G1 X124.632 Y104.355 E.01818
G1 X125.645 Y105.368 E.04683
G1 X125.645 Y105.645 E.00906
G1 X125.367 Y105.645 E.00909
G1 X124.355 Y104.633 E.04679
G1 X124.355 Y105.189 E.01818
G1 X124.981 Y105.815 E.02894
M106 S255
;LAYER_CHANGE
;Z:0.4
;HEIGHT:0.2
;BEFORE_LAYER_CHANGE
G92 E0
;0.4


G1 E-3.5 F3600
;WIPE_START
G1 F7200
G1 X124.355 Y105.189 E-.42052
G1 X124.355 Y104.633 E-.2641
G1 X125.367 Y105.645 E-.67981
G1 X125.645 Y105.645 E-.13205
G1 X125.645 Y105.638 E-.00352
;WIPE_END
G1 Z.4 F9000
;AFTER_LAYER_CHANGE
;0.4
M104 S205 ; set temperature
; stop printing object xyz-cali-cube-by-r3d_v1.stl id:0 copy 0
G1 Z.4
G1 X124.981 Y115.466
G1 E5 F2400
;TYPE:Skirt/Brim
;WIDTH:0.42
G1 F900
G1 X121.029 Y115.466 E.12391
G1 X119.399 Y115.071 E.05259
G1 X118.508 Y114.421 E.03458
G1 X115.579 Y111.492 E.12988
G1 X114.705 Y110.061 E.05257
G1 X114.534 Y108.971 E.03459
G1 X114.534 Y101.029 E.24902
G1 X114.929 Y99.399 E.05259
G1 X115.579 Y98.508 E.03458
G1 X118.508 Y95.579 E.12988
G1 X119.939 Y94.705 E.05257
G1 X121.029 Y94.534 E.03459
G1 X128.971 Y94.534 E.24902
G1 X130.601 Y94.929 E.05259
G1 X131.492 Y95.579 E.03458
G1 X134.421 Y98.508 E.12988
G1 X135.295 Y99.939 E.05257
G1 X135.466 Y101.029 E.03459
G1 X135.466 Y108.971 E.24902
G1 X135.071 Y110.601 E.05259
G1 X134.421 Y111.492 E.03458
G1 X131.492 Y114.421 E.12988
G1 X130.061 Y115.295 E.05257
G1 X128.971 Y115.466 E.03459
G1 X125.041 Y115.466 E.12322
G1 X125.041 Y115.466 F9000
G1 X125.041 Y115.089
G1 F900
G1 X121.029 Y115.089 E.12579
G1 X119.494 Y114.695 E.04969
G1 X118.774 Y114.155 E.02822
G1 X115.845 Y111.226 E.12988
G1 X115.038 Y109.862 E.04969
G1 X114.911 Y108.971 E.02822
G1 X114.911 Y101.029 E.24902
G1 X115.305 Y99.494 E.04969
G1 X115.845 Y98.774 E.02822
G1 X118.774 Y95.845 E.12988
G1 X120.138 Y95.038 E.04969
G1 X121.029 Y94.911 E.02822
G1 X128.971 Y94.911 E.24902
G1 X130.506 Y95.305 E.04969
G1 X131.226 Y95.845 E.02822
G1 X134.155 Y98.774 E.12988
G1 X134.962 Y100.138 E.04969
G1 X135.089 Y101.029 E.02822
G1 X135.089 Y108.971 E.24902
G1 X134.695 Y110.506 E.04969
G1 X134.155 Y111.226 E.02822
G1 X131.226 Y114.155 E.12988
G1 X129.862 Y114.962 E.04969
G1 X128.971 Y115.089 E.02822
G1 X125.101 Y115.089 E.12134
G1 E-3.5 F3600
;WIPE_START
G1 F7200
G1 X125.041 Y115.089 E-.0285
G1 X121.943 Y115.089 E-1.4715
;WIPE_END
; printing object xyz-cali-cube-by-r3d_v1.stl id:0 copy 0
G1 X126.006 Y106.006 F9000
G1 E5 F2400
;TYPE:Perimeter
;WIDTH:0.439999
G1 F900
G1 X123.994 Y106.006 E.06643
G1 X123.994 Y103.994 E.06643
G1 X126.006 Y103.994 E.06643
G1 X126.006 Y105 E.03322
G1 X126.006 Y105.946 E.03123
G1 X126.006 Y105.946 F9000
G1 X126.403 Y106.403
G1 F900
G1 X123.597 Y106.403 E.09265
G1 X123.597 Y103.597 E.09265
G1 X126.403 Y103.597 E.09265
G1 X126.403 Y105 E.04632
G1 X126.403 Y106.343 E.04434
G1 X126.79 Y106.79 F9000
;TYPE:External perimeter
;WIDTH:0.419999
G1 F900
G1 X123.21 Y106.79 E.11225
G1 X123.21 Y103.21 E.11225
G1 X126.79 Y103.21 E.11225
G1 X126.79 Y105 E.05612
G1 X126.79 Y106.73 E.05424
G1 E-3.5 F3600
;WIPE_START
G1 F7200
G1 X126.79 Y106.79 E-.0285
G1 X123.692 Y106.79 E-1.4715
;WIPE_END
G1 X125.502 Y104.3 F9000
G1 E5 F2400
;TYPE:Solid infill
;WIDTH:0.439999
G1 F900
G1 X124.3 Y104.3 E.03969
G1 X124.3 Y105.7 E.04622
G1 X125.7 Y105.7 E.04622
G1 X125.7 Y104.3 E.04622
G1 X125.251 Y104.749 E.02097
;WIDTH:0.544473
G1 X125.251 Y105.251 E.02094
G1 X124.749 Y105.251 E.02094
G1 X124.749 Y104.749 E.02094
G1 X125.052 Y104.749 E.01264
;LAYER_CHANGE
;Z:0.6
;HEIGHT:0.2
;BEFORE_LAYER_CHANGE
G92 E0
;0.6


G1 E-3.5 F3600
;WIPE_START
G1 F7200
G1 X124.749 Y104.749 E-.14392
G1 X124.749 Y105.251 E-.23845
G1 X125.251 Y105.251 E-.23845
G1 X125.251 Y104.749 E-.23845
G1 X125.7 Y104.3 E-.30162
G1 X125.7 Y105.014 E-.33911
;WIPE_END
G1 Z.6 F9000
;AFTER_LAYER_CHANGE
;0.6
G1 Z.6
G1 X126.006 Y103.994
G1 E5 F2400
;TYPE:Perimeter
;WIDTH:0.439999
G1 F900
G1 X126.006 Y105 E.03322
G1 X126.006 Y106.006 E.03322
G1 X123.994 Y106.006 E.06643
