; generated by PrusaSlicer 2.8.1+win64 on 2024-10-22 at 17:38:37 UTC


;
;

;
;

;
;

;
;

;
;
; 

; external perimeters extrusion width = 0.45mm
; perimeters extrusion width = 0.45mm
; infill extrusion width = 0.45mm
; solid infill extrusion width = 0.45mm
; top infill extrusion width = 0.42mm
; first layer extrusion width = 0.50mm

M73 P0 R21
M73 Q0 S21
M201 X2500 Y2500 Z200 E2500 ; sets maximum accelerations, mm/sec^2
M203 X200 Y200 Z40 E100 ; sets maximum feedrates, mm / sec
M204 P2000 R1200 T2000 ; sets acceleration (P, T) and retract acceleration (R), mm/sec^2
M205 X8.00 Y8.00 Z2.00 E10.00 ; sets the jerk limits, mm/sec
M205 S0 T0 ; sets the minimum extruding and travel feed rate, mm/sec

M486 S0
M486 Axyz-cali-cube-by-r3d_v1.stl
M486 S-1

;TYPE:Custom
M17 ; enable steppers
M862.3 P "MK4" ; printer model check
M862.1 P0.4 A0 F0 ; nozzle check
M115 U6.1.2+7894
M555 X115 Y91 W32 H24

G90 ; use absolute coordinates
M83 ; extruder relative mode

M140 S85 ; set bed temp
M104 T0 S175 ; set extruder temp for bed leveling
M109 T0 R175 ; wait for temp

M84 E ; turn off E motor

G28 ; home all without mesh bed level

G1 X42 Y-4 Z5 F4800

M302 S160 ; lower cold extrusion limit to 160C


G1 E-2 F2400 ; retraction


M84 E ; turn off E motor

G29 P9 X10 Y-4 W32 H4



G0 Z40 F10000

M190 S85 ; wait for bed temp

M107

;
; MBL
;
M84 E ; turn off E motor
G29 P1 ; invalidate mbl & probe print area
G29 P1 X0 Y0 W50 H20 C ; probe near purge place
G29 P3.2 ; interpolate mbl probes
G29 P3.13 ; extrapolate mbl outside probe area
G29 A ; activate mbl

; prepare for purge
M104 S230
G0 X0 Y-4 Z15 F4800 ; move away and ready for the purge
M109 S230

G92 E0
M569 S0 E ; set spreadcycle mode for extruder

;
; Extrude purge line
;
G92 E0 ; reset extruder position
G1 E2 F2400 ; deretraction after the initial one before nozzle cleaning
G0 E7 X15 Z0.2 F500 ; purge
G0 X25 E4 F500 ; purge
G0 X35 E4 F650 ; purge
G0 X45 E4 F800 ; purge
G0 X48 Z0.05 F8000 ; wipe, move close to the bed
G0 X51 Z0.2 F8000 ; wipe, move quickly away from the bed

G92 E0
M221 S100 ; set flow to 100%
G21 ; set units to millimeters
G90 ; use absolute coordinates
M83 ; use relative distances for extrusion
M900 K0.07 ; Filament gcode



M142 S36 ; set heatbreak target temp
M107
;LAYER_CHANGE
;Z:0.2
;HEIGHT:0.2
G1 E-.8 F2100
G1 Z1.7 F720
M486 S0
G1 X121.962 Y101.06 F12000
G1 Z.2 F720
G1 E.8 F1500
M204 P600
;TYPE:Perimeter
;WIDTH:0.616021
G1 F1200
G2 X121.586 Y101.857 I2.38 J1.61 E.04216
G1 X121.448 Y101.853 E.00658
G1 X121.332 Y101.56 E.01502
G1 X121.312 Y100.759 E.03818
G1 X121.431 Y100.463 E.0152
G1 X121.626 Y100.432 E.00941
G2 X121.923 Y101.014 I1.492 J-.396 E.03137
M204 P1000
G1 E-.16 F2100
;WIPE_START
G1 F9600
G1 X121.962 Y101.06 E-.01253
G2 X121.586 Y101.857 I2.38 J1.61 E-.18386
G1 X121.448 Y101.853 E-.02869
G1 X121.332 Y101.56 E-.06549
G1 X121.312 Y100.759 E-.16651
G1 X121.431 Y100.463 E-.0663
G1 X121.626 Y100.432 E-.04103
G2 X121.76 Y100.769 I1.492 J-.395 E-.07559
;WIPE_END
G1 X123.899 Y101.508 Z.24 F12000
G1 Z.2 F720
G1 E.8 F1500
M204 P600
;WIDTH:0.425498
G1 F1200
G1 X123.634 Y101.401 E.00909
;WIDTH:0.409674
G1 X123.388 Y101.233 E.00908
;WIDTH:0.40393
G1 X122.981 Y101.051 E.01338
G2 X123.667 Y100.805 I-1.462 J-5.154 E.02189
G1 X123.659 Y100.964 E.00478
;WIDTH:0.409674
G1 X123.731 Y101.296 E.01036
;WIDTH:0.425498
G1 X123.862 Y101.461 E.0067
M204 P1000
G1 E-.16 F2100
;WIPE_START
G1 F9600
G1 X123.899 Y101.508 E-.01243
G1 X123.634 Y101.401 E-.05939
G1 X123.388 Y101.233 E-.06191
G1 X122.981 Y101.051 E-.09265
G2 X123.667 Y100.805 I-1.461 J-5.154 E-.15157
G1 X123.659 Y100.964 E-.03308
G1 X123.731 Y101.296 E-.0706
G1 X123.862 Y101.461 E-.04378
;WIPE_END
G1 E-.11459 F2100
G1 X126.248 Y104.468 Z.267 F12000
G1 Z.2 F720
G1 E.8 F1500
M204 P600
;WIDTH:0.499999
G1 F1200
G3 X125.332 Y104.608 I-.927 J-3.002 E.03535
G3 X124.372 Y104.36 I.093 J-2.345 E.03797
G1 X123.916 Y103.982 E.02251
G1 X123.702 Y103.637 E.01543
G1 X123.454 Y103.961 E.01551
G3 X122.47 Y104.5 I-2.007 J-2.5 E.04286
G1 X121.722 Y104.607 E.02872
G3 X120.257 Y104.359 I-.104 J-3.828 E.05683
G3 X119.333 Y103.722 I2.196 J-4.174 E.04276
G1 X118.927 Y103.167 E.02613
G3 X118.552 Y102.393 I2.826 J-1.848 E.03278
G3 X118.389 Y101.245 I5.555 J-1.372 E.04414
G1 X118.467 Y100.308 E.03574
G1 X118.67 Y99.627 E.02701
G1 X119.187 Y98.758 E.03843
G1 X119.356 Y98.573 E.00952
G1 X119.971 Y98.108 E.0293
G1 X120.607 Y97.827 E.02643
G1 X121.525 Y97.684 E.03531
G1 X122.227 Y97.736 E.02675
G3 X123.636 Y98.401 I-.566 J3.024 E.05987
G3 X124.32 Y99.552 I-1.745 J1.816 E.05151
G3 X125.105 Y99.141 I2.033 J2.927 E.03376
G3 X126.786 Y99.156 I.808 J3.78 E.06441
G3 X127.448 Y99.494 I-.455 J1.707 E.02846
G3 X127.454 Y98.284 I10.164 J-.558 E.04602
G1 X127.639 Y97.967 E.01395
G3 X128.174 Y97.775 I.528 J.632 E.02206
G3 X129.574 Y98.031 I-.068 J4.332 E.05434
G1 X130.157 Y97.856 E.02313
G1 X130.974 Y97.785 E.03117
G1 X131.337 Y97.86 E.01409
G3 X131.682 Y98.282 I-.444 J.715 E.0211
G3 X131.494 Y99.766 I-3.402 J.323 E.05732
G3 X131.717 Y100.934 I-5.077 J1.575 E.04529
G1 X131.717 Y103.842 E.11052
G1 X131.656 Y104.124 E.01097
G1 X131.451 Y104.384 E.01258
G1 X131.13 Y104.521 E.01326
G3 X129.576 Y104.27 I-.033 J-4.733 E.06011
G1 X128.986 Y104.386 E.02285
G3 X127.96 Y104.24 I-.199 J-2.279 E.03973
G1 X127.314 Y104.444 E.02575
G1 X126.568 Y104.525 E.02852
G3 X126.304 Y104.49 I-.046 J-.672 E.01019
M204 P1000
G1 E-.16 F2100
;WIPE_START
G1 F9600
G1 X126.248 Y104.468 E-.0125
G3 X125.332 Y104.608 I-.927 J-3.001 E-.19327
G3 X124.372 Y104.36 I.094 J-2.344 E-.20761
G1 X123.916 Y103.982 E-.12309
G1 X123.702 Y103.637 E-.08437
G1 X123.646 Y103.71 E-.01916
;WIPE_END
G1 X123.811 Y102.041 Z.229 F12000
G1 Z.2 F720
G1 E.8 F1500
M204 P600
;TYPE:External perimeter
;WIDTH:0.453002
G1 F1200
G1 X123.82 Y102.068 E.00097
;WIDTH:0.439922
G1 X123.737 Y102.376 E.01053
;WIDTH:0.473838
G1 X123.654 Y102.684 E.01143
;WIDTH:0.499999
G3 X123.114 Y103.65 I-2.94 J-1.008 E.04229
G3 X122.253 Y104.089 I-1.64 J-2.155 E.03693
G3 X120.916 Y104.09 I-.671 J-4.196 E.05103
G1 X120.47 Y103.955 E.01771
G3 X119.622 Y103.368 I1.871 J-3.612 E.0393
G3 X119.014 Y102.345 I4.503 J-3.369 E.04531
G1 X118.888 Y101.771 E.02234
G3 X118.922 Y100.351 I5.313 J-.582 E.05414
G1 X119.105 Y99.768 E.02322
G1 X119.575 Y99 E.03422
G1 X120.246 Y98.473 E.03243
M73 P1 R21
M73 Q1 S21
G1 X120.777 Y98.251 E.02187
G1 X121.585 Y98.137 E.03101
G3 X122.581 Y98.294 I-.091 J3.835 E.03843
G3 X123.374 Y98.776 I-1.46 J3.296 E.03537
G1 X123.694 Y99.188 E.01983
G1 X123.896 Y99.729 E.02195
G1 X123.9 Y100.074 E.01311
;WIDTH:0.497015
G1 X123.812 Y100.256 E.00763
;WIDTH:0.499999
G1 X123.355 Y100.5 E.01969
;WIDTH:0.528931
G1 X122.631 Y100.738 E.0308
;WIDTH:0.553099
G1 X122.453 Y100.786 E.00782
G1 X122.362 Y100.719 E.00479
;WIDTH:0.526549
G1 X122.271 Y100.652 E.00454
;WIDTH:0.499999
G1 X122.051 Y100.139 E.02121
G1 X121.892 Y99.98 E.00855
G1 X121.569 Y99.897 E.01267
G1 X121.221 Y99.973 E.01354
G1 X121.024 Y100.128 E.00953
G2 X120.802 Y100.676 I2.045 J1.149 E.02253
G2 X120.825 Y101.717 I10.091 J.296 E.03959
G1 X121.028 Y102.178 E.01914
G1 X121.214 Y102.328 E.00908
G1 X121.625 Y102.395 E.01583
G1 X121.927 Y102.263 E.01253
G2 X122.303 Y101.442 I-2.055 J-1.437 E.03451
;WIDTH:0.526549
G1 X122.388 Y101.368 E.00453
;WIDTH:0.553099
G1 X122.474 Y101.294 E.00481
G1 X122.735 Y101.396 E.01189
;WIDTH:0.526549
G1 X122.996 Y101.498 E.01127
;WIDTH:0.499999
G2 X123.766 Y101.911 I2.337 J-3.435 E.03327
G1 X123.791 Y101.984 E.00293
M204 P1000
G1 E-.16 F2100
;WIPE_START
G1 F9600
G1 X123.811 Y102.041 E-.01255
G1 X123.82 Y102.068 E-.00591
G1 X123.737 Y102.376 E-.06629
G1 X123.654 Y102.684 E-.06629
G3 X123.114 Y103.65 I-2.94 J-1.009 E-.23122
G3 X122.253 Y104.089 I-1.641 J-2.154 E-.20192
G3 X121.987 Y104.123 I-.67 J-4.196 E-.05582
;WIPE_END
G1 X125.688 Y111.411 Z.343 F12000
G1 Z.2 F720
G1 E.8 F1500
M204 P600
;WIDTH:0.570342
G1 F1200
G1 X125.688 Y107.761 E.16007
M204 P1000
G1 E-.16 F2100
;WIPE_START
G1 F9600
G1 X125.688 Y110.841 E-.64
;WIPE_END
G1 X129.574 Y103.671 Z.342 F12000
G1 Z.2 F720
G1 E.8 F1500
M204 P600
;WIDTH:0.594116
G1 F1200
G1 X129.574 Y103.646 E.00115
;WIDTH:0.592014
G1 X129.574 Y100.016 E.16574
;WIDTH:0.636936
G1 X129.596 Y99.905 E.00559
;WIDTH:0.681858
G2 X129.596 Y99.683 I-.325 J-.111 E.01201
;WIDTH:0.636936
G1 X129.574 Y99.572 E.00559
;WIDTH:0.592014
G1 X129.574 Y98.654 E.04191
M204 P1000
G1 E-.16 F2100
;WIPE_START
G1 F9600
G1 X129.574 Y101.734 E-.64
;WIPE_END
G1 X131.077 Y110.085 Z.348 F12000
G1 Z.2 F720
G1 E.8 F1500
M204 P600
;WIDTH:0.453162
G1 F1200
G1 X131.631 Y110.056 E.01892
;WIDTH:0.418041
G1 X131.908 Y110.037 E.00866
;WIDTH:0.42004
G1 X131.762 Y110.133 E.00548
;WIDTH:0.453162
G3 X131.516 Y110.465 I-.659 J-.231 E.01431
G1 X131.313 Y110.491 E.00698
G1 X131.293 Y110.435 E.00203
G3 X131.017 Y110.089 I.297 J-.519 E.01546
M204 P1000
G1 E-.16 F2100
;WIPE_START
G1 F9600
G1 X131.077 Y110.085 E-.0125
G1 X131.631 Y110.056 E-.11529
G1 X131.908 Y110.037 E-.0577
G1 X131.762 Y110.133 E-.03631
G3 X131.516 Y110.465 I-.659 J-.232 E-.08717
G1 X131.313 Y110.491 E-.04253
G1 X131.293 Y110.435 E-.01236
G3 X131.017 Y110.089 I.297 J-.52 E-.09421
;WIPE_END
G1 E-.18193 F2100
G1 X130.836 Y99.794 Z.38 F12000
G1 Z.2 F720
G1 E.8 F1500
M204 P600
;WIDTH:0.535823
G1 F1200
G1 X130.532 Y99.794 E.01246
;WIDTH:0.584501
G1 X130.228 Y99.794 E.01369
;WIDTH:0.63318
G1 X129.923 Y99.794 E.01497
;WIDTH:0.681858
G1 X129.619 Y99.794 E.01615
M204 P1000
G1 E-.16 F2100
;WIPE_START
G1 F9600
G1 X130.836 Y99.794 E-.25291
G1 X130.532 Y99.794 E-.06318
G1 X130.228 Y99.794 E-.06318
G1 X129.923 Y99.794 E-.06338
G1 X129.619 Y99.794 E-.06318
;WIPE_END
G1 E-.13417 F2100
G1 X125.951 Y101.212 Z.269 F12000
G1 Z.2 F720
G1 E.8 F1500
M204 P600
;WIDTH:0.408646
G1 F1200
G1 X125.782 Y101.254 E.0053
;WIDTH:0.451168
G1 X125.288 Y101.338 E.01701
G1 X125.432 Y101.075 E.01018
;WIDTH:0.407996
G1 X125.568 Y100.939 E.00584
;WIDTH:0.408646
G1 X125.85 Y100.896 E.00867
G2 X126.058 Y101.051 I.271 J-.148 E.00814
G3 X126.04 Y101.19 I-.059 J.063 E.00497
G1 X126.009 Y101.198 E.00097
M204 P1000
G1 X126.009 Y101.198 F12000
G1 X125.225 Y101.347
M204 P600
;WIDTH:0.473629
G1 F1200
G1 X124.968 Y101.323 E.00924
;WIDTH:0.499999
G3 X124.178 Y101.191 I.329 J-4.377 E.03048
G1 X124.157 Y101.176 E.00098
G3 X124.085 Y100.761 I.387 J-.281 E.01658
;WIDTH:0.499
G1 X124.236 Y100.444 E.01332
;WIDTH:0.499999
G1 X124.543 Y99.963 E.02169
G1 X124.975 Y99.687 E.01948
G3 X125.765 Y99.509 I.887 J2.096 E.03094
G3 X127.045 Y99.754 I.188 J2.486 E.05011
;WIDTH:0.502231
G1 X127.374 Y100.047 E.01683
;WIDTH:0.504003
G1 X127.559 Y100.429 E.01627
G1 X127.623 Y100.984 E.02142
;WIDTH:0.490194
G1 X127.624 Y101.012 E.00104
;WIDTH:0.493681
G1 X127.624 Y102.611 E.05993
G1 X127.677 Y103.189 E.02175
;WIDTH:0.461656
G1 X127.735 Y103.425 E.00846
;WIDTH:0.423996
G1 X127.793 Y103.66 E.00767
;WIDTH:0.424224
G1 X127.773 Y103.721 E.00204
;WIDTH:0.462112
G1 X127.754 Y103.782 E.00223
;WIDTH:0.499999
G1 X127.735 Y103.843 E.00243
G3 X126.526 Y104.07 I-1.323 J-3.714 E.04694
G3 X126.303 Y103.94 I.012 J-.277 E.01021
G1 X125.865 Y104.107 E.01782
G3 X124.859 Y104.081 I-.438 J-2.528 E.0385
G3 X124.228 Y103.637 I.714 J-1.684 E.02955
G3 X123.986 Y102.799 I1.847 J-.989 E.0334
;WIDTH:0.496571
G1 X124.026 Y102.616 E.00707
;WIDTH:0.45412
G1 X124.067 Y102.433 E.00641
;WIDTH:0.411669
G1 X124.108 Y102.251 E.00572
;WIDTH:0.412812
G1 X124.167 Y102.101 E.00496
;WIDTH:0.456406
G1 X124.227 Y101.951 E.00555
;WIDTH:0.499999
G1 X124.287 Y101.802 E.0061
G1 X124.694 Y101.504 E.01917
G1 X124.975 Y101.427 E.01107
;WIDTH:0.473629
G1 X125.228 Y101.357 E.0094
M204 P1000
G1 E-.16 F2100
;WIPE_START
G1 F9600
G1 X125.225 Y101.347 E-.00217
G1 X124.968 Y101.323 E-.05364
G3 X124.178 Y101.191 I.325 J-4.377 E-.16668
G1 X124.157 Y101.176 E-.00536
G3 X124.085 Y100.761 I.387 J-.281 E-.09064
G1 X124.236 Y100.444 E-.07297
G1 X124.543 Y99.963 E-.11858
G1 X124.975 Y99.687 E-.10653
G3 X125.08 Y99.646 I.887 J2.096 E-.02343
;WIPE_END
G1 X129.45 Y103.786 Z.305 F12000
G1 Z.2 F720
G1 E.8 F1500
M204 P600
;WIDTH:0.547058
G1 F1200
G1 X129.363 Y103.868 E.00501
;WIDTH:0.499999
G1 X128.835 Y103.946 E.02029
G1 X128.273 Y103.875 E.02153
G1 X128.19 Y103.845 E.00335
G1 X128.094 Y103.163 E.02618
;WIDTH:0.493681
G1 X128.07 Y101.009 E.08074
;WIDTH:0.504003
G2 X127.944 Y99.862 I-12.017 J.743 E.04426
;WIDTH:0.502231
G1 X127.895 Y99.318 E.02086
;WIDTH:0.499999
G3 X127.911 Y98.36 I7.094 J-.359 E.03644
G1 X128.036 Y98.245 E.00646
G1 X128.868 Y98.296 E.03168
G1 X129.361 Y98.434 E.01946
;WIDTH:0.546007
G1 X129.467 Y98.544 E.00639
;WIDTH:0.592014
G1 X129.574 Y98.654 E.00701
G1 X129.68 Y98.544 E.00697
;WIDTH:0.546007
G1 X129.787 Y98.434 E.00642
;WIDTH:0.499999
G3 X131.006 Y98.241 I1.212 J3.709 E.0471
G3 X131.242 Y98.407 I-.017 J.275 E.01154
G1 X131.202 Y99.131 E.02756
G1 X131.031 Y99.69 E.02222
;WIDTH:0.498942
G1 X130.836 Y99.794 E.00838
G1 X131.031 Y99.898 E.00838
;WIDTH:0.499999
G3 X131.26 Y100.934 I-3.397 J1.291 E.04047
G1 X131.26 Y103.842 E.11052
G1 X131.188 Y104.008 E.00688
G1 X131.015 Y104.07 E.00698
G3 X129.786 Y103.866 I.063 J-4.176 E.04753
;WIDTH:0.547058
G1 X129.68 Y103.769 E.00602
;WIDTH:0.594116
G1 X129.574 Y103.671 E.00662
G1 X129.494 Y103.745 E.00499
M204 P1000
G1 E-.16 F2100
;WIPE_START
G1 F9600
G1 X129.45 Y103.786 E-.0125
G1 X129.363 Y103.868 E-.02484
G1 X128.835 Y103.946 E-.11092
G1 X128.273 Y103.875 E-.11772
G1 X128.19 Y103.845 E-.01834
G1 X128.094 Y103.163 E-.14313
G1 X128.083 Y102.14 E-.21255
;WIPE_END
G1 X131.908 Y110.037 Z.353 F12000
G1 Z.2 F720
G1 E.8 F1500
M204 P600
;WIDTH:0.423086
G1 F1200
G1 X132.169 Y110.058 E.00828
;WIDTH:0.463251
G1 X132.431 Y110.078 E.00918
;WIDTH:0.503417
G1 X132.692 Y110.099 E.01003
;WIDTH:0.543582
G1 X132.954 Y110.12 E.01094
M204 P1000
G1 E-.16 F2100
;WIPE_START
G1 F9600
G1 X131.908 Y110.037 E-.21806
G1 X132.169 Y110.058 E-.05441
G1 X132.431 Y110.078 E-.05461
G1 X132.692 Y110.099 E-.05441
G1 X132.954 Y110.12 E-.05462
;WIPE_END
G1 E-.20389 F2100
G1 X119.651 Y108.788 Z.433 F12000
G1 Z.2 F720
G1 E.8 F1500
M204 P600
;TYPE:Perimeter
;WIDTH:0.612184
G1 F1200
G1 X119.531 Y108.933 E.00891
G1 X119.328 Y109.514 E.02913
G1 X119.232 Y109.626 E.00698
G1 X119.12 Y109.59 E.00557
G1 X119.008 Y109.296 E.01489
G1 X118.991 Y108.557 E.03499
G1 X119.131 Y108.185 E.01881
G1 X119.297 Y108.16 E.00795
G2 X119.614 Y108.741 I2.036 J-.731 E.03145
M204 P1000
G1 X119.614 Y108.741 F12000
G1 X120.708 Y108.781
M204 P600
;WIDTH:0.429457
G1 F1200
G2 X121.418 Y108.463 I-1.077 J-3.365 E.02505
G2 X121.427 Y109.148 I3.206 J.303 E.02206
G2 X120.763 Y108.803 I-2.119 J3.265 E.02409
M204 P1000
G1 E-.16 F2100
;WIPE_START
G1 F9600
G1 X120.708 Y108.781 E-.01231
G2 X121.418 Y108.463 I-1.081 J-3.364 E-.162
G2 X121.427 Y109.148 I3.206 J.3 E-.14263
G2 X120.763 Y108.803 I-2.118 J3.265 E-.15574
;WIPE_END
G1 E-.16732 F2100
G1 X123.705 Y107.124 Z.259 F12000
G1 Z.2 F720
G1 E.8 F1500
M204 P600
;WIDTH:0.499999
G1 F1200
G1 X123.77 Y107.227 E.00463
G1 X123.949 Y106.946 E.01266
G1 X124.201 Y106.881 E.00989
G3 X125.229 Y106.993 I-.08 J5.461 E.03936
G1 X125.124 Y106.355 E.02457
G1 X125.152 Y106.022 E.0127
G3 X125.557 Y105.603 I.761 J.33 E.02263
G3 X127.135 Y105.549 I1.059 J7.861 E.06011
G3 X127.79 Y106.232 I-.058 J.711 E.03932
G1 X127.704 Y106.863 E.0242
G3 X128.891 Y107.016 I.351 J1.957 E.0462
G3 X129.574 Y107.672 I-1.198 J1.929 E.03626
G1 X129.861 Y107.299 E.01789
G3 X130.568 Y106.901 I1.649 J2.103 E.03096
G3 X132.348 Y107.013 I.729 J2.629 E.06905
G1 X133.089 Y107.534 E.03443
G1 X133.28 Y107.757 E.01116
G1 X133.62 Y108.387 E.02721
G1 X133.679 Y108.638 E.0098
;WIDTH:0.468009
G1 X133.738 Y108.889 E.00911
;WIDTH:0.436018
G1 X133.748 Y109.639 E.02452
;WIDTH:0.456324
G1 X133.717 Y109.807 E.00587
;WIDTH:0.487207
G1 X133.685 Y109.975 E.00632
;WIDTH:0.515537
G1 X133.585 Y110.175 E.00879
G1 X133.668 Y110.555 E.01529
;WIDTH:0.492475
G1 X133.625 Y110.811 E.0097
;WIDTH:0.499999
G1 X133.472 Y111.199 E.01585
G3 X132.948 Y111.828 I-2.619 J-1.647 E.03121
G3 X131.82 Y112.32 I-1.616 J-2.172 E.04718
G3 X130.197 Y112.093 I-.433 J-2.83 E.06317
G1 X129.728 Y111.729 E.02256
G1 X129.557 Y111.467 E.01189
G3 X128.745 Y112.179 I-1.478 J-.867 E.04176
G1 X128.156 Y112.316 E.02298
