; generated by PrusaSlicer 2.9.1 on 2025-03-13 at 15:59:08 UTC


;
;
; 

; external perimeters extrusion width = 0.45mm
; perimeters extrusion width = 0.45mm
; infill extrusion width = 0.45mm
; solid infill extrusion width = 0.45mm
; top infill extrusion width = 0.40mm
; first layer extrusion width = 0.42mm

M73 P0 R27
M73 Q0 S27
M201 X1000 Y1000 Z200 E5000 ; sets maximum accelerations, mm/sec^2
M203 X200 Y200 Z12 E120 ; sets maximum feedrates, mm / sec
M204 S1250 T1250 ; sets acceleration (S) and retract acceleration (R), mm/sec^2
M205 X8.00 Y8.00 Z0.40 E4.50 ; sets the jerk limits, mm/sec
M205 S0 T0 ; sets the minimum extruding and travel feed rate, mm/sec

; printing object xyz-cali-cube-by-r3d_v1.stl id:0 copy 0
; stop printing object xyz-cali-cube-by-r3d_v1.stl id:0 copy 0

;TYPE:Custom
M862.3 P "MK3" ; printer model check
M862.1 P0.4 ; nozzle diameter check
M115 U3.14.0 ; tell printer latest fw version
G90 ; use absolute coordinates
M83 ; extruder relative mode
M104 S215 ; set extruder temp
M140 S60 ; set bed temp
M190 S60 ; wait for bed temp
M109 S215 ; wait for extruder temp
G28 W ; home all without mesh bed level
G80 X112.246 Y92.2458 W25.5083 H25.5083 ; mesh bed levelling

G1 Z0.2 F720
G1 Y-3 F1000 ; go outside print area
G92 E0
G1 X60 E9 F1000 ; intro line
G1 X100 E12.5 F1000 ; intro line

G92 E0
M221 S95

; Don't change E values below. Excessive value can damage the printer.

M907 E538 ; set extruder motor current
M75
G21 ; set units to millimeters
G90 ; use absolute coordinates
M83 ; use relative distances for extrusion

M900 K0.05 ; Filament gcode LA 1.5
M900 K30 ; Filament gcode LA 1.0




M107
;LAYER_CHANGE
;Z:0.2
;HEIGHT:0.2
G1 E-.8 F2100
G1 Z.6 F720
G1 X112.827 Y93.637 F10800
G1 Z.2 F720
G1 E.8 F2100
M204 S800
;TYPE:Skirt/Brim
;WIDTH:0.42
G1 F1200
G1 X113.883 Y92.69 E.04447
G1 X115 Y92.434 E.03593
G1 X135 Y92.434 E.62709
G1 X136.363 Y92.827 E.04448
G1 X137.31 Y93.883 E.04447
G1 X137.566 Y95 E.03593
G1 X137.566 Y115 E.62709
G1 X137.173 Y116.363 E.04448
G1 X136.117 Y117.31 E.04447
G1 X135 Y117.566 E.03593
G1 X115 Y117.566 E.62709
G1 X113.637 Y117.173 E.04448
G1 X112.69 Y116.117 E.04447
G1 X112.434 Y115 E.03593
G1 X112.434 Y95 E.62709
G1 X112.81 Y93.694 E.04261
M204 S1000
G1 X113.184 Y93.811 F10800
M204 S800
G1 F1200
G1 X113.202 Y93.752 E.00193
G1 X114.235 Y92.949 E.04102
G1 X115 Y92.811 E.02437
G1 X135 Y92.811 E.62709
G1 X136.248 Y93.202 E.04101
G1 X137.051 Y94.235 E.04102
G1 X137.189 Y95 E.02437
G1 X137.189 Y115 E.62709
G1 X136.798 Y116.248 E.04101
G1 X135.765 Y117.051 E.04102
G1 X135 Y117.189 E.02437
G1 X115 Y117.189 E.62709
G1 X113.752 Y116.798 E.04101
G1 X112.949 Y115.765 E.04102
G1 X112.811 Y115 E.02437
G1 X112.811 Y95 E.62709
G1 X113.166 Y93.869 E.03717
M73 Q1 S27
M204 S1000
;WIPE_START
G1 F8640
G1 X113.184 Y93.811 E-.01402
G1 X113.202 Y93.752 E-.01424
G1 X114.235 Y92.949 E-.30211
G1 X115 Y92.811 E-.17949
M73 P1 R27
G1 X116.257 Y92.811 E-.29014
;WIPE_END
G1 Z.6 F720
; printing object xyz-cali-cube-by-r3d_v1.stl id:0 copy 0
G1 X124.075 Y101.077 F10800
G1 Z.2 F720
G1 E.8 F2100
M204 S800
;TYPE:External perimeter
;WIDTH:0.419999
G1 F1200
G1 X124.048 Y101.027 E.00178
G1 X124.065 Y100.757 E.00848
G1 X124.242 Y100.37 E.01334
G1 X124.556 Y99.93 E.01695
G1 X125.121 Y99.638 E.01994
G1 X125.741 Y99.55 E.01963
G1 X126.397 Y99.574 E.02058
G1 X126.96 Y99.728 E.0183
G1 X127.355 Y100.011 E.01524
;WIDTH:0.438765
G1 X127.598 Y100.395 E.01496
G1 X127.663 Y100.984 E.0195
;WIDTH:0.421841
G1 X127.665 Y101.16 E.00555
;WIDTH:0.430139
G1 X127.662 Y102.621 E.04704
;WIDTH:0.43641
G1 X127.687 Y103.132 E.01674
G1 X127.74 Y103.383 E.00839
;WIDTH:0.410234
G1 X127.793 Y103.633 E.00781
;WIDTH:0.419999
G1 X127.715 Y103.808 E.00601
G1 X127.178 Y103.966 E.01755
G1 X126.522 Y104.03 E.02067
G1 X126.378 Y103.981 E.00477
G1 X126.298 Y103.897 E.00364
G1 X125.87 Y104.066 E.01443
G1 X125.386 Y104.119 E.01527
G1 X124.849 Y104.039 E.01702
G1 X124.508 Y103.871 E.01192
G1 X124.231 Y103.617 E.01178
G1 X124.097 Y103.394 E.00816
G1 X124.006 Y103.097 E.00974
G1 X124.039 Y102.499 E.01878
;WIDTH:0.383137
G1 X124.125 Y102.184 E.00924
;WIDTH:0.419999
G1 X124.308 Y101.811 E.01303
G1 X124.697 Y101.545 E.01478
;WIDTH:0.4567
G1 X125.239 Y101.359 E.01972
G1 X124.728 Y101.265 E.01788
;WIDTH:0.419999
G1 X124.229 Y101.221 E.01571
G1 X124.139 Y101.194 E.00295
G1 X124.104 Y101.13 E.00229
M204 S1000
;WIPE_START
G1 F8640
G1 X124.075 Y101.077 E-.01395
G1 X124.048 Y101.027 E-.01312
G1 X124.065 Y100.757 E-.06247
G1 X124.242 Y100.37 E-.09826
G1 X124.556 Y99.93 E-.12481
G1 X125.121 Y99.638 E-.14685
G1 X125.741 Y99.55 E-.14459
G1 X126.397 Y99.574 E-.15157
G1 X126.582 Y99.625 E-.04438
;WIPE_END
G1 Z.6 F720
G1 X122.206 Y101.047 F10800
G1 Z.2 F720
G1 E.8 F2100
M204 S800
;TYPE:Perimeter
;WIDTH:0.437192
G1 F1200
G1 X122.12 Y101.085 E.00308
G1 X121.962 Y101.361 E.01043
;WIDTH:0.419999
G1 X121.765 Y101.914 E.01841
G1 X121.617 Y102.047 E.00624
G1 X121.386 Y102.037 E.00725
G1 X121.247 Y101.873 E.00674
G1 X121.146 Y101.561 E.01028
G1 X121.142 Y100.72 E.02637
G1 X121.281 Y100.381 E.01149
G1 X121.392 Y100.265 E.00503
G1 X121.675 Y100.251 E.00888
G1 X121.78 Y100.341 E.00434
G1 X121.927 Y100.716 E.01263
;WIDTH:0.437192
G1 X122.117 Y101.016 E.01164
G1 X122.149 Y101.027 E.00111
M204 S1000
;WIPE_START
G1 F8640
G1 X122.206 Y101.047 E-.01395
G1 X122.12 Y101.085 E-.02171
G1 X121.962 Y101.361 E-.07343
G1 X121.765 Y101.914 E-.13555
G1 X121.617 Y102.047 E-.04595
G1 X121.386 Y102.037 E-.05339
G1 X121.247 Y101.873 E-.04964
G1 X121.146 Y101.561 E-.07572
G1 X121.142 Y100.72 E-.19419
G1 X121.281 Y100.381 E-.0846
G1 X121.392 Y100.265 E-.03707
G1 X121.456 Y100.262 E-.0148
;WIPE_END
G1 Z.6 F720
G1 X123.919 Y101.558 F10800
G1 Z.2 F720
G1 E.8 F2100
M204 S800
;WIDTH:0.515354
G1 F1200
G1 X123.622 Y101.398 E.01325
;WIDTH:0.481338
G1 X123.325 Y101.238 E.0123
;WIDTH:0.447322
G1 X122.822 Y101.04 E.01818
G1 X123.646 Y100.805 E.02881
G1 X123.658 Y101.069 E.00889
;WIDTH:0.481338
G1 X123.789 Y101.313 E.0101
;WIDTH:0.515354
G1 X123.891 Y101.505 E.00854
M204 S1000
;WIPE_START
G1 F8640
G1 X123.919 Y101.558 E-.01384
G1 X123.622 Y101.398 E-.0779
G1 X123.325 Y101.238 E-.0779
G1 X122.822 Y101.04 E-.12482
G1 X123.646 Y100.805 E-.19785
G1 X123.658 Y101.069 E-.06102
G1 X123.789 Y101.313 E-.06395
G1 X123.891 Y101.505 E-.0502
;WIPE_END
G1 E-.13252 F2100
G1 Z.6 F720
G1 X124.275 Y99.68 F10800
G1 Z.2 F720
G1 E.8 F2100
M204 S800
;WIDTH:0.419999
G1 F1200
G1 X124.464 Y99.533 E.00751
G1 X124.959 Y99.298 E.01718
G1 X125.694 Y99.176 E.02336
G1 X126.413 Y99.198 E.02255
G1 X127.062 Y99.365 E.02101
G1 X127.526 Y99.655 E.01716
G1 X127.579 Y99.709 E.00237
G1 X127.544 Y99.205 E.01584
G1 X127.551 Y98.465 E.0232
G1 X127.606 Y98.215 E.00803
G1 X127.722 Y98.053 E.00625
G1 X128.019 Y97.901 E.01046
G1 X128.853 Y97.952 E.0262
G1 X129.451 Y98.109 E.01939
G1 X129.574 Y98.16 E.00417
G1 X130.189 Y97.972 E.02016
G1 X130.983 Y97.905 E.02498
G1 X131.282 Y97.967 E.00957
G1 X131.486 Y98.145 E.00849
G1 X131.566 Y98.315 E.00589
G1 X131.586 Y98.51 E.00615
G1 X131.539 Y99.156 E.02031
G1 X131.352 Y99.794 E.02085
G1 X131.517 Y100.321 E.01731
G1 X131.597 Y100.934 E.01938
G1 X131.597 Y103.842 E.09118
G1 X131.547 Y104.075 E.00747
G1 X131.327 Y104.324 E.01042
G1 X131.093 Y104.405 E.00776
G1 X130.294 Y104.348 E.02512
G1 X129.695 Y104.191 E.01942
G1 X129.576 Y104.141 E.00405
G1 X129.309 Y104.219 E.00872
G1 X128.799 Y104.286 E.01613
G1 X128.226 Y104.208 E.01813
G1 X128.022 Y104.138 E.00676
G1 X127.962 Y104.042 E.00355
G1 X127.9 Y104.137 E.00356
G1 X127.281 Y104.329 E.02032
G1 X126.557 Y104.405 E.02283
G1 X126.38 Y104.394 E.00556
G1 X126.249 Y104.341 E.00443
G1 X125.917 Y104.44 E.01086
G1 X125.33 Y104.492 E.01848
G1 X124.793 Y104.412 E.01702
G1 X124.35 Y104.218 E.01516
G1 X123.996 Y103.933 E.01425
G1 X123.742 Y103.519 E.01523
G1 X123.715 Y103.442 E.00256
G1 X123.373 Y103.903 E.018
G1 X122.927 Y104.191 E.01665
G1 X122.419 Y104.391 E.01712
G1 X121.683 Y104.491 E.02329
G1 X120.875 Y104.424 E.02542
G1 X120.314 Y104.254 E.01838
G1 X119.87 Y103.996 E.0161
G1 X119.409 Y103.629 E.01848
G1 X119.027 Y103.101 E.02043
G1 X118.873 Y102.855 E.0091
G1 X118.669 Y102.368 E.01656
G1 X118.558 Y101.84 E.01692
G1 X118.509 Y101.236 E.019
G1 X118.587 Y100.32 E.02882
G1 X118.784 Y99.664 E.02148
G1 X119.289 Y98.821 E.03081
G1 X119.428 Y98.669 E.00646
G1 X120.043 Y98.204 E.02417
G1 X120.651 Y97.938 E.02081
G1 X121.54 Y97.803 E.02819
G1 X122.215 Y97.855 E.02123
G1 X122.865 Y98.052 E.0213
G1 X123.56 Y98.491 E.02577
G1 X123.968 Y98.963 E.01956
G1 X124.202 Y99.438 E.0166
G1 X124.258 Y99.623 E.00606
M204 S1000
;WIPE_START
G1 F8640
G1 X124.275 Y99.68 E-.01373
G1 X124.464 Y99.533 E-.05529
G1 X124.959 Y99.298 E-.12652
G1 X125.694 Y99.176 E-.17204
G1 X126.413 Y99.198 E-.1661
G1 X127.062 Y99.365 E-.15474
G1 X127.472 Y99.621 E-.11158
;WIPE_END
G1 Z.6 F720
G1 X123.785 Y102.045 F10800
G1 Z.2 F720
G1 E.8 F2100
M204 S800
;TYPE:External perimeter
G1 F1200
G1 X123.808 Y102.079 E.00129
G1 X123.531 Y103.012 E.03052
G1 X123.151 Y103.589 E.02166
G1 X122.736 Y103.864 E.01561
G1 X122.247 Y104.05 E.0164
G1 X121.642 Y104.116 E.01908
G1 X120.92 Y104.05 E.02273
G1 X120.49 Y103.92 E.01409
G1 X120.058 Y103.669 E.01567
G1 X119.647 Y103.337 E.01657
G1 X119.341 Y102.892 E.01693
G1 X119.05 Y102.329 E.01987
G1 X118.927 Y101.763 E.01816
G1 X118.885 Y101.209 E.01742
G1 X118.962 Y100.355 E.02689
G1 X119.143 Y99.78 E.0189
G1 X119.609 Y99.021 E.02793
G1 X120.271 Y98.505 E.02632
G1 X120.792 Y98.288 E.0177
G1 X121.589 Y98.177 E.02523
G1 X122.178 Y98.23 E.01854
G1 X122.749 Y98.411 E.01878
G1 X123.35 Y98.804 E.02252
G1 X123.671 Y99.197 E.01591
G1 X123.893 Y99.684 E.01678
G1 X123.959 Y100.106 E.01339
;WIDTH:0.406424
G1 X123.918 Y100.241 E.00426
;WIDTH:0.419999
G1 X123.688 Y100.372 E.0083
G1 X123.141 Y100.552 E.01806
;WIDTH:0.457373
G1 X122.875 Y100.641 E.00967
;WIDTH:0.494747
G1 X122.608 Y100.731 E.01059
;WIDTH:0.520479
G1 X122.529 Y100.759 E.00333
;WIDTH:0.54621
G1 X122.45 Y100.787 E.00351
G1 X122.395 Y100.723 E.00353
;WIDTH:0.50414
G1 X122.339 Y100.66 E.00323
;WIDTH:0.46207
G1 X122.284 Y100.596 E.00294
;WIDTH:0.419999
G1 X122.151 Y100.201 E.01307
G1 X121.981 Y99.987 E.00857
G1 X121.698 Y99.874 E.00955
G1 X121.358 Y99.886 E.01067
G1 X121.135 Y99.984 E.00764
G1 X120.997 Y100.097 E.00559
G1 X120.785 Y100.554 E.0158
G1 X120.756 Y101.093 E.01692
G1 X120.769 Y101.571 E.01499
G1 X120.844 Y101.912 E.01095
G1 X120.992 Y102.202 E.01021
G1 X121.285 Y102.405 E.01118
G1 X121.618 Y102.436 E.01049
G1 X121.83 Y102.361 E.00705
G1 X121.954 Y102.294 E.00442
G1 X122.133 Y102.05 E.00949
G1 X122.321 Y101.479 E.01885
;WIDTH:0.46207
G1 X122.37 Y101.416 E.00278
;WIDTH:0.50414
G1 X122.419 Y101.352 E.00309
;WIDTH:0.54621
G1 X122.469 Y101.288 E.0034
G1 X122.676 Y101.378 E.00945
;WIDTH:0.50414
G1 X122.884 Y101.468 E.00869
;WIDTH:0.46207
G1 X123.091 Y101.558 E.00787
;WIDTH:0.419999
G1 X123.7 Y101.921 E.02223
G1 X123.751 Y101.995 E.00282
M204 S1000
;WIPE_START
G1 F8640
G1 X123.785 Y102.045 E-.01396
G1 X123.808 Y102.079 E-.00948
G1 X123.531 Y103.012 E-.22473
G1 X123.151 Y103.589 E-.15953
G1 X122.736 Y103.864 E-.11495
G1 X122.247 Y104.05 E-.1208
G1 X121.642 Y104.116 E-.14052
G1 X121.573 Y104.11 E-.01603
;WIPE_END
G1 Z.6 F720
G1 X119.89 Y108.781 F10800
G1 Z.2 F720
G1 E.8 F2100
M204 S800
;TYPE:Perimeter
;WIDTH:0.436571
G1 F1200
G1 X119.804 Y108.818 E.00306
G1 X119.643 Y109.099 E.0106
;WIDTH:0.419999
G1 X119.448 Y109.657 E.01853
G1 X119.303 Y109.788 E.00613
G1 X119.136 Y109.789 E.00524
G1 X118.983 Y109.705 E.00547
G1 X118.853 Y109.421 E.00979
G1 X118.802 Y108.839 E.01832
G1 X118.862 Y108.308 E.01676
G1 X119.027 Y108.053 E.00952
G1 X119.206 Y107.989 E.00596
G1 X119.423 Y108.02 E.00687
G1 X119.625 Y108.482 E.01581
;WIDTH:0.436571
G1 X119.802 Y108.75 E.01051
G1 X119.833 Y108.761 E.00108
M204 S1000
G1 X120.538 Y108.779 F10800
M204 S800
;WIDTH:0.467078
G1 F1200
G1 X120.876 Y108.686 E.01236
G1 X121.408 Y108.456 E.02044
G1 X121.389 Y108.614 E.00561
G1 X121.404 Y109.149 E.01888
G1 X121.244 Y109.057 E.00651
G1 X120.594 Y108.801 E.02464
M204 S1000
;WIPE_START
G1 F8640
G1 X120.538 Y108.779 E-.01389
G1 X120.876 Y108.686 E-.08095
G1 X121.408 Y108.456 E-.13383
G1 X121.389 Y108.614 E-.03675
G1 X121.404 Y109.149 E-.12358
G1 X121.244 Y109.057 E-.04262
G1 X120.594 Y108.801 E-.16131
;WIPE_END
G1 E-.20707 F2100
G1 Z.6 F720
G1 X123.639 Y107.205 F10800
G1 Z.2 F720
G1 E.8 F2100
M204 S800
;WIDTH:0.419999
G1 F1200
G1 X123.771 Y107.414 E.00775
G1 X124.001 Y107.054 E.01339
G1 X124.29 Y107.001 E.00921
G1 X124.98 Y107.059 E.02171
G1 X125.319 Y107.144 E.01096
G1 X125.215 Y106.276 E.02741
G1 X125.251 Y106.013 E.00832
G1 X125.343 Y105.857 E.00568
G1 X125.524 Y105.713 E.00725
G1 X125.759 Y105.654 E.0076
G1 X126.429 Y105.631 E.02102
G1 X127.137 Y105.647 E.0222
G1 X127.28 Y105.668 E.00453
G1 X127.498 Y105.787 E.00779
G1 X127.669 Y106.059 E.01007
G1 X127.687 Y106.269 E.00661
G1 X127.614 Y107.008 E.02328
G1 X128 Y106.939 E.01229
G1 X128.449 Y106.98 E.01414
G1 X128.861 Y107.114 E.01358
G1 X129.199 Y107.348 E.01289
G1 X129.525 Y107.732 E.01579
G1 X129.566 Y107.813 E.00285
G1 X129.865 Y107.425 E.01536
G1 X130.262 Y107.13 E.01551
G1 X130.701 Y106.979 E.01456
G1 X131.235 Y106.909 E.01689
G1 X131.897 Y106.99 E.02091
G1 X132.307 Y107.126 E.01354
G1 X133.017 Y107.63 E.0273
G1 X133.175 Y107.813 E.00758
G1 X133.514 Y108.443 E.02243
;WIDTH:0.468009
G1 X133.607 Y108.671 E.0087
;WIDTH:0.516018
G1 X133.7 Y108.899 E.00969
G1 X133.708 Y109.639 E.02911
;WIDTH:0.536324
G1 X133.679 Y109.797 E.00659
;WIDTH:0.567206
G1 X133.651 Y109.955 E.007
;WIDTH:0.595537
G1 X133.54 Y110.172 E.0112
G1 X133.628 Y110.555 E.01806
;WIDTH:0.56537
G1 X133.622 Y110.666 E.00483
G1 X133.535 Y110.828 E.00799
;WIDTH:0.516913
G1 X133.448 Y110.991 E.00728
;WIDTH:0.468456
G1 X133.361 Y111.154 E.00654
;WIDTH:0.419999
G1 X133.251 Y111.327 E.00643
G1 X132.861 Y111.747 E.01797
G1 X132.501 Y111.966 E.01321
G1 X132.197 Y112.105 E.01048
G1 X131.81 Y112.2 E.01249
G1 X131.277 Y112.236 E.01675
G1 X130.765 Y112.179 E.01615
G1 X130.31 Y112.045 E.01487
G1 X129.973 Y111.828 E.01257
G1 X129.585 Y111.402 E.01807
G1 X129.548 Y111.334 E.00243
G1 X129.293 Y111.692 E.01378
G1 X128.879 Y112.014 E.01644
G1 X128.598 Y112.123 E.00945
G1 X128.087 Y112.196 E.01618
G1 X127.451 Y112.083 E.02025
G1 X127.226 Y111.88 E.0095
G1 X127.177 Y111.868 E.00158
G1 X126.964 Y111.947 E.00712
G1 X126.414 Y112.026 E.01742
G1 X125.783 Y111.928 E.02002
G1 X125.688 Y111.811 E.00473
G1 X125.594 Y111.928 E.00471
G1 X125.05 Y112.019 E.01729
G1 X124.414 Y111.948 E.02007
G1 X124.194 Y111.85 E.00755
G1 X124.033 Y112.029 E.00755
G1 X123.817 Y112.113 E.00727
G1 X123.235 Y112.208 E.01849
G1 X122.745 Y112.151 E.01547
G1 X122.24 Y111.941 E.01715
G1 X121.919 Y111.687 E.01283
G1 X121.721 Y111.434 E.01007
G1 X121.55 Y111.08 E.01233
G1 X121.13 Y111.593 E.02079
G1 X120.804 Y111.822 E.01249
G1 X120.198 Y112.108 E.02101
G1 X119.308 Y112.238 E.0282
G1 X118.561 Y112.164 E.02354
G1 X118.001 Y111.994 E.01835
G1 X117.59 Y111.762 E.0148
G1 X117.101 Y111.374 E.01957
G1 X116.604 Y110.677 E.02684
G1 X116.392 Y110.223 E.01571
;WIDTH:0.463441
G1 X116.244 Y109.732 E.01793
G1 X116.187 Y108.984 E.02623
;WIDTH:0.462806
G1 X116.228 Y108.203 E.02731
G1 X116.352 Y107.717 E.01751
;WIDTH:0.419999
G1 X116.552 Y107.23 E.01651
G1 X116.98 Y106.553 E.02511
G1 X117.503 Y106.094 E.02182
G1 X117.992 Y105.802 E.01786
G1 X118.475 Y105.642 E.01595
G1 X119.226 Y105.543 E.02375
G1 X119.867 Y105.592 E.02016
G1 X120.371 Y105.734 E.01642
G1 X120.695 Y105.863 E.01093
G1 X121.247 Y106.239 E.02094
G1 X121.496 Y106.534 E.0121
G1 X121.715 Y106.888 E.01305
G1 X121.829 Y107.235 E.01145
G1 X122.456 Y107.069 E.02034
G1 X123.009 Y107.018 E.01741
G1 X123.43 Y107.014 E.0132
G1 X123.542 Y107.053 E.00372
G1 X123.607 Y107.155 E.00379
M204 S1000
;WIPE_START
G1 F8640
G1 X123.639 Y107.205 E-.01371
G1 X123.771 Y107.414 E-.05708
G1 X124.001 Y107.054 E-.09864
G1 X124.29 Y107.001 E-.06784
G1 X124.98 Y107.059 E-.15988
G1 X125.319 Y107.144 E-.0807
G1 X125.215 Y106.276 E-.20186
G1 X125.251 Y106.013 E-.06129
G1 X125.343 Y105.857 E-.04182
G1 X125.401 Y105.811 E-.01718
;WIPE_END
G1 Z.6 F720
G1 X126.998 Y111.519 F10800
G1 Z.2 F720
G1 E.8 F2100
