; generated by PrusaSlicer 2.9.1 on 2025-03-13 at 16:03:25 UTC

; 

; external perimeters extrusion width = 0.42mm
; perimeters extrusion width = 0.44mm
; infill extrusion width = 0.44mm
; solid infill extrusion width = 0.44mm
; top infill extrusion width = 0.40mm
; first layer extrusion width = 0.42mm

M201 X500 Y500 Z100 E5000 ; sets maximum accelerations, mm/sec^2
M203 X500 Y500 Z10 E60 ; sets maximum feedrates, mm / sec
M204 S500 T1000 ; sets acceleration (S) and retract acceleration (R), mm/sec^2
M205 X8.00 Y8.00 Z0.40 E5.00 ; sets the jerk limits, mm/sec
M205 S0 T0 ; sets the minimum extruding and travel feed rate, mm/sec

; printing object xyz-cali-cube-by-r3d_v1.stl id:0 copy 0
; stop printing object xyz-cali-cube-by-r3d_v1.stl id:0 copy 0

;TYPE:Custom
G90 ; use absolute coordinates
M83 ; extruder relative mode
M104 S150 ; set temporary nozzle temp to prevent oozing during homing
M140 S60 ; set final bed temp
G4 S30 ; allow partial nozzle warmup
G28 ; home all axis
G1 Z50 F240
G1 X2.0 Y10 F3000
M104 S210 ; set final nozzle temp
M190 S60 ; wait for bed temp to stabilize
M109 S210 ; wait for nozzle temp to stabilize
G1 Z0.28 F240
G92 E0
G1 X2.0 Y140 E10 F1500 ; prime the nozzle
G1 X2.3 Y140 F5000
G92 E0
G1 X2.3 Y10 E10 F1200 ; prime the nozzle
G92 E0
G21 ; set units to millimeters
G90 ; use absolute coordinates
M83 ; use relative distances for extrusion
; Filament gcode
M107
;LAYER_CHANGE
;Z:0.2
;HEIGHT:0.2
G1 E-5 F3600
G1 Z.2 F9000
G1 X111.829 Y93.37
G1 Z.2
G1 E5 F2400
M204 S500
;TYPE:Skirt/Brim
;WIDTH:0.42
G1 F1200
G1 X112.925 Y92.101 E.05257
G1 X115 Y91.434 E.06834
G1 X135 Y91.434 E.62709
G1 X136.63 Y91.829 E.05259
G1 X137.899 Y92.925 E.05257
G1 X138.566 Y95 E.06834
G1 X138.566 Y115 E.62709
G1 X138.171 Y116.63 E.05259
G1 X137.075 Y117.899 E.05257
G1 X135 Y118.566 E.06834
G1 X115 Y118.566 E.62709
G1 X113.37 Y118.171 E.05259
G1 X112.101 Y117.075 E.05257
G1 X111.434 Y115 E.06834
G1 X111.434 Y95 E.62709
G1 X111.815 Y93.428 E.05072
G1 X112.19 Y93.525 F9000
G1 F1200
G1 X112.205 Y93.465 E.00194
G1 X113.289 Y92.309 E.04969
G1 X115 Y91.811 E.05587
G1 X135 Y91.811 E.62709
G1 X136.535 Y92.205 E.04969
G1 X137.691 Y93.289 E.04969
G1 X138.189 Y95 E.05587
G1 X138.189 Y115 E.62709
G1 X137.795 Y116.535 E.04969
G1 X136.711 Y117.691 E.04969
G1 X135 Y118.189 E.05587
G1 X115 Y118.189 E.62709
G1 X113.465 Y117.795 E.04969
G1 X112.309 Y116.711 E.04969
G1 X111.811 Y115 E.05587
G1 X111.811 Y95 E.62709
G1 X112.175 Y93.583 E.04587
G1 E-3.5 F3600
;WIPE_START
G1 F7200
G1 X112.19 Y93.525 E-.02846
G1 X112.205 Y93.465 E-.02938
G1 X113.289 Y92.309 E-.75275
G1 X114.683 Y91.904 E-.68941
;WIPE_END
; printing object xyz-cali-cube-by-r3d_v1.stl id:0 copy 0
G1 X124.288 Y100.334 F9000
G1 E5 F2400
;TYPE:External perimeter
;WIDTH:0.419823
G1 F1200
G1 X124.303 Y100.302 E.00111
;WIDTH:0.419999
G1 X124.67 Y99.934 E.0163
G1 X125.154 Y99.728 E.01649
G1 X125.745 Y99.65 E.01869
G1 X126.382 Y99.673 E.01999
G1 X126.919 Y99.813 E.0174
G1 X127.296 Y100.053 E.01401
;WIDTH:0.421236
G1 X127.547 Y100.386 E.01312
;WIDTH:0.426246
G1 X127.649 Y100.763 E.01245
G1 X127.664 Y101.008 E.00782
;WIDTH:0.430092
G1 X127.662 Y102.621 E.05193
;WIDTH:0.436407
G1 X127.687 Y103.132 E.01674
G1 X127.741 Y103.384 E.00843
;WIDTH:0.409903
G1 X127.794 Y103.636 E.00786
;WIDTH:0.419999
G1 X127.702 Y103.819 E.00642
G1 X127.151 Y103.905 E.01749
G1 X126.581 Y103.935 E.0179
G1 X126.411 Y103.846 E.00602
G1 X126.37 Y103.743 E.00348
G1 X125.891 Y103.957 E.01645
G1 X125.384 Y104.019 E.01602
G1 X124.815 Y103.924 E.01809
G1 X124.36 Y103.654 E.01659
G1 X124.058 Y103.197 E.01717
G1 X124.008 Y102.972 E.00723
G1 X124.052 Y102.425 E.01721
;WIDTH:0.381395
G1 X124.137 Y102.14 E.00837
;WIDTH:0.419999
G1 X124.363 Y101.756 E.01397
G1 X124.746 Y101.529 E.01396
;WIDTH:0.447264
G1 X125.256 Y101.35 E.01817
G1 X124.728 Y101.265 E.01798
;WIDTH:0.419999
G1 X124.229 Y101.221 E.01571
G1 X124.14 Y101.197 E.00289
G1 X124.054 Y101.093 E.00423
G1 X124.123 Y100.675 E.01328
;WIDTH:0.419823
G1 X124.262 Y100.388 E.00999
G1 E-3.5 F3600
;WIPE_START
G1 F7200
G1 X124.288 Y100.334 E-.02847
G1 X124.303 Y100.302 E-.01679
G1 X124.67 Y99.934 E-.24687
G1 X125.154 Y99.728 E-.24986
G1 X125.745 Y99.65 E-.28316
G1 X126.382 Y99.673 E-.30277
G1 X126.919 Y99.813 E-.2636
G1 X127.112 Y99.936 E-.10848
;WIPE_END
G1 X128.073 Y98.438 F9000
G1 E5 F2400
;WIDTH:0.419999
G1 F1200
G1 X128.083 Y98.416 E.00076
G1 X128.228 Y98.366 E.00481
G1 X129.316 Y98.464 E.03425
;WIDTH:0.463004
G1 X129.381 Y98.511 E.0028
;WIDTH:0.506008
G1 X129.445 Y98.558 E.00306
;WIDTH:0.549012
G1 X129.509 Y98.605 E.00334
;WIDTH:0.592016
G1 X129.574 Y98.652 E.00366
G1 X129.636 Y98.605 E.00355
;WIDTH:0.549012
G1 X129.698 Y98.558 E.00327
;WIDTH:0.506008
G1 X129.76 Y98.512 E.00297
;WIDTH:0.463004
G1 X129.822 Y98.465 E.00272
;WIDTH:0.419999
G1 X130.336 Y98.394 E.01627
G1 X130.924 Y98.371 E.01845
G1 X131.086 Y98.45 E.00565
G1 X131.12 Y98.567 E.00382
G1 X131.097 Y99.12 E.01735
G1 X131.019 Y99.626 E.01605
;WIDTH:0.453572
G1 X130.929 Y99.71 E.0042
;WIDTH:0.487144
G1 X130.839 Y99.794 E.00455
G1 X130.933 Y99.895 E.0051
;WIDTH:0.453572
G1 X131.026 Y99.996 E.00469
;WIDTH:0.419999
G1 X131.125 Y100.935 E.0296
G1 X131.125 Y103.747 E.08817
G1 X131.053 Y103.895 E.00516
G1 X130.919 Y103.935 E.00438
G1 X129.831 Y103.836 E.03425
;WIDTH:0.463528
G1 X129.767 Y103.796 E.00264
;WIDTH:0.507057
G1 X129.703 Y103.755 E.00293
;WIDTH:0.550586
G1 X129.638 Y103.714 E.00324
;WIDTH:0.594114
G1 X129.574 Y103.673 E.00348
G1 X129.517 Y103.713 E.00319
;WIDTH:0.550586
G1 X129.46 Y103.753 E.00294
;WIDTH:0.507057
G1 X129.403 Y103.793 E.00269
;WIDTH:0.463528
G1 X129.347 Y103.832 E.00239
;WIDTH:0.419999
G1 X128.848 Y103.871 E.01569
G1 X128.293 Y103.838 E.01743
G1 X128.227 Y103.821 E.00214
G1 X128.134 Y103.615 E.00709
;WIDTH:0.409903
G1 X128.104 Y103.341 E.00841
;WIDTH:0.436407
G1 X128.049 Y102.617 E.02376
;WIDTH:0.430092
G1 X128.038 Y101.001 E.05203
;WIDTH:0.421236
G1 X128.024 Y99.79 E.0381
;WIDTH:0.419999
G1 X128.023 Y98.552 E.03882
G1 X128.049 Y98.493 E.00202
G1 E-3.5 F3600
;WIPE_START
G1 F7200
G1 X128.073 Y98.438 E-.0285
G1 X128.083 Y98.416 E-.01148
G1 X128.228 Y98.366 E-.07285
G1 X129.316 Y98.464 E-.51889
G1 X129.381 Y98.511 E-.0381
G1 X129.445 Y98.558 E-.03772
G1 X129.509 Y98.605 E-.03772
G1 X129.574 Y98.652 E-.0381
G1 X129.636 Y98.605 E-.03696
G1 X129.698 Y98.558 E-.03696
G1 X129.76 Y98.512 E-.03667
G1 X129.822 Y98.465 E-.03696
G1 X130.336 Y98.394 E-.24647
G1 X130.924 Y98.371 E-.27951
G1 X131.005 Y98.411 E-.04311
;WIPE_END
G1 X129.574 Y103.673 F9000
G1 E5 F2400
;WIDTH:0.594114
G1 F1200
G1 X129.574 Y103.649 E.0011
;WIDTH:0.592014
G1 X129.574 Y100.016 E.16587
;WIDTH:0.636937
G1 X129.596 Y99.905 E.00559
;WIDTH:0.68186
G1 X129.619 Y99.794 E.00602
G1 X129.596 Y99.683 E.00602
;WIDTH:0.636937
G1 X129.574 Y99.572 E.00559
;WIDTH:0.592016
G1 X129.574 Y98.652 E.042
G1 X130.839 Y99.794 F9000
;WIDTH:0.535823
G1 F1200
G1 X130.534 Y99.794 E.0125
;WIDTH:0.584502
G1 X130.229 Y99.794 E.01373
;WIDTH:0.633181
G1 X129.924 Y99.794 E.01497
;WIDTH:0.68186
G1 X129.619 Y99.794 E.0162
G1 E-3.5 F3600
;WIPE_START
G1 F7200
G1 X129.924 Y99.794 E-.14488
G1 X130.229 Y99.794 E-.14488
G1 X130.534 Y99.794 E-.14487
G1 X130.839 Y99.794 E-.14488
;WIPE_END
G1 E-.92049 F3600
G1 X119.211 Y108.282 F9000
G1 E5 F2400
;TYPE:Perimeter
;WIDTH:0.426923
G1 F1200
G1 X119.436 Y108.692 E.01493
G1 X119.543 Y108.793 E.0047
G1 X119.414 Y108.948 E.00644
G1 X119.201 Y109.511 E.01922
G1 X119.127 Y109.358 E.00543
G1 X119.082 Y108.873 E.01555
G1 X119.125 Y108.418 E.01459
G1 X119.179 Y108.332 E.00324
G1 X118.769 Y108.272 F9000
;WIDTH:0.419999
G1 F1200
G1 X118.951 Y107.982 E.01074
G1 X119.129 Y107.91 E.00602
G1 X119.392 Y107.896 E.00826
G1 X119.531 Y107.993 E.00531
G1 X119.75 Y108.477 E.01666
;WIDTH:0.433959
G1 X119.916 Y108.645 E.00768
;WIDTH:0.482467
G1 X120.047 Y108.711 E.00536
;WIDTH:0.530974
G1 X120.178 Y108.777 E.00595
G1 X120.051 Y108.85 E.00594
;WIDTH:0.482467
G1 X119.923 Y108.923 E.00539
;WIDTH:0.433959
G1 X119.716 Y109.203 E.01132
;WIDTH:0.419999
G1 X119.498 Y109.768 E.01899
G1 X119.305 Y109.897 E.00728
G1 X119.076 Y109.881 E.0072
G1 X118.903 Y109.768 E.00648
G1 X118.757 Y109.444 E.01114
G1 X118.732 Y109.338 E.00341
G1 X118.702 Y108.833 E.01586
G1 X118.762 Y108.332 E.01582
G1 X120.287 Y108.774 F9000
;WIDTH:0.530974
G1 F1200
G1 X120.456 Y108.736 E.00703
;WIDTH:0.530712
G1 X121.42 Y108.448 E.04081
;WIDTH:0.530389
G1 X121.405 Y108.667 E.0089
G1 X121.431 Y109.177 E.0207
G1 X121.086 Y109.029 E.01522
;WIDTH:0.530974
G1 X120.344 Y108.793 E.0316
G1 E-3.5 F3600
;WIPE_START
G1 F7200
G1 X120.287 Y108.774 E-.02854
G1 X120.456 Y108.736 E-.08228
G1 X121.42 Y108.448 E-.4779
G1 X121.405 Y108.667 E-.10427
G1 X121.431 Y109.177 E-.24256
G1 X121.086 Y109.029 E-.17832
G1 X120.344 Y108.793 E-.36985
;WIPE_END
G1 E-.01628 F3600
G1 X123.771 Y107.658 F9000
G1 E5 F2400
;WIDTH:0.42204
G1 F1200
G1 X123.77 Y109.507 E.05829
;WIDTH:0.415942
G1 X123.764 Y109.639 E.0041
G1 E-3.5 F3600
;WIPE_START
G1 F7200
G1 X123.77 Y109.507 E-.06276
G1 X123.771 Y107.658 E-.87828
;WIPE_END
G1 E-.55896 F3600
G1 X121.581 Y110.912 F9000
G1 E5 F2400
;WIDTH:0.419999
G1 F1200
G1 X121.237 Y111.345 E.01734
G1 X120.882 Y111.665 E.01499
G1 X120.216 Y111.992 E.02326
G1 X120.038 Y112.045 E.00582
G1 X119.31 Y112.138 E.02301
G1 X118.581 Y112.066 E.02297
G1 X118.039 Y111.902 E.01775
G1 X117.646 Y111.679 E.01417
G1 X117.175 Y111.306 E.01884
G1 X116.692 Y110.629 E.02608
G1 X116.453 Y110.089 E.01852
;WIDTH:0.468042
G1 X116.395 Y109.938 E.00572
;WIDTH:0.516084
G1 X116.337 Y109.787 E.00636
;WIDTH:0.564126
G1 X116.279 Y109.637 E.00697
G1 X116.238 Y108.988 E.02818
;WIDTH:0.56243
G1 X116.277 Y108.214 E.03348
G1 X116.345 Y108.025 E.00868
;WIDTH:0.514953
G1 X116.413 Y107.836 E.00788
;WIDTH:0.467476
G1 X116.48 Y107.647 E.00708
;WIDTH:0.419999
G1 X116.684 Y107.194 E.01558
G1 X117.054 Y106.622 E.02136
G1 X117.562 Y106.175 E.02122
G1 X118.036 Y105.892 E.01731
G1 X118.499 Y105.739 E.01529
G1 X119.227 Y105.644 E.02302
G1 X119.884 Y105.694 E.02066
G1 X120.505 Y105.882 E.02034
G1 X121.15 Y106.287 E.02388
G1 X121.49 Y106.66 E.01582
G1 X121.677 Y106.962 E.01114
G1 X121.806 Y107.247 E.00981
G1 X122.127 Y107.16 E.01043
G1 X122.961 Y107.102 E.02621
G1 X123.354 Y107.114 E.01233
G1 X123.622 Y107.278 E.00985
;WIDTH:0.42204
G1 X123.771 Y107.658 E.01287
G1 X123.92 Y107.278 E.01287
;WIDTH:0.419999
G1 X124.189 Y107.115 E.00986
G1 X124.473 Y107.105 E.00891
G1 X125.351 Y107.184 E.02764
G1 X125.291 Y106.321 E.02712
G1 X125.352 Y106.038 E.00908
G1 X125.575 Y105.804 E.01013
G1 X125.856 Y105.729 E.00912
G1 X127.04 Y105.729 E.03712
G1 X127.348 Y105.82 E.01007
G1 X127.549 Y106.046 E.00948
G1 X127.606 Y106.276 E.00743
G1 X127.532 Y107.102 E.026
G1 X128.012 Y107.025 E.01524
G1 X128.583 Y107.112 E.01811
G1 X128.936 Y107.246 E.01184
G1 X129.326 Y107.551 E.01552
G1 X129.576 Y107.847 E.01215
G1 X129.811 Y107.554 E.01178
G1 X130.235 Y107.235 E.01664
G1 X130.726 Y107.071 E.01623
G1 X131.239 Y107.009 E.0162
G1 X131.873 Y107.087 E.02003
G1 X132.261 Y107.215 E.01281
G1 X132.939 Y107.695 E.02605
G1 X133.097 Y107.878 E.00758
G1 X133.421 Y108.48 E.02144
G1 X133.578 Y109.051 E.01857
G1 X133.599 Y109.609 E.01751
G1 X133.496 Y110.063 E.0146
G1 X133.445 Y110.166 E.0036
G1 X133.496 Y110.532 E.01159
G1 X133.444 Y110.771 E.00767
G1 X133.194 Y111.259 E.01719
G1 X132.935 Y111.545 E.0121
G1 X132.497 Y111.863 E.01697
G1 X131.939 Y112.069 E.01865
G1 X131.382 Y112.137 E.01759
G1 X130.865 Y112.098 E.01626
G1 X130.25 Y111.916 E.02011
G1 X130.04 Y111.795 E.0076
G1 X129.657 Y111.447 E.01623
G1 X129.532 Y111.31 E.00581
G1 X129.347 Y111.563 E.00983
G1 X128.936 Y111.894 E.01655
G1 X128.754 Y111.976 E.00626
G1 X128.243 Y112.103 E.01651
G1 X127.678 Y112.077 E.01773
G1 X127.452 Y112.011 E.00738
G1 X127.189 Y111.857 E.00956
G1 X126.921 Y111.954 E.00894
G1 X126.414 Y111.992 E.01594
G1 X125.787 Y111.931 E.01975
G1 X125.688 Y111.81 E.0049
G1 X125.59 Y111.931 E.00488
G1 X125.007 Y111.99 E.01837
G1 X124.456 Y111.954 E.01731
G1 X124.143 Y111.851 E.01033
G1 X123.904 Y112.022 E.00921
G1 X123.332 Y112.117 E.01818
G1 X122.88 Y112.081 E.01422
G1 X122.275 Y111.845 E.02036
G1 X121.806 Y111.409 E.02008
G1 X121.604 Y111.015 E.01388
G1 X121.594 Y110.971 E.00141
G1 E-3.5 F3600
;WIPE_START
G1 F7200
G1 X121.581 Y110.912 E-.0287
G1 X121.237 Y111.345 E-.26268
G1 X120.882 Y111.665 E-.22702
G1 X120.216 Y111.992 E-.35242
G1 X120.038 Y112.045 E-.08822
G1 X119.31 Y112.138 E-.34861
G1 X118.907 Y112.098 E-.19235
;WIPE_END
G1 X125.825 Y111.516 F9000
G1 E5 F2400
;TYPE:External perimeter
;WIDTH:0.495171
G1 F1200
G1 X125.792 Y111.492 E.00153
;WIDTH:0.532757
G1 X125.74 Y111.452 E.00267
;WIDTH:0.570342
G1 X125.688 Y111.413 E.00285
G1 X125.626 Y111.454 E.00326
;WIDTH:0.532757
G1 X125.564 Y111.495 E.00303
;WIDTH:0.495171
G1 X125.502 Y111.537 E.00282
;WIDTH:0.457585
G1 X125.44 Y111.578 E.00256
;WIDTH:0.419999
G1 X124.948 Y111.614 E.01547
G1 X124.389 Y111.543 E.01767
G1 X124.309 Y111.338 E.0069
G1 X123.898 Y111.551 E.01451
G1 X123.772 Y111.669 E.00541
G1 X123.328 Y111.74 E.0141
G1 X123 Y111.724 E.0103
G1 X122.506 Y111.547 E.01645
G1 X122.13 Y111.215 E.01573
G1 X121.972 Y110.933 E.01014
G1 X121.872 Y110.379 E.01765
G1 X121.889 Y109.846 E.01672
G1 X121.854 Y108.991 E.02683
G1 X121.862 Y108.311 E.02132
G1 X121.901 Y107.765 E.01716
;WIDTH:0.419435
G1 X121.951 Y107.605 E.00525
;WIDTH:0.419999
G1 X122.072 Y107.544 E.00425
G1 X122.592 Y107.493 E.01638
G1 X123.198 Y107.471 E.01901
G1 X123.344 Y107.532 E.00496
G1 X123.393 Y107.66 E.0043
G1 X123.395 Y109.653 E.06249
G1 X123.443 Y110.275 E.01956
G1 X123.587 Y110.398 E.00594
G1 X123.892 Y110.36 E.00964
G1 X124.054 Y110.216 E.0068
G1 X124.145 Y109.508 E.02238
G1 X124.149 Y107.66 E.05794
G1 X124.247 Y107.495 E.00602
G1 X124.439 Y107.48 E.00604
G1 X125.443 Y107.571 E.03161
;WIDTH:0.439995
G1 X125.512 Y107.58 E.0023
;WIDTH:0.482776
G1 X125.571 Y107.639 E.00305
;WIDTH:0.525556
G1 X125.63 Y107.699 E.00338
;WIDTH:0.568336
G1 X125.688 Y107.759 E.00365
G1 X125.709 Y107.641 E.00524
;WIDTH:0.525556
G1 X125.73 Y107.524 E.00477
;WIDTH:0.482776
G1 X125.751 Y107.406 E.00438
;WIDTH:0.439995
G1 X125.667 Y106.303 E.03652
;WIDTH:0.419999
G1 X125.706 Y106.18 E.00405
G1 X125.856 Y106.106 E.00524
G1 X127.04 Y106.106 E.03712
G1 X127.178 Y106.166 E.00472
G1 X127.228 Y106.312 E.00484
G1 X127.134 Y107.311 E.03146
G1 X127.17 Y107.714 E.01269
G1 X127.526 Y107.489 E.0132
G1 X127.979 Y107.401 E.01447
G1 X128.48 Y107.475 E.01588
G1 X128.717 Y107.553 E.00782
G1 X129.047 Y107.805 E.01302
G1 X129.263 Y108.052 E.01029
G1 X129.518 Y108.549 E.01751
G1 X129.551 Y108.647 E.00324
G1 X129.88 Y108.072 E.02077
G1 X130.048 Y107.847 E.0088
G1 X130.404 Y107.574 E.01407
G1 X130.775 Y107.445 E.01232
G1 X131.263 Y107.387 E.01541
G1 X131.824 Y107.461 E.01774
G1 X132.179 Y107.595 E.0119
G1 X132.713 Y107.996 E.02094
G1 X133.089 Y108.659 E.0239
G1 X133.201 Y109.066 E.01324
G1 X133.222 Y109.623 E.01748
G1 X133.123 Y109.97 E.01131
;WIDTH:0.460916
G1 X133.07 Y110.02 E.00253
;WIDTH:0.501832
G1 X133.017 Y110.07 E.00278
;WIDTH:0.542748
G1 X132.964 Y110.12 E.00303
G1 X133.011 Y110.198 E.00378
;WIDTH:0.501832
G1 X133.058 Y110.275 E.00344
;WIDTH:0.460916
G1 X133.105 Y110.352 E.00314
;WIDTH:0.419999
G1 X133.102 Y110.612 E.00815
G1 X132.907 Y111.015 E.01404
G1 X132.705 Y111.246 E.00962
G1 X132.326 Y111.526 E.01477
G1 X131.809 Y111.715 E.01726
G1 X131.316 Y111.761 E.01552
G1 X130.86 Y111.714 E.01437
G1 X130.364 Y111.557 E.01631
G1 X129.911 Y111.168 E.01872
G1 X129.607 Y110.653 E.01875
G1 X129.545 Y110.48 E.00576
G1 X129.158 Y111.212 E.02596
G1 X128.735 Y111.574 E.01746
G1 X128.192 Y111.729 E.01771
G1 X127.649 Y111.688 E.01707
G1 X127.069 Y111.325 E.02145
G1 X127.032 Y111.497 E.00552
G1 X126.892 Y111.578 E.00507
G1 X126.399 Y111.614 E.0155
G1 X125.896 Y111.57 E.01583
;WIDTH:0.457585
G1 X125.872 Y111.552 E.00103
G1 E-3.5 F3600
;WIPE_START
G1 F7200
G1 X125.825 Y111.516 E-.02812
G1 X125.792 Y111.492 E-.01938
G1 X125.74 Y111.452 E-.03116
G1 X125.688 Y111.413 E-.03088
G1 X125.626 Y111.454 E-.03531
G1 X125.564 Y111.495 E-.03531
G1 X125.502 Y111.537 E-.03557
G1 X125.44 Y111.578 E-.03531
G1 X124.948 Y111.614 E-.23432
G1 X124.389 Y111.543 E-.26766
