; generated by PrusaSlicer 2.9.1 on 2025-03-13 at 15:59:46 UTC


;
;

;
;

;
;

;
;

;
;
; 

; external perimeters extrusion width = 0.45mm
; perimeters extrusion width = 0.45mm
; infill extrusion width = 0.45mm
; solid infill extrusion width = 0.45mm
; top infill extrusion width = 0.42mm
; first layer extrusion width = 0.50mm

M73 P0 R13
M73 Q0 S14
M201 X4000 Y4000 Z200 E2500 ; sets maximum accelerations, mm/sec^2
M203 X300 Y300 Z40 E100 ; sets maximum feedrates, mm / sec
M204 P4000 R1200 T4000 ; sets acceleration (P, T) and retract acceleration (R), mm/sec^2
M205 X8.00 Y8.00 Z2.00 E10.00 ; sets the jerk limits, mm/sec
M205 S0 T0 ; sets the minimum extruding and travel feed rate, mm/sec

M486 S0
M486 Axyz-cali-cube-by-r3d_v1.stl
M486 S-1

;TYPE:Custom
M17 ; enable steppers
M862.1 P0.4 ; nozzle diameter check
M862.3 P "MK4S" ; printer model check
M862.5 P2 ; g-code level check
M862.6 P"Input shaper" ; FW feature check
M115 U6.0.4+14924

M555 X115 Y91 W32 H24

G90 ; use absolute coordinates
M83 ; extruder relative mode

M140 S60 ; set bed temp
M104 T0 S170 ; set extruder temp for bed leveling
M109 T0 R170 ; wait for temp

M84 E ; turn off E motor

G28 ; home all without mesh bed level

G1 X42 Y-4 Z5 F4800

M302 S160 ; lower cold extrusion limit to 160C


G1 E-2 F2400 ; retraction


M84 E ; turn off E motor

G29 P9 X10 Y-4 W32 H4

M106 S100

G0 Z40 F10000

M190 S60 ; wait for bed temp

M107

;
; MBL
;
M84 E ; turn off E motor
G29 P1 ; invalidate mbl & probe print area
G29 P1 X0 Y0 W50 H20 C ; probe near purge place
G29 P3.2 ; interpolate mbl probes
G29 P3.13 ; extrapolate mbl outside probe area
G29 A ; activate mbl

; prepare for purge
M104 S230
G0 X0 Y-4 Z15 F4800 ; move away and ready for the purge
M109 S230

G92 E0
M569 S0 E ; set spreadcycle mode for extruder

;
; Extrude purge line
;
G92 E0 ; reset extruder position
G1 E2 F2400 ; deretraction after the initial one before nozzle cleaning
G0 E7 X15 Z0.2 F500 ; purge
G0 X25 E4 F500 ; purge
G0 X35 E4 F650 ; purge
G0 X45 E4 F800 ; purge
G0 X48 Z0.05 F8000 ; wipe, move close to the bed
G0 X51 Z0.2 F8000 ; wipe, move quickly away from the bed

G92 E0
M221 S100 ; set flow to 100%
M75
G21 ; set units to millimeters
G90 ; use absolute coordinates
M83 ; use relative distances for extrusion
M900 K0.05 ; Filament gcode


M572 S0.036 ; Filament gcode


M142 S36 ; set heatbreak target temp
M107
;LAYER_CHANGE
;Z:0.2
;HEIGHT:0.2
G1 E-.7 F2100
G1 Z.8 F720
M486 S0
G1 X124.088 Y101.036 F18000
G1 Z.2 F720
M73 P1 R13
M73 Q1 S14
G1 E.7 F1500
M204 P500
;TYPE:External perimeter
;WIDTH:0.499999
G1 F2400
G1 X124.067 Y100.849 E.00715
G1 X124.149 Y100.607 E.00971
G1 X124.45 Y100.081 E.02303
G1 X124.763 Y99.784 E.0164
G1 X125.171 Y99.593 E.01712
G1 X125.732 Y99.511 E.02155
G1 X126.538 Y99.564 E.0307
G1 X127.013 Y99.732 E.01915
;WIDTH:0.502255
G1 X127.374 Y100.047 E.0183
;WIDTH:0.504048
G1 X127.559 Y100.428 E.01624
G1 X127.625 Y100.984 E.02147
;WIDTH:0.495073
G1 X127.627 Y101.157 E.0065
;WIDTH:0.496229
G1 X127.626 Y102.615 E.05496
G1 X127.667 Y103.124 E.01925
;WIDTH:0.477287
G1 X127.73 Y103.384 E.00966
;WIDTH:0.430938
G1 X127.793 Y103.644 E.00863
;WIDTH:0.423059
G1 X127.774 Y103.71 E.00217
;WIDTH:0.461529
G1 X127.755 Y103.776 E.00239
;WIDTH:0.499999
G1 X127.736 Y103.842 E.00261
G1 X127.189 Y104.005 E.02169
G1 X126.526 Y104.07 E.02532
G1 X126.439 Y104.061 E.00332
G1 X126.302 Y103.933 E.00713
G1 X125.875 Y104.106 E.01751
G1 X125.384 Y104.159 E.01877
G1 X124.884 Y104.09 E.01918
G1 X124.575 Y103.941 E.01304
G1 X124.228 Y103.636 E.01756
G1 X124.076 Y103.31 E.01367
G1 X123.986 Y102.8 E.01968
;WIDTH:0.49684
G1 X124.026 Y102.617 E.00707
;WIDTH:0.454329
G1 X124.067 Y102.434 E.00642
;WIDTH:0.411818
G1 X124.108 Y102.251 E.00575
;WIDTH:0.412871
G1 X124.168 Y102.101 E.00497
;WIDTH:0.456435
G1 X124.227 Y101.951 E.00554
;WIDTH:0.499999
G1 X124.287 Y101.802 E.0061
G1 X124.694 Y101.504 E.01917
G1 X124.975 Y101.427 E.01107
;WIDTH:0.473629
G1 X125.256 Y101.35 E.01043
G1 X124.968 Y101.323 E.01036
;WIDTH:0.499999
G3 X124.178 Y101.191 I.329 J-4.377 E.03048
G1 X124.095 Y101.103 E.0046
G1 X124.094 Y101.096 E.00027
M204 P4000
G1 X124.13 Y100.698 F18000
G1 E-.7 F2100
M204 T4000
G1 X129.45 Y103.786 Z.307 F18000
G1 Z.2 F720
G1 E.7 F1500
M204 P500
;WIDTH:0.547058
G1 F2400
G1 X129.363 Y103.868 E.00501
;WIDTH:0.499999
G1 X128.835 Y103.946 E.02029
G1 X128.273 Y103.875 E.02153
G1 X128.189 Y103.845 E.00339
G1 X128.17 Y103.739 E.00409
;WIDTH:0.464961
G1 X128.15 Y103.632 E.00382
;WIDTH:0.429923
G1 X128.13 Y103.525 E.0035
;WIDTH:0.428667
G1 X128.113 Y103.219 E.00983
;WIDTH:0.462448
G1 X128.096 Y102.912 E.01073
;WIDTH:0.496229
G1 X128.079 Y102.605 E.01159
G1 X128.08 Y101.154 E.05469
;WIDTH:0.495073
G1 X128.074 Y100.948 E.00775
;WIDTH:0.504048
G2 X127.944 Y99.862 I-15.495 J1.311 E.04195
;WIDTH:0.502255
G1 X127.895 Y99.318 E.02086
;WIDTH:0.499999
G3 X127.911 Y98.361 I7.555 J-.353 E.0364
G1 X128.036 Y98.245 E.00648
G1 X128.825 Y98.288 E.03003
G1 X129.36 Y98.434 E.02108
;WIDTH:0.546007
G1 X129.467 Y98.544 E.00642
;WIDTH:0.592014
G1 X129.574 Y98.654 E.00701
G1 X129.68 Y98.544 E.00697
;WIDTH:0.546007
G1 X129.787 Y98.434 E.00642
;WIDTH:0.499999
G1 X130.28 Y98.296 E.01946
G1 X131.006 Y98.241 E.02767
G1 X131.127 Y98.266 E.0047
G1 X131.242 Y98.407 E.00692
G1 X131.202 Y99.131 E.02756
G1 X131.031 Y99.69 E.02222
;WIDTH:0.498942
G1 X130.836 Y99.794 E.00838
G1 X131.031 Y99.898 E.00838
;WIDTH:0.499999
G1 X131.194 Y100.417 E.02068
G1 X131.26 Y100.933 E.01977
G3 X131.259 Y103.845 I-115.46 J1.447 E.11068
G1 X131.188 Y104.008 E.00676
G1 X131.015 Y104.07 E.00698
G1 X130.322 Y104.012 E.02643
G1 X129.786 Y103.866 E.02111
;WIDTH:0.547058
G1 X129.68 Y103.769 E.00602
;WIDTH:0.594116
G1 X129.574 Y103.671 E.00662
G1 X129.494 Y103.745 E.00499
M204 P4000
G1 X129.123 Y103.894 F18000
G1 E-.7 F2100
G1 X130.836 Y99.794 Z.278 F18000
G1 Z.2 F720
G1 E.7 F1500
M204 P500
;WIDTH:0.535821
G1 F2400
G1 X130.532 Y99.794 E.01246
;WIDTH:0.5845
G1 X130.227 Y99.794 E.01373
;WIDTH:0.633179
G1 X129.923 Y99.794 E.01492
;WIDTH:0.681858
G1 X129.619 Y99.794 E.01615
M204 P4000
G1 X130.019 Y99.794 F18000
G1 E-.7 F2100
G1 X129.574 Y103.671 Z.268 F18000
G1 Z.2 F720
G1 E.7 F1500
M204 P500
;WIDTH:0.594116
G1 F2400
G1 X129.574 Y103.646 E.00115
;WIDTH:0.592014
G1 X129.574 Y100.016 E.16574
;WIDTH:0.636936
G1 X129.596 Y99.905 E.00559
;WIDTH:0.681858
G2 X129.596 Y99.683 I-.325 J-.111 E.01201
;WIDTH:0.636936
G1 X129.574 Y99.572 E.00559
;WIDTH:0.592014
G1 X129.574 Y98.654 E.04191
M204 P4000
G1 X129.574 Y99.054 F18000
G1 E-.7 F2100
G1 X121.962 Y101.059 Z.337 F18000
G1 Z.2 F720
G1 E.7 F1500
M204 P500
;TYPE:Perimeter
;WIDTH:0.615843
G1 F2400
G1 X121.801 Y101.307 E.01409
G1 X121.587 Y101.857 E.02811
G1 X121.448 Y101.853 E.00662
G1 X121.347 Y101.625 E.01188
G3 X121.328 Y100.7 I4.875 J-.565 E.04414
G1 X121.439 Y100.456 E.01277
G1 X121.618 Y100.433 E.0086
G1 X121.8 Y100.863 E.02224
G1 X121.924 Y101.013 E.00927
M204 P4000
G1 E-.7 F2100
G1 X123.899 Y101.508 Z.236 F18000
G1 Z.2 F720
G1 E.7 F1500
M204 P500
;WIDTH:0.425498
G1 F2400
G1 X123.634 Y101.401 E.00909
;WIDTH:0.409674
G1 X123.388 Y101.233 E.00908
;WIDTH:0.40393
G1 X122.981 Y101.051 E.01338
G2 X123.667 Y100.805 I-1.462 J-5.154 E.02189
G1 X123.659 Y100.964 E.00478
;WIDTH:0.409674
G1 X123.731 Y101.296 E.01036
;WIDTH:0.425498
G1 X123.862 Y101.461 E.0067
M204 P4000
G1 E-.7 F2100
G1 X124.322 Y99.56 Z.234 F18000
G1 Z.2 F720
G1 E.7 F1500
M204 P500
;WIDTH:0.499999
G1 F2400
G1 X124.559 Y99.375 E.01143
G1 X125.105 Y99.141 E.02258
G1 X125.666 Y99.059 E.02155
G1 X126.57 Y99.108 E.03441
G1 X127.135 Y99.287 E.02253
G1 X127.448 Y99.494 E.01426
G3 X127.435 Y98.385 I20.707 J-.796 E.04216
G3 X127.638 Y97.969 I.815 J.138 E.01783
G1 X127.874 Y97.818 E.01065
G1 X128.174 Y97.775 E.01152
G1 X128.863 Y97.832 E.02628
G1 X129.483 Y97.994 E.02435
G1 X129.574 Y98.031 E.00373
G1 X130.157 Y97.856 E.02313
G1 X130.974 Y97.785 E.03117
G1 X131.337 Y97.86 E.01409
G1 X131.584 Y98.076 E.01247
G3 X131.706 Y98.519 I-.705 J.432 E.0177
G1 X131.658 Y99.165 E.02462
G1 X131.494 Y99.766 E.02368
G3 X131.717 Y100.93 I-5.109 J1.583 E.04514
G3 X131.716 Y103.849 I-115.786 J1.45 E.11094
G1 X131.654 Y104.127 E.01083
G1 X131.451 Y104.384 E.01245
G1 X131.129 Y104.521 E.0133
G1 X130.448 Y104.482 E.02592
G3 X129.576 Y104.27 I.749 J-4.989 E.03415
G1 X128.9 Y104.399 E.02616
G1 X128.208 Y104.327 E.02644
G1 X127.96 Y104.24 E.00999
G1 X127.314 Y104.444 E.02575
G1 X126.568 Y104.525 E.02852
G1 X126.308 Y104.499 E.00993
G1 X126.256 Y104.45 E.00272
G1 X125.931 Y104.559 E.01303
G1 X125.323 Y104.612 E.0232
G1 X124.759 Y104.529 E.02167
G1 X124.313 Y104.317 E.01877
G1 X123.916 Y103.982 E.01974
G1 X123.702 Y103.637 E.01543
G1 X123.454 Y103.961 E.01551
G1 X123.044 Y104.254 E.01915
G1 X122.47 Y104.5 E.02373
G1 X121.722 Y104.607 E.02872
G1 X121.235 Y104.589 E.01852
G3 X120.257 Y104.359 I.297 J-3.46 E.03832
G1 X119.803 Y104.096 E.01994
G1 X119.333 Y103.722 E.02283
G3 X118.763 Y102.904 I6.056 J-4.825 E.03792
G1 X118.551 Y102.392 E.02106
G1 X118.441 Y101.865 E.02046
G3 X118.546 Y99.967 I5.05 J-.673 E.07267
G1 X118.832 Y99.305 E.02741
G1 X119.199 Y98.74 E.02561
G1 X119.636 Y98.341 E.02249
G1 X120.263 Y97.954 E.028
G1 X120.941 Y97.75 E.02691
G1 X121.546 Y97.682 E.02314
G1 X122.227 Y97.736 E.02596
G1 X122.776 Y97.88 E.02157
G3 X123.637 Y98.402 I-1.714 J3.8 E.03836
G1 X123.837 Y98.613 E.01105
G1 X124.15 Y99.077 E.02127
G1 X124.302 Y99.504 E.01723
M204 P4000
G1 E-.7 F2100
G1 X123.792 Y102.057 Z.245 F18000
G1 Z.2 F720
G1 E.7 F1500
M204 P500
;TYPE:External perimeter
;WIDTH:0.413685
G1 F2400
G1 X123.804 Y102.122 E.00204
;WIDTH:0.405062
G1 X123.754 Y102.31 E.00586
;WIDTH:0.439597
G1 X123.704 Y102.497 E.00638
;WIDTH:0.474132
G1 X123.654 Y102.685 E.00698
;WIDTH:0.499999
G1 X123.419 Y103.228 E.02249
G1 X123.114 Y103.65 E.01979
G1 X122.751 Y103.894 E.01662
G1 X122.253 Y104.089 E.02033
G1 X121.672 Y104.153 E.02222
G1 X120.916 Y104.09 E.02883
G1 X120.47 Y103.954 E.01772
G1 X120.037 Y103.704 E.019
G1 X119.622 Y103.368 E.02029
G3 X119.014 Y102.344 I4.46 J-3.343 E.04535
G1 X118.888 Y101.771 E.0223
G3 X118.994 Y100.056 I4.573 J-.578 E.06569
G1 X119.246 Y99.497 E.0233
G1 X119.579 Y98.994 E.02293
G1 X119.955 Y98.673 E.01879
G1 X120.499 Y98.345 E.02414
G1 X121.055 Y98.193 E.02191
G1 X121.592 Y98.136 E.02052
G3 X122.581 Y98.294 I-.106 J3.86 E.03817
G3 X123.375 Y98.776 I-1.461 J3.296 E.0354
G1 X123.694 Y99.187 E.01977
G1 X123.896 Y99.73 E.02202
G1 X123.9 Y100.074 E.01308
;WIDTH:0.49633
G1 X123.812 Y100.256 E.00762
;WIDTH:0.499999
G1 X123.355 Y100.5 E.01969
;WIDTH:0.528906
G1 X122.63 Y100.738 E.03084
;WIDTH:0.552956
G1 X122.453 Y100.786 E.00778
G1 X122.362 Y100.719 E.00479
;WIDTH:0.526478
G1 X122.271 Y100.652 E.00454
;WIDTH:0.499999
G1 X122.053 Y100.141 E.02111
G1 X121.958 Y100.023 E.00576
G1 X121.739 Y99.917 E.00925
G1 X121.314 Y99.939 E.01617
G1 X121.022 Y100.129 E.01324
G1 X120.826 Y100.553 E.01775
G2 X120.825 Y101.717 I5.79 J.587 E.04431
G1 X121.029 Y102.179 E.01919
G1 X121.213 Y102.328 E.009
G1 X121.626 Y102.395 E.0159
G1 X121.928 Y102.263 E.01253
G1 X122.13 Y101.937 E.01458
G1 X122.302 Y101.442 E.01992
;WIDTH:0.526478
G1 X122.388 Y101.368 E.00456
;WIDTH:0.552956
G1 X122.473 Y101.294 E.00478
G1 X122.735 Y101.396 E.01192
;WIDTH:0.526478
G1 X122.996 Y101.498 E.01127
;WIDTH:0.499999
G2 X123.766 Y101.911 I2.337 J-3.434 E.03327
G1 X123.779 Y101.982 E.00274
;WIDTH:0.456842
G1 X123.782 Y101.998 E.00056
M204 P4000
G1 X123.725 Y102.394 F18000
G1 E-.7 F2100
G1 X120.072 Y109.098 Z.333 F18000
G1 Z.2 F720
G1 E.7 F1500
M204 P500
;WIDTH:0.551832
G1 F2400
G1 X120.157 Y109.027 E.00469
G1 X120.43 Y109.128 E.01232
;WIDTH:0.525916
G1 X120.704 Y109.23 E.01174
;WIDTH:0.499999
G1 X121.444 Y109.65 E.03234
G1 X121.508 Y109.731 E.00392
;WIDTH:0.473299
G1 X121.522 Y109.9 E.00607
;WIDTH:0.474155
G1 X121.433 Y110.267 E.01354
;WIDTH:0.499999
G1 X121.344 Y110.633 E.01432
G1 X121.123 Y111.07 E.01861
G1 X120.804 Y111.427 E.0182
G1 X120.339 Y111.691 E.02032
G1 X119.843 Y111.849 E.01978
G1 X119.258 Y111.904 E.02233
G1 X118.353 Y111.766 E.03479
G1 X117.84 Y111.523 E.02157
G1 X117.31 Y111.11 E.02554
G3 X116.756 Y110.23 I3.922 J-3.086 E.03959
G1 X116.595 Y109.657 E.02262
G1 X116.531 Y108.955 E.02679
G1 X116.585 Y108.231 E.02759
G1 X116.694 Y107.751 E.01871
G1 X116.879 Y107.33 E.01748
G1 X117.263 Y106.736 E.02688
G1 X117.715 Y106.356 E.02244
G1 X118.19 Y106.083 E.02082
G3 X119.277 Y105.877 I1.317 J3.979 E.04217
G1 X119.833 Y105.927 E.02122
G1 X120.442 Y106.112 E.02419
G1 X120.972 Y106.476 E.02444
G1 X121.154 Y106.66 E.00984
G3 X121.426 Y107.212 I-1.491 J1.075 E.0235
G1 X121.511 Y107.725 E.01976
;WIDTH:0.457904
G1 X121.512 Y107.824 E.00342
;WIDTH:0.473449
G1 X121.464 Y107.907 E.00343
;WIDTH:0.499999
G1 X121.416 Y107.991 E.00368
G1 X120.775 Y108.317 E.02733
;WIDTH:0.530609
G1 X120.293 Y108.479 E.02062
;WIDTH:0.551832
G1 X120.141 Y108.52 E.00666
G1 X120.051 Y108.452 E.00477
;WIDTH:0.525916
G1 X119.96 Y108.385 E.00454
;WIDTH:0.499999
G1 X119.772 Y107.922 E.01899
G1 X119.554 Y107.706 E.01166
G1 X119.282 Y107.656 E.01051
G1 X118.933 Y107.701 E.01337
G1 X118.709 Y107.868 E.01062
G1 X118.514 Y108.288 E.0176
G1 X118.466 Y109.026 E.02811
G1 X118.526 Y109.519 E.01888
G1 X118.713 Y109.919 E.01678
G1 X118.982 Y110.107 E.01247
G1 X119.299 Y110.137 E.0121
G1 X119.613 Y110.003 E.01298
G1 X119.815 Y109.676 E.01461
G1 X119.984 Y109.173 E.02017
;WIDTH:0.525916
G1 X120.026 Y109.137 E.00222
M204 P4000
G1 X120.426 Y109.128 F18000
G1 X119.651 Y108.789
M204 P500
;TYPE:Perimeter
;WIDTH:0.611601
G1 F2400
G2 X119.471 Y109.083 I.477 J.494 E.01648
G1 X119.268 Y109.607 E.02657
G1 X119.158 Y109.615 E.00522
G1 X119.037 Y109.401 E.01162
G1 X118.981 Y109.011 E.01863
G1 X119.021 Y108.397 E.0291
G1 X119.137 Y108.18 E.01164
G1 X119.33 Y108.183 E.00913
G1 X119.522 Y108.652 E.02396
G1 X119.609 Y108.745 E.00602
M204 P4000
G1 X120.708 Y108.781 F18000
M204 P500
;WIDTH:0.429457
G1 F2400
G2 X121.418 Y108.463 I-1.077 J-3.365 E.02505
G1 X121.399 Y108.587 E.00403
G1 X121.427 Y109.148 E.01805
G2 X120.763 Y108.803 I-2.119 J3.265 E.02409
M204 P4000
G1 E-.7 F2100
G1 X123.705 Y107.124 Z.259 F18000
G1 Z.2 F720
G1 E.7 F1500
M204 P500
;WIDTH:0.499999
G1 F2400
G1 X123.77 Y107.227 E.00463
G1 X123.949 Y106.946 E.01266
G1 X124.201 Y106.881 E.00989
G1 X124.99 Y106.939 E.03007
G1 X125.229 Y106.993 E.00931
G1 X125.124 Y106.355 E.02457
G1 X125.152 Y106.022 E.0127
G1 X125.298 Y105.778 E.01081
G1 X125.493 Y105.631 E.00928
G1 X125.759 Y105.559 E.01047
G3 X127.135 Y105.549 I.751 J8.385 E.05236
G1 X127.304 Y105.578 E.00652
G1 X127.56 Y105.722 E.01116
G1 X127.738 Y105.971 E.01163
G1 X127.789 Y106.202 E.00899
G1 X127.704 Y106.863 E.02533
G1 X128.156 Y106.823 E.01725
G1 X128.686 Y106.939 E.02062
G3 X129.226 Y107.24 I-.616 J1.741 E.02361
G1 X129.547 Y107.66 E.02009
G1 X129.582 Y107.661 E.00133
G1 X129.92 Y107.243 E.02043
G1 X130.351 Y106.981 E.01917
G1 X130.568 Y106.901 E.00879
G3 X131.326 Y106.795 I.867 J3.421 E.02915
G1 X131.912 Y106.871 E.02246
G1 X132.348 Y107.013 E.01743
G1 X133.089 Y107.534 E.03443
G1 X133.27 Y107.738 E.01037
G1 X133.568 Y108.279 E.02347
G1 X133.649 Y108.562 E.01119
;WIDTH:0.472326
G1 X133.729 Y108.845 E.0105
;WIDTH:0.444653
G1 X133.748 Y109.639 E.02653
;WIDTH:0.456174
G1 X133.717 Y109.807 E.00587
;WIDTH:0.487052
G1 X133.686 Y109.975 E.00631
;WIDTH:0.515537
G1 X133.585 Y110.175 E.00881
G1 X133.668 Y110.555 E.01529
;WIDTH:0.492475
G1 X133.625 Y110.811 E.0097
;WIDTH:0.499999
G3 X133.339 Y111.409 I-2.114 J-.646 E.02529
G1 X132.948 Y111.828 E.02178
G3 X132.228 Y112.22 I-2.171 J-3.13 E.03122
G3 X131.259 Y112.354 I-.95 J-3.305 E.03731
G1 X130.705 Y112.283 E.02123
G1 X130.196 Y112.093 E.02065
G1 X129.728 Y111.729 E.02253
M73 P2 R13
G1 X129.551 Y111.478 E.01167
G1 X129.382 Y111.722 E.01128
G1 X129.038 Y112.031 E.01757
G1 X128.745 Y112.179 E.01248
G1 X128.156 Y112.316 E.02298
G1 X127.625 Y112.258 E.0203
G1 X127.315 Y112.142 E.01258
G1 X127.172 Y112 E.00766
G3 X126.309 Y112.138 I-.962 J-3.265 E.03331
G1 X125.747 Y112.043 E.02166
G1 X125.688 Y111.97 E.00357
G1 X125.63 Y112.043 E.00354
G1 X125.068 Y112.138 E.02166
G1 X124.395 Y112.066 E.02572
G1 X124.227 Y112.007 E.00677
G1 X124.013 Y112.177 E.01039
