; G-Code generated by Simplify3D(R) Version 4.1.2
; Sep 14, 2023 at 9:28:35 AM
; Settings Summary
;   processName,Process1
;   applyToModels,20mm_calibration
;   profileName,Prusa Research Original Prusa i3 MK3 (modified)
;   profileVersion,2018-01-19 08:00:00
;   baseProfile,
;   printMaterial,PLA
;   printQuality,Medium
;   printExtruders,
;   extruderName,Primary Extruder
;   extruderToolheadNumber,0
;   extruderDiameter,0.4
;   extruderAutoWidth,0
;   extruderWidth,0.4
;   extrusionMultiplier,1
;   extruderUseRetract,1
;   extruderRetractionDistance,1
;   extruderExtraRestartDistance,0
;   extruderRetractionZLift,0
;   extruderRetractionSpeed,2400
;   extruderUseCoasting,1
;   extruderCoastingDistance,0.2
;   extruderUseWipe,1
;   extruderWipeDistance,2
;   primaryExtruder,0
;   layerHeight,0.2
;   topSolidLayers,3
;   bottomSolidLayers,3
;   perimeterOutlines,2
;   printPerimetersInsideOut,1
;   startPointOption,2
;   startPointOriginX,0
;   startPointOriginY,0
;   sequentialIslands,0
;   spiralVaseMode,0
;   firstLayerHeightPercentage,150
;   firstLayerWidthPercentage,100
;   firstLayerUnderspeed,0.5
;   useRaft,0
;   raftExtruder,0
;   raftTopLayers,3
;   raftBaseLayers,2
;   raftOffset,3
;   raftSeparationDistance,0.14
;   raftTopInfill,100
;   aboveRaftSpeedMultiplier,0.3
;   useSkirt,0
;   skirtExtruder,0
;   skirtLayers,1
;   skirtOutlines,2
;   skirtOffset,4
;   usePrimePillar,0
;   primePillarExtruder,999
;   primePillarWidth,12
;   primePillarLocation,7
;   primePillarSpeedMultiplier,1
;   useOozeShield,0
;   oozeShieldExtruder,999
;   oozeShieldOffset,2
;   oozeShieldOutlines,1
;   oozeShieldSidewallShape,1
;   oozeShieldSidewallAngle,30
;   oozeShieldSpeedMultiplier,1
;   infillExtruder,0
;   internalInfillPattern,Rectilinear
;   externalInfillPattern,Rectilinear
;   infillPercentage,20
;   outlineOverlapPercentage,20
;   infillExtrusionWidthPercentage,100
;   minInfillLength,5
;   infillLayerInterval,1
;   internalInfillAngles,45,-45
;   overlapInternalInfillAngles,0
;   externalInfillAngles,45,-45
;   generateSupport,0
;   supportExtruder,0
;   supportInfillPercentage,30
;   supportExtraInflation,0
;   supportBaseLayers,0
;   denseSupportExtruder,0
;   denseSupportLayers,0
;   denseSupportInfillPercentage,70
;   supportLayerInterval,1
;   supportHorizontalPartOffset,0.3
;   supportUpperSeparationLayers,1
;   supportLowerSeparationLayers,1
;   supportType,0
;   supportGridSpacing,4
;   maxOverhangAngle,45
;   supportAngles,0
;   temperatureName,Primary Extruder,Heated Bed
;   temperatureNumber,0,0
;   temperatureSetpointCount,1,1
;   temperatureSetpointLayers,1,1
;   temperatureSetpointTemperatures,200,60
;   temperatureStabilizeAtStartup,1,1
;   temperatureHeatedBed,0,1
;   fanLayers,1,2
;   fanSpeeds,0,100
;   blipFanToFullPower,0
;   adjustSpeedForCooling,1
;   minSpeedLayerTime,15
;   minCoolingSpeedSlowdown,20
;   increaseFanForCooling,0
;   minFanLayerTime,45
;   maxCoolingFanSpeed,100
;   increaseFanForBridging,0
;   bridgingFanSpeed,100
;   use5D,1
;   relativeEdistances,0
;   allowEaxisZeroing,1
;   independentExtruderAxes,0
;   includeM10123,0
;   stickySupport,1
;   applyToolheadOffsets,0
;   gcodeXoffset,0
;   gcodeYoffset,0
;   gcodeZoffset,0
;   overrideMachineDefinition,1
;   machineTypeOverride,0
;   strokeXoverride,250
;   strokeYoverride,210
;   strokeZoverride,210
;   originOffsetXoverride,0
;   originOffsetYoverride,0
;   originOffsetZoverride,0
;   homeXdirOverride,-1
;   homeYdirOverride,-1
;   homeZdirOverride,-1
;   flipXoverride,1
;   flipYoverride,-1
;   flipZoverride,1
;   toolheadOffsets,0,0|0,0|0,0|0,0|0,0|0,0
;   overrideFirmwareConfiguration,1
;   firmwareTypeOverride,RepRap (Marlin/Repetier/Sprinter)
;   GPXconfigOverride,r2
;   baudRateOverride,115200
;   overridePrinterModels,1
;   printerModelsOverride
;   startingGcode,M115 U3.0.7 ; use the latest firmware version,G28 W ; home all axes without mesh bed leveling,G80 ; run mesh bed leveling routine,G1 Y-3.0 F1000.0 ; prepare to prime,G92 E0 ; reset extrusion distance,G1 X60.0 E9.0  F1000.0 ; priming,G1 X100.0 E12.5  F1000.0 ; priming
;   layerChangeGcode,
;   retractionGcode,
;   toolChangeGcode,
;   endingGcode,G4 ; wait,M106 S0 ; turn off cooling fan,M104 S0 ; turn off extruder,M140 S0 ; turn off bed,G1 X0 Y200 ; part removal,M84 ; disable motors
;   exportFileFormat,gcode
;   celebration,0
;   celebrationSong,Random Song
;   postProcessing,
;   defaultSpeed,4800
;   outlineUnderspeed,0.5
;   solidInfillUnderspeed,0.8
;   supportUnderspeed,0.8
;   rapidXYspeed,12000
;   rapidZspeed,1000
;   minBridgingArea,50
;   bridgingExtraInflation,0
;   bridgingExtrusionMultiplier,1
;   bridgingSpeedMultiplier,1
;   useFixedBridgingAngle,0
;   fixedBridgingAngle,0
;   applyBridgingToPerimeters,0
;   filamentDiameters,1.75|1.75|1.75|1.75|1.75|1.75
;   filamentPricesPerKg,46|46|46|46|46|46
;   filamentDensities,1.25|1.25|1.25|1.25|1.25|1.25
;   useMinPrintHeight,0
;   minPrintHeight,0
;   useMaxPrintHeight,0
;   maxPrintHeight,0
;   useDiaphragm,0
;   diaphragmLayerInterval,20
;   robustSlicing,1
;   mergeAllIntoSolid,0
;   onlyRetractWhenCrossingOutline,1
;   retractBetweenLayers,1
;   useRetractionMinTravel,0
;   retractionMinTravel,3
;   retractWhileWiping,1
;   onlyWipeOutlines,1
;   avoidCrossingOutline,0
;   maxMovementDetourFactor,3
;   toolChangeRetractionDistance,12
;   toolChangeExtraRestartDistance,-0.5
;   toolChangeRetractionSpeed,600
;   externalThinWallType,0
;   internalThinWallType,2
;   thinWallAllowedOverlapPercentage,25
;   singleExtrusionMinLength,1
;   singleExtrusionMinPrintingWidthPercentage,50
;   singleExtrusionMaxPrintingWidthPercentage,200
;   singleExtrusionEndpointExtension,0.2
;   horizontalSizeCompensation,0
G90
M82
M106 S0
M140 S60
M190 S60
M104 S200 T0
M109 S200 T0
M115 U3.0.7 ; use the latest firmware version
G28 W ; home all axes without mesh bed leveling
G80 ; run mesh bed leveling routine
G1 Y-3.0 F1000.0 ; prepare to prime
G92 E0 ; reset extrusion distance
G1 X60.0 E9.0  F1000.0 ; priming
G1 X100.0 E12.5  F1000.0 ; priming
; process Process1
; layer 1, Z = 0.300
T0
G92 E0.0000
G1 E-1.0000 F2400
; feature inner perimeter
; tool H0.300 W0.400
G1 Z0.300 F1000
G1 X115.600 Y95.600 F12000
G1 E0.0000 F2400
G92 E0.0000
G1 X134.400 Y95.600 E0.9379 F1800
G1 X134.400 Y114.400 E1.8759
G1 X115.600 Y114.400 E2.8138
G1 X115.600 Y95.800 E3.7418
G1 X115.600 Y95.600 F1800
; feature outer perimeter
G1 X115.200 Y95.200 F12000
G92 E0.0000
G1 X134.800 Y95.200 E0.9778 F1200
G1 X134.800 Y114.800 E1.9557
G1 X115.200 Y114.800 E2.9335
G1 X115.200 Y95.400 E3.9014
G1 X115.200 Y95.200 F1200
G1 X117.200 Y95.200 F1200
; feature solid layer
G1 X134.022 Y95.920 F12000
G92 E0.0000
G1 X134.080 Y95.978 E0.0041 F1920
G1 X134.080 Y96.544 E0.0323
G1 X133.456 Y95.920 E0.0763
G1 X132.891 Y95.920 E0.1045
G1 X134.080 Y97.109 E0.1885
G1 X134.080 Y97.675 E0.2167
G1 X132.325 Y95.920 E0.3405
G1 X131.759 Y95.920 E0.3687
G1 X134.080 Y98.241 E0.5325
G1 X134.080 Y98.806 E0.5607
G1 X131.194 Y95.920 E0.7644
G1 X130.628 Y95.920 E0.7926
G1 X134.080 Y99.372 E1.0362
G1 X134.080 Y99.938 E1.0644
G1 X130.062 Y95.920 E1.3479
G1 X129.496 Y95.920 E1.3761
G1 X134.080 Y100.504 E1.6995
G1 X134.080 Y101.069 E1.7277
G1 X128.931 Y95.920 E2.0910
G1 X128.365 Y95.920 E2.1192
G1 X134.080 Y101.635 E2.5224
G1 X134.080 Y102.201 E2.5507
G1 X127.799 Y95.920 E2.9938
G1 X127.234 Y95.920 E3.0220
G1 X134.080 Y102.766 E3.5051
G1 X134.080 Y103.332 E3.5333
G1 X126.668 Y95.920 E4.0562
G1 X126.102 Y95.920 E4.0845
G1 X134.080 Y103.898 E4.6473
G1 X134.080 Y104.463 E4.6755
G1 X125.537 Y95.920 E5.2783
G1 X124.971 Y95.920 E5.3066
G1 X134.080 Y105.029 E5.9492
G1 X134.080 Y105.595 E5.9775
G1 X124.405 Y95.920 E6.6601
G1 X123.840 Y95.920 E6.6883
G1 X134.080 Y106.160 E7.4108
G1 X134.080 Y106.726 E7.4390
G1 X123.274 Y95.920 E8.2015
G1 X122.708 Y95.920 E8.2297
G1 X134.080 Y107.292 E9.0320
G1 X134.080 Y107.857 E9.0602
G1 X122.143 Y95.920 E9.9025
G1 X121.577 Y95.920 E9.9307
G1 X134.080 Y108.423 E10.8129
G1 X134.080 Y108.989 E10.8411
G1 X121.011 Y95.920 E11.7632
G1 X120.445 Y95.920 E11.7914
G1 X134.080 Y109.555 E12.7534
G1 X134.080 Y110.120 E12.7816
G1 X119.880 Y95.920 E13.7835
G1 X119.314 Y95.920 E13.8117
G1 X134.080 Y110.686 E14.8535
G1 X134.080 Y111.252 E14.8818
G1 X118.748 Y95.920 E15.9635
G1 X118.183 Y95.920 E15.9917
G1 X134.080 Y111.817 E17.1133
G1 X134.080 Y112.383 E17.1416
G1 X117.617 Y95.920 E18.3031
G1 X117.051 Y95.920 E18.3313
G1 X134.080 Y112.949 E19.5328
G1 X134.080 Y113.514 E19.5610
G1 X116.486 Y95.920 E20.8024
G1 X115.920 Y95.920 E20.8306
G1 X134.080 Y114.080 E22.1119
G1 X133.514 Y114.080 E22.1401
G1 X115.920 Y96.486 E23.3815
G1 X115.920 Y97.051 E23.4097
G1 X132.949 Y114.080 E24.6112
G1 X132.383 Y114.080 E24.6394
G1 X115.920 Y97.617 E25.8010
G1 X115.920 Y98.183 E25.8292
G1 X131.817 Y114.080 E26.9508
G1 X131.252 Y114.080 E26.9790
G1 X115.920 Y98.748 E28.0608
G1 X115.920 Y99.314 E28.0890
G1 X130.686 Y114.080 E29.1308
G1 X130.120 Y114.080 E29.1590
G1 X115.920 Y99.880 E30.1609
G1 X115.920 Y100.445 E30.1891
G1 X129.555 Y114.080 E31.1511
G1 X128.989 Y114.080 E31.1794
G1 X115.920 Y101.011 E32.1014
G1 X115.920 Y101.577 E32.1297
G1 X128.423 Y114.080 E33.0118
G1 X127.857 Y114.080 E33.0400
G1 X115.920 Y102.143 E33.8823
G1 X115.920 Y102.708 E33.9105
G1 X127.292 Y114.080 E34.7129
G1 X126.726 Y114.080 E34.7411
G1 X115.920 Y103.274 E35.5035
G1 X115.920 Y103.840 E35.5317
G1 X126.160 Y114.080 E36.2543
G1 X125.595 Y114.080 E36.2825
G1 X115.920 Y104.405 E36.9651
G1 X115.920 Y104.971 E36.9933
G1 X125.029 Y114.080 E37.6360
G1 X124.463 Y114.080 E37.6642
G1 X115.920 Y105.537 E38.2670
G1 X115.920 Y106.102 E38.2952
G1 X123.898 Y114.080 E38.8581
G1 X123.332 Y114.080 E38.8863
G1 X115.920 Y106.668 E39.4093
G1 X115.920 Y107.234 E39.4375
G1 X122.766 Y114.080 E39.9205
G1 X122.201 Y114.080 E39.9488
G1 X115.920 Y107.799 E40.3919
G1 X115.920 Y108.365 E40.4201
G1 X121.635 Y114.080 E40.8233
G1 X121.069 Y114.080 E40.8515
G1 X115.920 Y108.931 E41.2149
G1 X115.920 Y109.496 E41.2431
G1 X120.504 Y114.080 E41.5665
G1 X119.938 Y114.080 E41.5947
G1 X115.920 Y110.062 E41.8782
G1 X115.920 Y110.628 E41.9064
G1 X119.372 Y114.080 E42.1500
G1 X118.807 Y114.080 E42.1782
G1 X115.920 Y111.193 E42.3819
G1 X115.920 Y111.759 E42.4101
G1 X118.241 Y114.080 E42.5738
G1 X117.675 Y114.080 E42.6020
G1 X115.920 Y112.325 E42.7259
G1 X115.920 Y112.891 E42.7541
G1 X117.109 Y114.080 E42.8380
G1 X116.544 Y114.080 E42.8662
G1 X115.920 Y113.456 E42.9103
G1 X115.920 Y113.904 E42.9326
G1 X115.920 Y114.022 F1920
G1 X115.978 Y114.080
G92 E0.0000
G1 E-1.0000 F2400
; layer 2, Z = 0.500
M106 S255
; feature inner perimeter
; tool H0.200 W0.400
G1 Z0.500 F1000
G1 X115.600 Y114.400 F12000
G1 E0.0000 F2400
G92 E0.0000
G1 X115.600 Y95.600 E0.6253 F3600
G1 X134.400 Y95.600 E1.2506
G1 X134.400 Y114.400 E1.8759
G1 X115.800 Y114.400 E2.4945
G1 X115.600 Y114.400 F3600
; feature outer perimeter
G1 X115.200 Y114.800 F12000
G92 E0.0000
G1 X115.200 Y95.200 E0.6519 F2400
G1 X134.800 Y95.200 E1.3038
G1 X134.800 Y114.800 E1.9557
G1 X115.400 Y114.800 E2.6009
G1 X115.200 Y114.800 F2400
G1 X115.200 Y112.800 F2400
; feature solid layer
G1 X115.920 Y95.978 F12000
G92 E0.0000
G1 X115.978 Y95.920 E0.0027 F3840
G1 X116.544 Y95.920 E0.0215
G1 X115.920 Y96.544 E0.0509
G1 X115.920 Y97.109 E0.0697
G1 X117.109 Y95.920 E0.1257
G1 X117.675 Y95.920 E0.1445
G1 X115.920 Y97.675 E0.2270
G1 X115.920 Y98.241 E0.2458
G1 X118.241 Y95.920 E0.3550
G1 X118.807 Y95.920 E0.3738
G1 X115.920 Y98.807 E0.5096
G1 X115.920 Y99.372 E0.5284
G1 X119.372 Y95.920 E0.6908
G1 X119.938 Y95.920 E0.7096
G1 X115.920 Y99.938 E0.8986
G1 X115.920 Y100.504 E0.9174
G1 X120.504 Y95.920 E1.1330
G1 X121.069 Y95.920 E1.1518
G1 X115.920 Y101.069 E1.3940
G1 X115.920 Y101.635 E1.4128
G1 X121.635 Y95.920 E1.6817
G1 X122.201 Y95.920 E1.7005
G1 X115.920 Y102.201 E1.9959
G1 X115.920 Y102.766 E2.0147
G1 X122.766 Y95.920 E2.3367
G1 X123.332 Y95.920 E2.3556
G1 X115.920 Y103.332 E2.7042
G1 X115.920 Y103.898 E2.7230
G1 X123.898 Y95.920 E3.0983
G1 X124.463 Y95.920 E3.1171
G1 X115.920 Y104.463 E3.5189
G1 X115.920 Y105.029 E3.5377
G1 X125.029 Y95.920 E3.9662
G1 X125.595 Y95.920 E3.9850
G1 X115.920 Y105.595 E4.4401
G1 X115.920 Y106.160 E4.4589
G1 X126.160 Y95.920 E4.9406
G1 X126.726 Y95.920 E4.9594
G1 X115.920 Y106.726 E5.4677
G1 X115.920 Y107.292 E5.4865
G1 X127.292 Y95.920 E6.0214
G1 X127.857 Y95.920 E6.0402
G1 X115.920 Y107.857 E6.6017
G1 X115.920 Y108.423 E6.6205
G1 X128.423 Y95.920 E7.2086
G1 X128.989 Y95.920 E7.2274
G1 X115.920 Y108.989 E7.8422
G1 X115.920 Y109.555 E7.8610
G1 X129.555 Y95.920 E8.5023
G1 X130.120 Y95.920 E8.5211
G1 X115.920 Y110.120 E9.1891
G1 X115.920 Y110.686 E9.2079
G1 X130.686 Y95.920 E9.9024
G1 X131.252 Y95.920 E9.9212
G1 X115.920 Y111.252 E10.6424
G1 X115.920 Y111.817 E10.6612
G1 X131.817 Y95.920 E11.4090
G1 X132.383 Y95.920 E11.4278
G1 X115.920 Y112.383 E12.2021
G1 X115.920 Y112.949 E12.2210
G1 X132.949 Y95.920 E13.0219
G1 X133.514 Y95.920 E13.0407
G1 X115.920 Y113.514 E13.8683
G1 X115.920 Y114.080 E13.8871
G1 X134.080 Y95.920 E14.7413
G1 X134.080 Y96.486 E14.7601
G1 X116.486 Y114.080 E15.5877
G1 X117.051 Y114.080 E15.6065
G1 X134.080 Y97.051 E16.4075
G1 X134.080 Y97.617 E16.4263
G1 X117.617 Y114.080 E17.2007
G1 X118.183 Y114.080 E17.2195
G1 X134.080 Y98.183 E17.9673
G1 X134.080 Y98.748 E17.9861
G1 X118.748 Y114.080 E18.7072
G1 X119.314 Y114.080 E18.7260
G1 X134.080 Y99.314 E19.4206
G1 X134.080 Y99.880 E19.4394
G1 X119.880 Y114.080 E20.1073
G1 X120.446 Y114.080 E20.1261
G1 X134.080 Y100.446 E20.7675
G1 X134.080 Y101.011 E20.7863
G1 X121.011 Y114.080 E21.4010
G1 X121.577 Y114.080 E21.4198
G1 X134.080 Y101.577 E22.0079
G1 X134.080 Y102.143 E22.0267
G1 X122.143 Y114.080 E22.5882
G1 X122.708 Y114.080 E22.6071
G1 X134.080 Y102.708 E23.1419
G1 X134.080 Y103.274 E23.1608
G1 X123.274 Y114.080 E23.6690
G1 X123.840 Y114.080 E23.6879
G1 X134.080 Y103.840 E24.1695
G1 X134.080 Y104.405 E24.1884
G1 X124.405 Y114.080 E24.6434
G1 X124.971 Y114.080 E24.6622
G1 X134.080 Y104.971 E25.0907
G1 X134.080 Y105.537 E25.1095
G1 X125.537 Y114.080 E25.5114
G1 X126.102 Y114.080 E25.5302
G1 X134.080 Y106.102 E25.9054
G1 X134.080 Y106.668 E25.9242
G1 X126.668 Y114.080 E26.2729
G1 X127.234 Y114.080 E26.2917
G1 X134.080 Y107.234 E26.6137
G1 X134.080 Y107.799 E26.6325
G1 X127.799 Y114.080 E26.9279
G1 X128.365 Y114.080 E26.9468
G1 X134.080 Y108.365 E27.2156
G1 X134.080 Y108.931 E27.2344
G1 X128.931 Y114.080 E27.4766
G1 X129.496 Y114.080 E27.4954
G1 X134.080 Y109.496 E27.7110
G1 X134.080 Y110.062 E27.7298
G1 X130.062 Y114.080 E27.9188
G1 X130.628 Y114.080 E27.9376
G1 X134.080 Y110.628 E28.1000
G1 X134.080 Y111.194 E28.1188
G1 X131.194 Y114.080 E28.2546
G1 X131.759 Y114.080 E28.2734
G1 X134.080 Y111.759 E28.3826
G1 X134.080 Y112.325 E28.4014
G1 X132.325 Y114.080 E28.4839
G1 X132.891 Y114.080 E28.5027
G1 X134.080 Y112.891 E28.5587
G1 X134.080 Y113.456 E28.5775
G1 X133.456 Y114.080 E28.6068
G1 X133.904 Y114.080 E28.6217
G1 X134.022 Y114.080 F3840
G1 X134.080 Y114.022
G92 E0.0000
G1 E-1.0000 F2400
; layer 3, Z = 0.700
; feature inner perimeter
G1 Z0.700 F1000
G1 X134.400 Y114.400 F12000
G1 E0.0000 F2400
G92 E0.0000
G1 X115.600 Y114.400 E0.6253 F3600
G1 X115.600 Y95.600 E1.2506
G1 X134.400 Y95.600 E1.8759
G1 X134.400 Y114.200 E2.4945
G1 X134.400 Y114.400 F3600
; feature outer perimeter
G1 X134.800 Y114.800 F12000
G92 E0.0000
G1 X115.200 Y114.800 E0.6519 F2400
G1 X115.200 Y95.200 E1.3038
G1 X134.800 Y95.200 E1.9557
G1 X134.800 Y114.600 E2.6009
G1 X134.800 Y114.800 F2400
