;FLAVOR:Marlin
;TIME:2333
;Filament used: 2.01969m
;Layer height: 0.2
;MINX:74.007
;MINY:74.007
;MINZ:0.2
;MAXX:145.993
;MAXY:145.992
;MAXZ:5.6
;Generated with Cura_SteamEngine 5.2.1
M82 ;absolute extrusion mode
; Ender 3 Custom Start G-code
G92 E0 ; Reset Extruder
G28 ; Home all axes
G29 ; ABL
M104 S175 ; Start heating up the nozzle most of the way
M190 S60 ; Start heating the bed, wait until target temperature reached
M109 S200 ; Finish heating the nozzle
G1 Z2.0 F3000 ; Move Z Axis up little to prevent scratching of Heat Bed
G1 X0.1 Y20 Z0.3 F5000.0 ; Move to start position
G1 X0.1 Y200.0 Z0.3 F1500.0 E15 ; Draw the first line
G1 X0.4 Y200.0 Z0.3 F5000.0 ; Move to side a little
G1 X0.4 Y20 Z0.3 F1500.0 E30 ; Draw the second line
G92 E0 ; Reset Extruder
G1 Z2.0 F3000 ; Move Z Axis up little to prevent scratching of Heat Bed
G1 X5 Y20 Z0.3 F5000.0 ; Move over to prevent blob squish
G92 E0
G92 E0
G1 F1500 E-6.5
;LAYER_COUNT:28
;LAYER:0
M107
G0 F6000 X84.71 Y84.386 Z0.2
;TYPE:SKIRT
G1 F1500 E0
G1 F1200 X85.256 Y83.859 E0.02524
G1 X85.911 Y83.254 E0.0549
G1 X86.641 Y82.614 E0.08719
G1 X87.422 Y81.966 E0.12094
G1 X88.007 Y81.503 E0.14575
G1 X88.58 Y81.069 E0.16966
G1 X89.585 Y80.353 E0.2107
G1 X90.488 Y79.75 E0.24682
G1 X90.863 Y79.511 E0.26161
G1 X91.864 Y78.904 E0.30054
G1 X92.438 Y78.576 E0.32253
G1 X93.35 Y78.081 E0.35705
G1 X93.964 Y77.769 E0.37995
G1 X94.677 Y77.424 E0.4063
G1 X95.386 Y77.099 E0.43224
G1 X96.428 Y76.656 E0.4699
G1 X97.089 Y76.393 E0.49356
G1 X97.841 Y76.114 E0.52024
G1 X99.032 Y75.71 E0.56207
G1 X99.511 Y75.561 E0.57875
G1 X100.515 Y75.272 E0.6135
G1 X101.207 Y75.09 E0.6373
G1 X102.493 Y74.792 E0.6812
G1 X103.077 Y74.673 E0.70103
G1 X103.933 Y74.518 E0.72996
G1 X104.767 Y74.386 E0.75804
G1 X105.807 Y74.25 E0.79293
G1 X106.696 Y74.157 E0.82266
G1 X107.843 Y74.07 E0.86092
G1 X108.701 Y74.03 E0.88949
G1 X109.709 Y74.007 E0.92302
G1 X110.313 Y74.007 E0.94311
G1 X111.175 Y74.024 E0.97179
G1 X112.359 Y74.082 E1.01121
G1 X113.195 Y74.146 E1.0391
G1 X113.825 Y74.207 E1.06015
G1 X114.592 Y74.297 E1.08584
G1 X116.01 Y74.507 E1.13352
G1 X116.735 Y74.637 E1.15801
G1 X117.456 Y74.782 E1.18247
G1 X118.233 Y74.954 E1.20894
G1 X119.197 Y75.195 E1.24199
G1 X120.014 Y75.421 E1.27019
G1 X120.902 Y75.69 E1.30105
G1 X121.588 Y75.915 E1.32506
G1 X122.51 Y76.243 E1.35761
G1 X123.39 Y76.582 E1.38897
G1 X124.11 Y76.879 E1.41488
G1 X125.181 Y77.357 E1.45389
G1 X125.917 Y77.71 E1.48104
G1 X126.547 Y78.028 E1.50451
G1 X127.472 Y78.525 E1.53943
G1 X128.305 Y79.003 E1.57138
G1 X128.961 Y79.401 E1.5969
G1 X129.809 Y79.942 E1.63035
G1 X130.212 Y80.212 E1.64649
G1 X131.168 Y80.886 E1.68539
G1 X131.681 Y81.266 E1.70662
G1 X132.613 Y81.994 E1.74596
G1 X133.243 Y82.515 E1.77315
G1 X133.886 Y83.072 E1.80144
G1 X134.462 Y83.595 E1.82732
G1 X134.99 Y84.094 E1.85148
G1 X135.604 Y84.701 E1.8802
G1 X136.151 Y85.267 E1.90638
G1 X136.745 Y85.911 E1.93552
G1 X137.379 Y86.633 E1.96748
G1 X138.039 Y87.428 E2.00184
G1 X138.503 Y88.015 E2.02673
G1 X138.924 Y88.571 E2.04993
G1 X139.437 Y89.283 E2.07911
G1 X140.235 Y90.465 E2.12655
G1 X140.482 Y90.85 E2.14176
G1 X140.962 Y91.636 E2.17239
G1 X141.432 Y92.451 E2.20369
G1 X141.777 Y93.084 E2.22766
G1 X142.229 Y93.961 E2.26048
G1 X142.696 Y94.932 E2.29632
G1 X143.029 Y95.676 E2.32343
G1 X143.338 Y96.413 E2.35001
G1 X143.622 Y97.132 E2.37572
G1 X143.877 Y97.816 E2.4
G1 X144.29 Y99.033 E2.44274
G1 X144.438 Y99.509 E2.45932
G1 X144.801 Y100.784 E2.50341
G1 X144.974 Y101.469 E2.52691
G1 X145.207 Y102.49 E2.56174
G1 X145.326 Y103.073 E2.58154
G1 X145.482 Y103.933 E2.61061
G1 X145.655 Y105.06 E2.64853
G1 X145.782 Y106.089 E2.68301
G1 X145.866 Y106.951 E2.71182
G1 X145.912 Y107.549 E2.73177
G1 X145.96 Y108.44 E2.76145
G1 X145.989 Y109.418 E2.79399
G1 X145.993 Y110.314 E2.82379
G1 X145.976 Y111.176 E2.85247
G1 X145.918 Y112.358 E2.89183
G1 X145.854 Y113.198 E2.91985
G1 X145.793 Y113.827 E2.94086
G1 X145.664 Y114.882 E2.97622
G1 X145.491 Y116.022 E3.01457
G1 X145.364 Y116.726 E3.03836
G1 X145.214 Y117.474 E3.06373
G1 X144.988 Y118.473 E3.0978
G1 X144.739 Y119.443 E3.13111
G1 X144.508 Y120.258 E3.15928
G1 X144.243 Y121.114 E3.18909
G1 X144.07 Y121.633 E3.20728
G1 X143.758 Y122.507 E3.23815
G1 X143.418 Y123.39 E3.26962
G1 X143.121 Y124.11 E3.29552
G1 X142.651 Y125.164 E3.33391
G1 X142.414 Y125.665 E3.35234
G1 X141.969 Y126.553 E3.38538
G1 X141.477 Y127.467 E3.4199
G1 X141.005 Y128.29 E3.45146
G1 X140.571 Y129.004 E3.47925
G1 X140.088 Y129.761 E3.50911
G1 X139.777 Y130.228 E3.52778
G1 X139.267 Y130.956 E3.55734
G1 X138.556 Y131.915 E3.59705
G1 X138.126 Y132.463 E3.62021
G1 X137.441 Y133.295 E3.65606
G1 X136.863 Y133.961 E3.68539
G1 X136.612 Y134.239 E3.69785
G1 X135.694 Y135.207 E3.74222
G1 X135.079 Y135.819 E3.77107
G1 X134.563 Y136.31 E3.79476
G1 X134.044 Y136.786 E3.81819
G1 X133.411 Y137.341 E3.84619
G1 X132.565 Y138.044 E3.88277
G1 X131.798 Y138.647 E3.91522
G1 X131.395 Y138.949 E3.93197
G1 X130.716 Y139.438 E3.9598
G1 X129.517 Y140.246 E4.00789
G1 X129.141 Y140.486 E4.02273
G1 X128.136 Y141.096 E4.06183
G1 X127.561 Y141.425 E4.08386
G1 X126.693 Y141.896 E4.11671
G1 X126.171 Y142.164 E4.13623
G1 X125.385 Y142.547 E4.16531
G1 X124.533 Y142.936 E4.19646
G1 X123.848 Y143.23 E4.22125
G1 X122.888 Y143.615 E4.25565
G1 X122.164 Y143.885 E4.28135
G1 X120.968 Y144.29 E4.32335
G1 X120.489 Y144.439 E4.34004
G1 X119.485 Y144.728 E4.37479
G1 X118.793 Y144.91 E4.39858
G1 X117.507 Y145.208 E4.44249
G1 X116.923 Y145.327 E4.46231
G1 X116.067 Y145.482 E4.49125
G1 X115.18 Y145.622 E4.52111
G1 X114.275 Y145.741 E4.55147
G1 X113.311 Y145.842 E4.58371
G1 X112.473 Y145.91 E4.61168
G1 X111.48 Y145.963 E4.64475
G1 X110.348 Y145.992 E4.68241
G1 X109.446 Y145.99 E4.71241
G1 X108.506 Y145.964 E4.74369
G1 X107.641 Y145.918 E4.7725
G1 X106.805 Y145.854 E4.80039
G1 X106.175 Y145.793 E4.82144
G1 X105.408 Y145.703 E4.84712
G1 X103.99 Y145.493 E4.8948
G1 X103.265 Y145.363 E4.9193
G1 X102.544 Y145.218 E4.94376
G1 X101.767 Y145.046 E4.97023
G1 X100.803 Y144.805 E5.00328
G1 X99.739 Y144.507 E5.04003
G1 X98.894 Y144.245 E5.06945
G1 X98.374 Y144.072 E5.08768
G1 X97.493 Y143.758 E5.11879
G1 X96.61 Y143.418 E5.15026
G1 X95.877 Y143.115 E5.17664
G1 X95.045 Y142.747 E5.2069
G1 X94.333 Y142.412 E5.23307
G1 X93.467 Y141.979 E5.26527
G1 X92.528 Y141.475 E5.30072
G1 X91.935 Y141.138 E5.32341
G1 X91.257 Y140.734 E5.34966
G1 X90.211 Y140.071 E5.39085
G1 X89.538 Y139.616 E5.41786
G1 X88.82 Y139.105 E5.44718
G1 X88.317 Y138.732 E5.468
G1 X87.616 Y138.189 E5.4975
G1 X86.942 Y137.64 E5.52641
G1 X86.128 Y136.94 E5.56212
G1 X85.486 Y136.356 E5.59098
G1 X84.803 Y135.704 E5.62239
G1 X84.21 Y135.108 E5.65035
G1 X83.681 Y134.554 E5.67583
G1 X83.2 Y134.029 E5.69951
G1 X82.656 Y133.408 E5.72697
G1 X81.965 Y132.576 E5.76294
G1 X81.372 Y131.821 E5.79487
G1 X80.84 Y131.107 E5.82449
G1 X80.395 Y130.475 E5.8502
G1 X79.756 Y129.52 E5.88841
G1 X79.512 Y129.139 E5.90346
G1 X78.896 Y128.125 E5.94292
G1 X78.718 Y127.816 E5.95478
G1 X78.222 Y126.915 E5.98899
G1 X77.872 Y126.243 E6.01419
G1 X77.435 Y125.347 E6.04735
G1 X76.974 Y124.33 E6.08449
G1 X76.771 Y123.853 E6.10173
G1 X76.382 Y122.88 E6.13658
G1 X76.115 Y122.164 E6.162
G1 X75.796 Y121.23 E6.19483
G1 X75.561 Y120.491 E6.22062
G1 X75.227 Y119.316 E6.26125
G1 X75.012 Y118.472 E6.29021
G1 X74.796 Y117.522 E6.32262
G1 X74.676 Y116.937 E6.34248
G1 X74.518 Y116.067 E6.37189
G1 X74.345 Y114.938 E6.40988
G1 X74.218 Y113.91 E6.44433
G1 X74.134 Y113.048 E6.47314
G1 X74.088 Y112.45 E6.49309
G1 X74.04 Y111.561 E6.5227
G1 X74.011 Y110.583 E6.55524
G1 X74.007 Y109.687 E6.58504
G1 X74.035 Y108.524 E6.62373
G1 X74.082 Y107.642 E6.65311
G1 X74.146 Y106.802 E6.68113
G1 X74.207 Y106.173 E6.70215
G1 X74.296 Y105.415 E6.72753
G1 X74.506 Y104.002 E6.77505
G1 X74.638 Y103.265 E6.79995
G1 X74.79 Y102.504 E6.82576
G1 X74.949 Y101.789 E6.85012
G1 X75.259 Y100.565 E6.89212
G1 X75.515 Y99.665 E6.92324
G1 X75.68 Y99.127 E6.94196
G1 X75.918 Y98.402 E6.96733
G1 X76.244 Y97.487 E6.99964
G1 X76.582 Y96.61 E7.0309
G1 X76.879 Y95.89 E7.05681
G1 X77.357 Y94.818 E7.09585
G1 X77.593 Y94.321 E7.11414
G1 X78.02 Y93.469 E7.14584
G1 X78.544 Y92.493 E7.18269
G1 X78.883 Y91.897 E7.20549
G1 X79.255 Y91.274 E7.22963
G1 X79.942 Y90.191 E7.27228
G1 X80.212 Y89.788 E7.28842
G1 X80.743 Y89.031 E7.31917
G1 X81.447 Y88.081 E7.3585
G1 X81.883 Y87.526 E7.38197
G1 X82.573 Y86.688 E7.41808
G1 X82.892 Y86.317 E7.43435
G1 X83.42 Y85.728 E7.46066
G1 X84.093 Y85.011 E7.49337
G1 X84.71 Y84.386 E7.52258
G0 F6000 X85.156 Y84.509
G1 F1200 X85.71 Y83.981 E7.54803
G1 X86.181 Y83.549 E7.56929
G1 X87.101 Y82.748 E7.60986
G1 X87.671 Y82.279 E7.63441
G1 X88.256 Y81.816 E7.65923
G1 X88.819 Y81.39 E7.68271
G1 X89.807 Y80.686 E7.72306
G1 X90.71 Y80.083 E7.75917
G1 X91.072 Y79.852 E7.77346
G1 X92.064 Y79.25 E7.81205
G1 X92.63 Y78.927 E7.83372
G1 X93.533 Y78.437 E7.8679
G1 X94.138 Y78.129 E7.89048
G1 X94.851 Y77.784 E7.91682
G1 X95.774 Y77.366 E7.95052
G1 X96.576 Y77.028 E7.97947
G1 X97.511 Y76.66 E8.01289
G1 X98.222 Y76.403 E8.03803
G1 X98.898 Y76.174 E8.06177
G1 X99.63 Y75.943 E8.0873
G1 X100.884 Y75.586 E8.13067
G1 X101.556 Y75.416 E8.15372
G1 X102.293 Y75.245 E8.17889
G1 X103.157 Y75.065 E8.20824
G1 X104.24 Y74.872 E8.24483
G1 X105.115 Y74.741 E8.27425
G1 X106.129 Y74.616 E8.30824
G1 X106.982 Y74.533 E8.33674
G1 X107.863 Y74.469 E8.36612
G1 X108.462 Y74.439 E8.38607
G1 X109.428 Y74.411 E8.41821
G1 X110.313 Y74.407 E8.44765
G1 X111.456 Y74.434 E8.48567
G1 X112.092 Y74.466 E8.50685
G1 X112.906 Y74.523 E8.53399
G1 X113.787 Y74.605 E8.56342
G1 X114.544 Y74.694 E8.58877
G1 X115.672 Y74.857 E8.62668
G1 X116.388 Y74.979 E8.65084
G1 X117.377 Y75.174 E8.68437
G1 X118.145 Y75.344 E8.71053
G1 X119.335 Y75.646 E8.75136
G1 X120.155 Y75.879 E8.77972
G1 X120.784 Y76.072 E8.8016
G1 X121.462 Y76.295 E8.82534
G1 X122.375 Y76.62 E8.85757
G1 X123.466 Y77.044 E8.8965
G1 X124.212 Y77.359 E8.92343
G1 X125.01 Y77.719 E8.95255
G1 X125.736 Y78.067 E8.97933
G1 X126.62 Y78.518 E9.01234
G1 X127.274 Y78.873 E9.03709
G1 X128.099 Y79.346 E9.06872
G1 X128.747 Y79.739 E9.09392
G1 X129.358 Y80.126 E9.11798
G1 X129.989 Y80.545 E9.14317
G1 X130.724 Y81.059 E9.173
G1 X131.442 Y81.587 E9.20264
G1 X132.147 Y82.133 E9.2323
G1 X132.982 Y82.818 E9.26822
G1 X133.618 Y83.369 E9.29621
G1 X134.187 Y83.886 E9.32178
G1 X134.715 Y84.385 E9.34595
G1 X135.322 Y84.984 E9.37431
G1 X136.017 Y85.709 E9.40771
G1 X136.627 Y86.379 E9.43785
G1 X137.252 Y87.101 E9.46961
G1 X137.725 Y87.676 E9.49438
G1 X138.189 Y88.263 E9.51926
G1 X138.604 Y88.811 E9.54213
G1 X139.308 Y89.798 E9.58245
G1 X139.903 Y90.687 E9.61803
G1 X140.14 Y91.058 E9.63267
G1 X140.763 Y92.084 E9.67259
G1 X140.962 Y92.43 E9.68587
G1 X141.541 Y93.493 E9.72613
G1 X141.869 Y94.136 E9.75014
G1 X142.332 Y95.097 E9.78562
G1 X142.567 Y95.618 E9.80463
G1 X142.864 Y96.311 E9.8297
G1 X143.25 Y97.279 E9.86436
G1 X143.597 Y98.222 E9.89778
G1 X143.908 Y99.152 E9.9304
G1 X144.128 Y99.868 E9.95531
G1 X144.343 Y100.622 E9.98139
G1 X144.523 Y101.307 E10.00495
G1 X144.755 Y102.297 E10.03877
G1 X144.934 Y103.153 E10.06785
G1 X145.088 Y104.003 E10.09659
G1 X145.219 Y104.832 E10.1245
G1 X145.384 Y106.129 E10.16799
G1 X145.467 Y106.982 E10.19649
G1 X145.531 Y107.862 E10.22584
G1 X145.561 Y108.46 E10.24575
G1 X145.589 Y109.429 E10.27799
G1 X145.593 Y110.314 E10.30743
G1 X145.576 Y111.167 E10.33581
G1 X145.534 Y112.092 E10.3666
G1 X145.456 Y113.159 E10.40219
G1 X145.395 Y113.788 E10.42321
G1 X145.306 Y114.543 E10.44849
G1 X145.097 Y115.953 E10.4959
G1 X144.972 Y116.647 E10.51935
G1 X144.822 Y117.395 E10.54473
G1 X144.601 Y118.375 E10.57814
G1 X144.423 Y119.078 E10.60226
G1 X144.196 Y119.899 E10.63059
G1 X143.863 Y120.987 E10.66844
G1 X143.608 Y121.743 E10.69497
G1 X143.283 Y122.635 E10.72655
G1 X142.956 Y123.466 E10.75625
G1 X142.639 Y124.217 E10.78336
G1 X142.289 Y124.993 E10.81168
G1 X141.93 Y125.744 E10.83936
G1 X141.612 Y126.373 E10.8628
G1 X141.129 Y127.27 E10.89669
G1 X140.663 Y128.084 E10.92789
G1 X140.234 Y128.79 E10.95536
G1 X139.881 Y129.346 E10.97727
G1 X139.273 Y130.255 E11.01364
G1 X138.809 Y130.907 E11.04026
G1 X138.393 Y131.469 E11.06351
G1 X137.974 Y132.012 E11.08632
G1 X137.325 Y132.811 E11.12056
G1 X136.566 Y133.693 E11.15926
G1 X136.315 Y133.971 E11.17172
G1 X135.411 Y134.925 E11.21543
G1 X134.979 Y135.358 E11.23578
G1 X134.456 Y135.862 E11.25994
G1 X133.774 Y136.491 E11.29079
G1 X133.149 Y137.039 E11.31844
G1 X132.514 Y137.57 E11.34597
G1 X131.783 Y138.153 E11.37707
G1 X131.155 Y138.629 E11.40328
G1 X130.196 Y139.312 E11.44244
G1 X129.295 Y139.914 E11.47848
G1 X128.933 Y140.145 E11.49276
G1 X127.936 Y140.75 E11.53155
G1 X127.369 Y141.074 E11.55327
G1 X126.51 Y141.54 E11.58577
G1 X125.763 Y141.92 E11.61365
G1 X124.958 Y142.306 E11.64334
G1 X124.369 Y142.572 E11.66484
G1 X123.692 Y142.862 E11.68933
G1 X122.476 Y143.344 E11.73284
G1 X121.778 Y143.597 E11.75753
G1 X121.102 Y143.826 E11.78127
G1 X120.37 Y144.057 E11.8068
G1 X119.116 Y144.414 E11.85017
G1 X118.444 Y144.584 E11.87322
G1 X117.707 Y144.755 E11.89839
G1 X116.843 Y144.935 E11.92774
G1 X115.76 Y145.128 E11.96433
G1 X115.119 Y145.227 E11.9859
G1 X114.225 Y145.344 E12.01589
G1 X113.27 Y145.444 E12.04783
G1 X112.443 Y145.511 E12.07542
G1 X111.46 Y145.563 E12.10816
G1 X110.607 Y145.588 E12.13655
G1 X109.719 Y145.593 E12.16608
G1 X108.811 Y145.575 E12.19629
G1 X107.909 Y145.534 E12.22632
G1 X107.094 Y145.477 E12.25349
G1 X106.213 Y145.395 E12.28292
G1 X105.456 Y145.306 E12.30827
G1 X104.328 Y145.143 E12.34618
G1 X103.612 Y145.021 E12.37034
G1 X102.623 Y144.826 E12.40386
G1 X101.855 Y144.656 E12.43003
G1 X100.673 Y144.356 E12.47059
G1 X99.856 Y144.125 E12.49883
G1 X99.259 Y143.942 E12.51959
G1 X98.5 Y143.692 E12.54617
G1 X97.629 Y143.382 E12.57692
G1 X96.755 Y143.045 E12.60808
G1 X95.775 Y142.636 E12.6434
G1 X95.208 Y142.382 E12.66406
G1 X94.267 Y141.935 E12.69871
G1 X93.647 Y141.622 E12.72181
G1 X92.941 Y141.246 E12.74842
G1 X92.133 Y140.79 E12.77927
G1 X91.463 Y140.391 E12.80521
G1 X90.434 Y139.739 E12.84573
G1 X89.989 Y139.441 E12.86354
G1 X89.254 Y138.925 E12.89341
G1 X88.555 Y138.41 E12.92229
G1 X87.862 Y137.874 E12.95143
G1 X87.02 Y137.184 E12.98763
G1 X86.596 Y136.82 E13.00622
G1 X85.941 Y136.232 E13.0355
G1 X85.086 Y135.421 E13.07469
G1 X84.498 Y134.831 E13.1024
G1 X83.976 Y134.284 E13.12754
G1 X83.495 Y133.759 E13.15123
G1 X82.958 Y133.146 E13.17833
G1 X82.428 Y132.511 E13.20584
G1 X81.692 Y131.581 E13.24529
G1 X81.166 Y130.875 E13.27457
G1 X80.727 Y130.253 E13.29989
G1 X80.088 Y129.298 E13.33811
G1 X79.854 Y128.931 E13.35259
G1 X79.243 Y127.925 E13.39173
G1 X78.955 Y127.42 E13.41107
G1 X78.434 Y126.462 E13.44734
G1 X78.228 Y126.06 E13.46236
G1 X77.795 Y125.172 E13.49522
G1 X77.433 Y124.381 E13.52416
G1 X77.039 Y123.452 E13.55772
G1 X76.656 Y122.476 E13.59259
G1 X76.403 Y121.778 E13.61728
G1 X76.174 Y121.102 E13.64102
G1 X75.86 Y120.096 E13.67607
G1 X75.679 Y119.458 E13.69813
G1 X75.402 Y118.382 E13.73509
G1 X75.188 Y117.442 E13.76715
G1 X75.016 Y116.582 E13.79632
G1 X74.872 Y115.758 E13.82414
G1 X74.741 Y114.888 E13.85341
G1 X74.647 Y114.148 E13.87822
G1 X74.533 Y113.017 E13.91602
G1 X74.469 Y112.138 E13.94534
G1 X74.439 Y111.541 E13.96522
G1 X74.411 Y110.573 E13.99743
G1 X74.407 Y109.687 E14.0269
G1 X74.434 Y108.544 E14.06492
G1 X74.466 Y107.908 E14.0861
G1 X74.544 Y106.841 E14.12169
G1 X74.605 Y106.212 E14.14271
G1 X74.693 Y105.463 E14.16779
G1 X74.9 Y104.07 E14.21463
G1 X75.03 Y103.344 E14.23916
G1 X75.182 Y102.583 E14.26497
G1 X75.339 Y101.878 E14.28899
G1 X75.644 Y100.673 E14.33034
G1 X75.828 Y100.019 E14.35293
G1 X76.063 Y99.244 E14.37987
G1 X76.298 Y98.528 E14.40493
G1 X76.621 Y97.622 E14.43692
G1 X77.044 Y96.534 E14.47575
G1 X77.356 Y95.794 E14.50246
G1 X77.616 Y95.212 E14.52366
G1 X77.955 Y94.492 E14.55013
G1 X78.377 Y93.649 E14.58148
G1 X78.892 Y92.691 E14.61766
G1 X79.231 Y92.095 E14.64047
G1 X79.598 Y91.48 E14.66429
G1 X80.275 Y90.414 E14.70629
G1 X80.691 Y89.799 E14.73098
G1 X81.212 Y89.065 E14.76092
G1 X81.762 Y88.327 E14.79153
G1 X82.193 Y87.779 E14.81472
G1 X82.877 Y86.949 E14.85049
G1 X83.36 Y86.391 E14.87504
G1 X83.717 Y85.995 E14.89277
G1 X84.384 Y85.286 E14.92515
