;FLAVOR:Marlin
;TIME:619
;Filament used: 0.145603m
;Layer height: 0.2
;MINX:89.587
;MINY:89.579
;MINZ:0.2
;MAXX:130.413
;MAXY:130.421
;MAXZ:9.4
;Generated with Cura_SteamEngine 5.2.1
M82 ;absolute extrusion mode
; Ender 3 Custom Start G-code
G92 E0 ; Reset Extruder
G28 ; Home all axes
; G29 ; ABL
M104 S175 ; Start heating up the nozzle most of the way
M190 S60 ; Start heating the bed, wait until target temperature reached
M109 S200 ; Finish heating the nozzle
G1 Z2.0 F3000 ; Move Z Axis up little to prevent scratching of Heat Bed
G1 X0.1 Y20 Z0.3 F5000.0 ; Move to start position
G1 X0.1 Y200.0 Z0.3 F1500.0 E15 ; Draw the first line
G1 X0.4 Y200.0 Z0.3 F5000.0 ; Move to side a little
G1 X0.4 Y20 Z0.3 F1500.0 E30 ; Draw the second line
G92 E0 ; Reset Extruder
G1 Z2.0 F3000 ; Move Z Axis up little to prevent scratching of Heat Bed
G1 X5 Y20 Z0.3 F5000.0 ; Move over to prevent blob squish
G92 E0
G92 E0
G1 F1500 E-6.5
;LAYER_COUNT:47
;LAYER:0
M107
G0 F6000 X99.193 Y94.039 Z0.2
;TYPE:SKIRT
G1 F1500 E0
G1 F1200 X100 Y93.199 E0.03874
G1 X100.678 Y92.551 E0.06994
G1 X101.408 Y91.963 E0.10111
G1 X102.186 Y91.44 E0.13229
G1 X103.006 Y90.984 E0.1635
G1 X103.862 Y90.601 E0.19469
G1 X104.747 Y90.291 E0.22588
G1 X105.768 Y90.035 E0.26089
G1 X106.411 Y89.906 E0.2827
G1 X107.168 Y89.778 E0.30824
G1 X107.851 Y89.693 E0.33113
G1 X108.308 Y89.651 E0.34639
G1 X108.917 Y89.612 E0.36669
G1 X109.608 Y89.587 E0.38969
G1 X110.191 Y89.579 E0.40908
G1 X110.759 Y89.591 E0.42798
G1 X111.181 Y89.611 E0.44203
G1 X111.739 Y89.652 E0.46064
G1 X112.287 Y89.706 E0.47895
G1 X112.863 Y89.778 E0.49826
G1 X113.29 Y89.843 E0.51262
G1 X113.821 Y89.937 E0.53056
G1 X114.26 Y90.026 E0.54546
G1 X115.17 Y90.252 E0.57664
G1 X116.058 Y90.554 E0.60784
G1 X116.917 Y90.93 E0.63903
G1 X117.741 Y91.379 E0.67024
G1 X118.523 Y91.896 E0.70142
G1 X119.259 Y92.478 E0.73263
G1 X120.13 Y93.317 E0.77285
G1 X121.018 Y94.273 E0.81625
G1 X122.789 Y96.124 E0.90145
G1 X124.593 Y97.906 E0.98579
G1 X126.691 Y99.866 E1.08128
G1 X127.348 Y100.534 E1.11245
G1 X127.946 Y101.257 E1.14365
G1 X128.481 Y102.028 E1.17487
G1 X128.948 Y102.841 E1.20605
G1 X129.343 Y103.691 E1.23723
G1 X129.665 Y104.572 E1.26842
G1 X129.943 Y105.624 E1.30461
G1 X130.039 Y106.077 E1.32002
G1 X130.178 Y106.879 E1.34709
G1 X130.282 Y107.646 E1.37283
G1 X130.357 Y108.387 E1.3976
G1 X130.385 Y108.804 E1.4115
G1 X130.41 Y109.502 E1.43473
G1 X130.413 Y110.34 E1.46261
G1 X130.386 Y111.148 E1.4895
G1 X130.342 Y111.776 E1.51043
G1 X130.251 Y112.612 E1.5384
G1 X130.137 Y113.385 E1.56439
G1 X129.99 Y114.178 E1.59122
G1 X129.927 Y114.46 E1.60083
G1 X129.684 Y115.366 E1.63203
G1 X129.364 Y116.248 E1.66323
G1 X128.971 Y117.099 E1.69441
G1 X128.506 Y117.914 E1.72562
G1 X127.974 Y118.686 E1.7568
G1 X127.378 Y119.41 E1.78799
G1 X126.719 Y120.083 E1.81932
G1 X124.497 Y122.168 E1.92067
G1 X122.726 Y123.923 E2.00359
G1 X120.846 Y125.92 E2.09481
G1 X119.995 Y126.805 E2.13565
G1 X119.317 Y127.453 E2.16684
G1 X118.586 Y128.041 E2.19805
G1 X117.807 Y128.564 E2.22925
G1 X116.987 Y129.019 E2.26044
G1 X116.131 Y129.402 E2.29164
G1 X115.246 Y129.711 E2.32281
G1 X114.22 Y129.968 E2.35799
G1 X113.579 Y130.096 E2.37973
G1 X112.832 Y130.222 E2.40493
G1 X112.149 Y130.307 E2.42782
G1 X111.692 Y130.349 E2.44308
G1 X111.083 Y130.388 E2.46338
G1 X110.392 Y130.413 E2.48638
G1 X109.807 Y130.421 E2.50584
G1 X109.237 Y130.409 E2.5248
G1 X108.817 Y130.389 E2.53879
G1 X108.261 Y130.348 E2.55733
G1 X107.713 Y130.294 E2.57564
G1 X107.137 Y130.222 E2.59495
G1 X106.71 Y130.157 E2.60932
G1 X106.208 Y130.068 E2.62627
G1 X105.753 Y129.977 E2.64171
G1 X104.842 Y129.754 E2.6729
G1 X103.953 Y129.455 E2.7041
G1 X103.093 Y129.08 E2.7353
G1 X102.268 Y128.634 E2.76649
G1 X101.484 Y128.119 E2.79769
G1 X100.747 Y127.539 E2.82889
G1 X99.788 Y126.609 E2.87332
G1 X99.317 Y126.094 E2.89653
G1 X97.547 Y124.214 E2.98241
G1 X95.791 Y122.455 E3.06508
G1 X94.199 Y120.961 E3.13769
G1 X93.188 Y119.99 E3.18432
G1 X92.54 Y119.312 E3.21551
G1 X91.952 Y118.582 E3.24669
G1 X91.429 Y117.804 E3.27787
G1 X90.973 Y116.984 E3.30907
G1 X90.59 Y116.128 E3.34026
G1 X90.28 Y115.243 E3.37145
G1 X90.043 Y114.315 E3.40331
G1 X89.956 Y113.9 E3.41741
G1 X89.831 Y113.188 E3.44145
G1 X89.746 Y112.589 E3.46158
G1 X89.672 Y111.96 E3.48264
G1 X89.611 Y111.137 E3.51009
G1 X89.59 Y110.498 E3.53136
G1 X89.587 Y109.657 E3.55933
G1 X89.614 Y108.842 E3.58645
G1 X89.659 Y108.206 E3.60766
G1 X89.752 Y107.363 E3.63586
G1 X89.866 Y106.597 E3.66162
G1 X90.01 Y105.822 E3.68784
G1 X90.072 Y105.544 E3.69731
G1 X90.315 Y104.638 E3.72851
G1 X90.634 Y103.756 E3.75971
G1 X91.027 Y102.904 E3.79091
G1 X91.492 Y102.09 E3.82209
G1 X92.024 Y101.317 E3.8533
G1 X92.62 Y100.593 E3.88449
G1 X93.283 Y99.915 E3.91603
G1 X95.506 Y97.83 E4.0174
G1 X97.273 Y96.079 E4.10014
G1 X99.193 Y94.039 E4.19332
G0 F6000 X99.481 Y94.316
G1 F1200 X100.288 Y93.476 E4.23206
G1 X100.954 Y92.841 E4.26267
G1 X101.673 Y92.265 E4.29331
G1 X102.439 Y91.754 E4.32394
G1 X103.246 Y91.312 E4.35454
G1 X104.089 Y90.941 E4.38517
G1 X104.96 Y90.645 E4.41577
G1 X105.847 Y90.427 E4.44615
G1 X106.49 Y90.298 E4.46796
G1 X107.23 Y90.173 E4.49292
G1 X107.888 Y90.091 E4.51498
G1 X108.345 Y90.049 E4.53024
G1 X108.932 Y90.012 E4.5498
G1 X109.623 Y89.987 E4.5728
G1 X110.192 Y89.979 E4.59173
G1 X110.74 Y89.991 E4.60996
G1 X111.162 Y90.011 E4.62401
G1 X111.699 Y90.05 E4.64192
G1 X112.247 Y90.104 E4.66023
G1 X112.803 Y90.174 E4.67887
G1 X113.23 Y90.239 E4.69324
G1 X113.741 Y90.329 E4.71049
G1 X114.18 Y90.418 E4.72539
G1 X115.074 Y90.64 E4.75603
G1 X115.945 Y90.939 E4.78666
G1 X116.786 Y91.312 E4.81726
G1 X117.592 Y91.757 E4.84788
G1 X118.357 Y92.27 E4.87852
G1 X119.074 Y92.847 E4.90913
G1 X119.837 Y93.589 E4.94453
G1 X120.719 Y94.538 E4.98762
G1 X122.519 Y96.42 E5.07423
G1 X124.303 Y98.182 E5.15763
G1 X126.418 Y100.158 E5.2539
G1 X127.063 Y100.815 E5.28452
G1 X127.648 Y101.525 E5.31512
G1 X128.17 Y102.284 E5.34576
G1 X128.623 Y103.085 E5.37637
G1 X129.006 Y103.923 E5.40701
G1 X129.314 Y104.79 E5.43761
G1 X129.552 Y105.706 E5.46909
G1 X129.648 Y106.159 E5.48449
G1 X129.782 Y106.933 E5.51062
G1 X129.886 Y107.7 E5.53636
G1 X129.958 Y108.414 E5.56023
G1 X129.986 Y108.831 E5.57413
G1 X130.01 Y109.503 E5.5965
G1 X130.013 Y110.341 E5.62437
G1 X129.987 Y111.12 E5.65029
G1 X129.943 Y111.748 E5.67123
G1 X129.856 Y112.554 E5.69819
G1 X129.742 Y113.327 E5.72418
G1 X129.6 Y114.091 E5.75003
G1 X129.537 Y114.373 E5.75964
G1 X129.297 Y115.262 E5.79027
G1 X128.982 Y116.127 E5.82088
G1 X128.592 Y116.961 E5.85151
G1 X128.131 Y117.758 E5.88213
G1 X127.603 Y118.512 E5.91275
G1 X127.012 Y119.218 E5.94337
G1 X126.445 Y119.792 E5.9702
G1 X124.224 Y121.876 E6.0715
G1 X122.436 Y123.648 E6.15523
G1 X120.558 Y125.643 E6.24636
G1 X119.707 Y126.528 E6.28719
G1 X119.04 Y127.163 E6.31782
G1 X118.321 Y127.738 E6.34844
G1 X117.555 Y128.249 E6.37907
G1 X116.748 Y128.691 E6.40967
G1 X115.905 Y129.061 E6.44029
G1 X115.033 Y129.357 E6.47092
G1 X114.142 Y129.576 E6.50144
G1 X113.501 Y129.704 E6.52318
G1 X112.77 Y129.827 E6.54783
G1 X112.112 Y129.909 E6.56989
G1 X111.655 Y129.951 E6.58515
G1 X111.068 Y129.988 E6.60471
G1 X110.377 Y130.013 E6.62771
G1 X109.805 Y130.021 E6.64674
G1 X109.256 Y130.009 E6.665
G1 X108.836 Y129.989 E6.67899
G1 X108.301 Y129.95 E6.69683
G1 X107.753 Y129.896 E6.71514
G1 X107.197 Y129.826 E6.73378
G1 X106.77 Y129.761 E6.74815
G1 X106.286 Y129.676 E6.76449
G1 X105.831 Y129.585 E6.77993
G1 X104.937 Y129.366 E6.81054
G1 X104.065 Y129.069 E6.84118
G1 X103.223 Y128.698 E6.87178
G1 X102.415 Y128.256 E6.90241
G1 X101.65 Y127.745 E6.93301
G1 X100.931 Y127.169 E6.96365
G1 X100.083 Y126.34 E7.0031
G1 X99.59 Y125.8 E7.02742
G1 X97.838 Y123.941 E7.11238
G1 X96.05 Y122.148 E7.1966
G1 X94.381 Y120.582 E7.27272
G1 X93.465 Y119.702 E7.31497
G1 X92.83 Y119.036 E7.34557
G1 X92.254 Y118.317 E7.37622
G1 X91.744 Y117.551 E7.40682
G1 X91.301 Y116.744 E7.43744
G1 X90.93 Y115.901 E7.46808
G1 X90.634 Y115.03 E7.49867
G1 X90.435 Y114.233 E7.52599
G1 X90.348 Y113.818 E7.5401
G1 X90.227 Y113.132 E7.56327
G1 X90.142 Y112.533 E7.58339
G1 X90.07 Y111.918 E7.60398
G1 X90.01 Y111.112 E7.63087
G1 X89.99 Y110.497 E7.65133
G1 X89.987 Y109.656 E7.6793
G1 X90.013 Y108.87 E7.70546
G1 X90.058 Y108.234 E7.72667
G1 X90.147 Y107.422 E7.75383
G1 X90.261 Y106.656 E7.77959
G1 X90.4 Y105.909 E7.80486
G1 X90.462 Y105.631 E7.81434
G1 X90.701 Y104.742 E7.84496
G1 X91.017 Y103.877 E7.87559
G1 X91.406 Y103.042 E7.90622
G1 X91.866 Y102.245 E7.93683
G1 X92.394 Y101.491 E7.96745
G1 X92.985 Y100.785 E7.99807
G1 X93.556 Y100.207 E8.02509
G1 X95.778 Y98.123 E8.12642
G1 X97.577 Y96.34 E8.21066
G1 X99.481 Y94.316 E8.30308
G0 F6000 X99.769 Y94.593
G1 F1200 X100.576 Y93.753 E8.34183
G1 X101.23 Y93.131 E8.37184
G1 X101.937 Y92.568 E8.4019
G1 X102.69 Y92.07 E8.43193
G1 X103.485 Y91.641 E8.46198
G1 X104.314 Y91.283 E8.49201
G1 X105.172 Y91.001 E8.52205
G1 X105.926 Y90.819 E8.54785
G1 X106.569 Y90.69 E8.56966
G1 X107.291 Y90.568 E8.59401
G1 X107.925 Y90.49 E8.61526
G1 X108.382 Y90.448 E8.63052
G1 X108.946 Y90.412 E8.64932
G1 X109.637 Y90.387 E8.67232
G1 X110.194 Y90.379 E8.69085
G1 X110.721 Y90.39 E8.70838
G1 X111.143 Y90.41 E8.72243
G1 X111.66 Y90.448 E8.73967
G1 X112.208 Y90.502 E8.75799
G1 X112.743 Y90.569 E8.77592
G1 X113.17 Y90.634 E8.79029
G1 X113.662 Y90.721 E8.8069
G1 X114.101 Y90.81 E8.8218
G1 X114.977 Y91.029 E8.85183
G1 X115.83 Y91.324 E8.88185
G1 X116.655 Y91.693 E8.91191
G1 X117.443 Y92.134 E8.94195
G1 X118.189 Y92.643 E8.97199
G1 X118.887 Y93.216 E9.00202
G1 X119.544 Y93.862 E9.03267
G1 X120.42 Y94.805 E9.07548
G1 X122.214 Y96.68 E9.16179
G1 X124.032 Y98.476 E9.24678
G1 X126.145 Y100.45 E9.34296
G1 X126.777 Y101.095 E9.37299
G1 X127.349 Y101.794 E9.40303
G1 X127.858 Y102.54 E9.43307
G1 X128.298 Y103.328 E9.46309
G1 X128.667 Y104.153 E9.49315
G1 X128.962 Y105.006 E9.52317
G1 X129.16 Y105.789 E9.55003
G1 X129.256 Y106.242 E9.56543
G1 X129.386 Y106.986 E9.59055
G1 X129.49 Y107.753 E9.6163
G1 X129.559 Y108.441 E9.6393
G1 X129.587 Y108.858 E9.6532
G1 X129.61 Y109.504 E9.6747
G1 X129.613 Y110.342 E9.70257
G1 X129.588 Y111.092 E9.72753
G1 X129.544 Y111.72 E9.74847
G1 X129.46 Y112.495 E9.77439
G1 X129.346 Y113.268 E9.80038
G1 X129.21 Y114.004 E9.82527
G1 X129.147 Y114.286 E9.83489
G1 X128.911 Y115.158 E9.86493
G1 X128.599 Y116.005 E9.89495
G1 X128.213 Y116.822 E9.92501
G1 X127.757 Y117.601 E9.95503
G1 X127.233 Y118.337 E9.98508
G1 X126.647 Y119.024 E10.01511
G1 X126.172 Y119.5 E10.03748
G1 X123.934 Y121.6 E10.13955
G1 X122.145 Y123.373 E10.22333
G1 X120.269 Y125.366 E10.31436
G1 X119.418 Y126.251 E10.3552
G1 X118.764 Y126.873 E10.38522
G1 X118.057 Y127.436 E10.41528
G1 X117.304 Y127.933 E10.44528
G1 X116.509 Y128.362 E10.47533
G1 X115.68 Y128.719 E10.50535
G1 X114.822 Y129.002 E10.5354
G1 X114.063 Y129.184 E10.56136
G1 X113.422 Y129.312 E10.5831
G1 X112.709 Y129.432 E10.60715
G1 X112.075 Y129.51 E10.62839
G1 X111.618 Y129.552 E10.64366
G1 X111.054 Y129.588 E10.66246
G1 X110.363 Y129.613 E10.68545
G1 X109.804 Y129.621 E10.70405
G1 X109.275 Y129.609 E10.72165
G1 X108.855 Y129.589 E10.73563
G1 X108.34 Y129.552 E10.75281
G1 X107.792 Y129.498 E10.77112
G1 X107.257 Y129.431 E10.78905
G1 X106.83 Y129.366 E10.80342
G1 X106.365 Y129.284 E10.81912
G1 X105.91 Y129.193 E10.83456
G1 X105.033 Y128.977 E10.8646
G1 X104.178 Y128.684 E10.89466
G1 X103.353 Y128.317 E10.92469
G1 X102.564 Y127.878 E10.95472
G1 X101.817 Y127.371 E10.98475
G1 X101.117 Y126.8 E11.01479
G1 X100.379 Y126.07 E11.04932
G1 X99.925 Y125.573 E11.07171
G1 X98.112 Y123.649 E11.15964
G1 X96.324 Y121.857 E11.24383
G1 X94.659 Y120.294 E11.31979
G1 X93.743 Y119.414 E11.36204
G1 X93.12 Y118.76 E11.39208
G1 X92.557 Y118.053 E11.42214
G1 X92.059 Y117.3 E11.45216
G1 X91.63 Y116.505 E11.48221
G1 X91.272 Y115.676 E11.51224
G1 X90.99 Y114.818 E11.54228
G1 X90.826 Y114.151 E11.56513
G1 X90.739 Y113.736 E11.57923
G1 X90.623 Y113.076 E11.60152
G1 X90.538 Y112.477 E11.62164
G1 X90.468 Y111.875 E11.6418
G1 X90.409 Y111.088 E11.66805
G1 X90.39 Y110.495 E11.68778
G1 X90.387 Y109.654 E11.71575
G1 X90.412 Y108.898 E11.74091
G1 X90.457 Y108.262 E11.76212
G1 X90.543 Y107.481 E11.78825
G1 X90.657 Y106.715 E11.81401
G1 X90.791 Y105.996 E11.83834
G1 X90.853 Y105.718 E11.84781
G1 X91.088 Y104.846 E11.87785
G1 X91.4 Y103.998 E11.9079
G1 X91.785 Y103.181 E11.93794
G1 X92.241 Y102.402 E11.96796
G1 X92.764 Y101.666 E11.99799
G1 X93.351 Y100.979 E12.02805
G1 X93.83 Y100.498 E12.05062
G1 X96.069 Y98.398 E12.15272
G1 X97.853 Y96.629 E12.23628
G1 X99.769 Y94.593 E12.32927
G1 F1500 E5.82927
G0 F6000 X110.001 Y109.214
G1 F1500 E12.32927
G1 F1200 X110.237 Y109.481 E12.34112
G1 X110.422 Y109.666 E12.34983
G1 X110.674 Y109.895 E12.36115
G1 X110.667 Y110.103 E12.36807
G1 X110.275 Y110.481 E12.38619
G1 X110.092 Y110.678 E12.39513
G1 X109.905 Y110.67 E12.40135
G1 X109.737 Y110.491 E12.40952
G1 X109.81 Y110.098 E12.42281
G1 X109.832 Y109.7 E12.43607
G1 X109.823 Y109.427 E12.44516
G1 X110.001 Y109.214 E12.45439
G0 F6000 X110.373 Y109.034
G1 F1200 X110.691 Y109.37 E12.46978
G1 X111.081 Y109.724 E12.48729
G1 X111.067 Y110.109 E12.50011
G1 X111.088 Y110.245 E12.50469
G1 X110.554 Y110.767 E12.52952
G1 X110.271 Y111.084 E12.54366
G1 X109.883 Y111.071 E12.55657
G1 X109.74 Y111.094 E12.56139
G1 X109.575 Y110.899 E12.56988
G1 X109.32 Y110.635 E12.58209
G1 X109.411 Y110.076 E12.60093
G1 X109.433 Y109.678 E12.61418
G1 X109.418 Y109.294 E12.62697
G1 X109.833 Y108.784 E12.64884
G1 X109.988 Y108.57 E12.65762
G1 X110.373 Y109.034 E12.67768
G0 F6000 X110.613 Y108.7
G1 F1200 X110.886 Y109.007 E12.69134
G1 X111.483 Y109.549 E12.71816
G1 X111.469 Y110.121 E12.73719
G1 X111.528 Y110.434 E12.74778
G1 X111.186 Y110.709 E12.76238
G1 X110.834 Y111.053 E12.77875
G1 X110.449 Y111.487 E12.79805
G1 X109.872 Y111.473 E12.81724
G1 X109.57 Y111.531 E12.82747
G1 X109.287 Y111.177 E12.84255
G1 X108.847 Y110.722 E12.8636
G1 X108.976 Y110.324 E12.87751
G1 X109.011 Y110.054 E12.88657
G1 X109.033 Y109.656 E12.89983
G1 X109.014 Y109.278 E12.91241
G1 X108.979 Y109.147 E12.91692
G1 X109.217 Y108.906 E12.92819
G1 X109.509 Y108.549 E12.94353
G1 X109.792 Y108.155 E12.95966
G1 X110.229 Y108.187 E12.97424
G1 X110.414 Y108.456 E12.9851
G1 X110.613 Y108.7 E12.99557
G0 F6000 X111.07 Y108.625
G1 F1200 X111.623 Y109.136 E13.02061
G1 X111.933 Y109.371 E13.03355
G1 X111.875 Y109.794 E13.04775
G1 X111.871 Y110.128 E13.05886
G1 X111.947 Y110.454 E13.06999
G1 X112.006 Y110.58 E13.07462
G1 X111.533 Y110.928 E13.09415
G1 X111.113 Y111.339 E13.1137
G1 X110.85 Y111.638 E13.12694
G1 X110.629 Y111.938 E13.13934
G1 X110.199 Y111.879 E13.15377
G1 X109.865 Y111.876 E13.16488
G1 X109.54 Y111.952 E13.17598
G1 X109.423 Y112.007 E13.18028
G1 X109.064 Y111.521 E13.20038
G1 X108.656 Y111.099 E13.2199
G1 X108.325 Y110.83 E13.23409
G1 X108.524 Y110.449 E13.24838
G1 X108.612 Y110.032 E13.26256
G1 X108.634 Y109.634 E13.27582
G1 X108.612 Y109.301 E13.28692
G1 X108.523 Y109.016 E13.29685
G1 X108.847 Y108.727 E13.31129
G1 X109.129 Y108.387 E13.32598
G1 X109.427 Y107.98 E13.34276
G1 X109.589 Y107.738 E13.35244
G1 X110.456 Y107.803 E13.38136
G1 X110.677 Y108.146 E13.39493
G1 X111.07 Y108.625 E13.41554
G0 F6000 X111.427 Y108.411
G1 F1200 X111.931 Y108.876 E13.43835
G1 X112.401 Y109.214 E13.4576
G1 X112.324 Y109.451 E13.46589
G1 X112.272 Y109.846 E13.47914
G1 X112.275 Y110.129 E13.48855
G1 X112.399 Y110.481 E13.50097
G1 X112.534 Y110.713 E13.50989
G1 X112.204 Y110.929 E13.52301
G1 X111.796 Y111.232 E13.53992
G1 X111.393 Y111.625 E13.55864
G1 X111.153 Y111.899 E13.57075
G1 X110.786 Y112.405 E13.59154
G1 X110.543 Y112.326 E13.60004
G1 X110.148 Y112.275 E13.61329
G1 X109.866 Y112.279 E13.62267
G1 X109.516 Y112.403 E13.63502
G1 X109.287 Y112.537 E13.64384
G1 X109.05 Y112.171 E13.65835
G1 X108.757 Y111.78 E13.6746
G1 X108.31 Y111.317 E13.696
G1 X107.695 Y110.866 E13.72137
G1 X107.882 Y110.699 E13.72971
G1 X108.063 Y110.483 E13.73908
G1 X108.203 Y110.165 E13.75064
G1 X108.234 Y109.612 E13.76906
G1 X108.21 Y109.331 E13.77844
G1 X108.108 Y109.068 E13.78782
G1 X108.005 Y108.923 E13.79374
G1 X108.218 Y108.753 E13.8028
G1 X108.555 Y108.452 E13.81783
G1 X108.861 Y108.08 E13.83385
