; generated by PrusaSlicer 2.7.1+win64 on 2024-02-29 at 18:48:37 UTC


;
;

;
;

;
;

;
;

;
;
; 

; external perimeters extrusion width = 0.45mm
; perimeters extrusion width = 0.45mm
; infill extrusion width = 0.45mm
; solid infill extrusion width = 0.45mm
; top infill extrusion width = 0.42mm
; first layer extrusion width = 0.50mm

M73 P0 R3
M73 C0
M201 X4000 Y4000 Z200 E2500 ; sets maximum accelerations, mm/sec^2
M203 X300 Y300 Z40 E100 ; sets maximum feedrates, mm / sec
M204 P4000 R1200 T4000 ; sets acceleration (P, T) and retract acceleration (R), mm/sec^2
M205 X8.00 Y8.00 Z2.00 E10.00 ; sets the jerk limits, mm/sec
M205 S0 T0 ; sets the minimum extruding and travel feed rate, mm/sec

M486 S0
M486 AFILA_FORGE_CIRCLE_LOGO.stl
M486 S-1

;TYPE:Custom
M17 ; enable steppers
M862.1 P0.4 ; nozzle diameter check
M862.3 P "MK4" ; printer model check
M862.5 P2 ; g-code level check
M862.6 P"Input shaper" ; FW feature check
M115 U5.1.0+13455

M555 X115.202 Y91.202 W32 H23.5961

G90 ; use absolute coordinates
M83 ; extruder relative mode

M140 S60 ; set bed temp
M104 T0 S170 ; set extruder temp for bed leveling
M109 T0 R170 ; wait for temp

M84 E ; turn off E motor

G28 ; home all without mesh bed level

G1 X42 Y-4 Z5 F4800

M302 S160 ; lower cold extrusion limit to 160C


G1 E-2 F2400 ; retraction


M84 E ; turn off E motor

G29 P9 X10 Y-4 W32 H4

M106 S100

G0 Z40 F10000

M190 S60 ; wait for bed temp

M107

;
; MBL
;
M84 E ; turn off E motor
G29 P1 ; invalidate mbl & probe print area
G29 P1 X0 Y0 W50 H20 C ; probe near purge place
G29 P3.2 ; interpolate mbl probes
G29 P3.13 ; extrapolate mbl outside probe area
G29 A ; activate mbl

; prepare for purge
M104 S230
G0 X0 Y-4 Z15 F4800 ; move away and ready for the purge
M73 P1 R3
M109 S230

G92 E0
M569 S0 E ; set spreadcycle mode for extruder

;
; Extrude purge line
;
G92 E0 ; reset extruder position
G1 E2 F2400 ; deretraction after the initial one before nozzle cleaning
G0 E7 X15 Z0.2 F500 ; purge
G0 X25 E4 F500 ; purge
M73 P2 R3
G0 X35 E4 F650 ; purge
M73 P3 R3
G0 X45 E4 F800 ; purge
G0 X48 Z0.05 F8000 ; wipe, move close to the bed
M73 P4 R3
G0 X51 Z0.2 F8000 ; wipe, move quickly away from the bed

G92 E0
M221 S100 ; set flow to 100%
G21 ; set units to millimeters
G90 ; use absolute coordinates
M83 ; use relative distances for extrusion
M900 K0.05 ; Filament gcode


M572 S0.038 ; Filament gcode


M142 S36 ; set heatbreak target temp
M107
;LAYER_CHANGE
;Z:0.2
;HEIGHT:0.2
;BEFORE_LAYER_CHANGE
G92 E0.0
;0.2
M201 X4000 Y4000
M74 W0

G1 E-.7 F2100
G1 Z.2 F720
;AFTER_LAYER_CHANGE
;0.2
M486 S0
G1 X123.291 Y107.369 F18000
G1 Z.2 F720
G1 E.7 F2100
M204 P500
;TYPE:Perimeter
;WIDTH:0.617458
G1 F2400
G1 X123.283 Y107.36 E.00058
;WIDTH:0.576887
G1 X123.195 Y107.269 E.00562
;WIDTH:0.536316
G1 X123.108 Y107.178 E.00517
;WIDTH:0.495745
G1 X123.021 Y107.087 E.00474
;WIDTH:0.455174
G1 X122.943 Y106.986 E.00437
;WIDTH:0.42163
G1 X122.787 Y106.762 E.0086
;WIDTH:0.387502
G1 X122.63 Y106.538 E.00784
;WIDTH:0.354768
G1 X122.376 Y106.049 E.01429
;WIDTH:0.387138
G1 X122.285 Y105.801 E.00756
;WIDTH:0.419507
G1 X122.194 Y105.553 E.00827
;WIDTH:0.464356
G1 X122.158 Y105.414 E.00503
;WIDTH:0.509204
G1 X122.122 Y105.275 E.00557
;WIDTH:0.554053
G1 X122.086 Y105.135 E.00614
;WIDTH:0.598901
G3 X122.089 Y104.83 I.364 J-.149 E.01448
;WIDTH:0.551531
G1 X122.128 Y104.665 E.00717
;WIDTH:0.50416
G1 X122.167 Y104.499 E.00654
;WIDTH:0.456789
G1 X122.266 Y104.234 E.00974
;WIDTH:0.409741
G1 X122.364 Y103.969 E.00862
;WIDTH:0.362693
G1 X122.614 Y103.487 E.01444
;WIDTH:0.384215
G1 X122.771 Y103.261 E.00781
;WIDTH:0.414527
G1 X122.928 Y103.035 E.0085
;WIDTH:0.463437
G1 X123.051 Y102.895 E.00652
;WIDTH:0.512347
G1 X123.174 Y102.756 E.00724
;WIDTH:0.561257
G1 X123.297 Y102.617 E.008
;WIDTH:0.607864
G1 X123.375 Y102.54 E.00515
;WIDTH:0.654471
G3 X123.572 Y102.426 I.238 J.183 E.01187
;WIDTH:0.612709
G1 X123.692 Y102.388 E.00596
;WIDTH:0.570947
G1 X123.811 Y102.35 E.00548
;WIDTH:0.529185
G1 X123.931 Y102.312 E.00509
;WIDTH:0.487423
G1 X124.116 Y102.278 E.00695
;WIDTH:0.451195
G1 X124.301 Y102.243 E.00639
;WIDTH:0.414967
G1 X124.485 Y102.209 E.00579
;WIDTH:0.378739
G1 X125.034 Y102.178 E.01535
;WIDTH:0.390772
G1 X125.62 Y102.224 E.017
;WIDTH:0.43384
G1 X125.806 Y102.263 E.00618
;WIDTH:0.476908
G1 X125.992 Y102.302 E.00686
;WIDTH:0.519975
G1 X126.178 Y102.341 E.00754
;WIDTH:0.561182
G1 X126.314 Y102.39 E.00623
;WIDTH:0.602389
G1 X126.45 Y102.439 E.00672
;WIDTH:0.643595
G3 X126.683 Y102.594 I-.071 J.36 E.01434
;WIDTH:0.596345
G1 X126.782 Y102.7 E.00667
;WIDTH:0.549095
G1 X126.88 Y102.806 E.00608
;WIDTH:0.501845
G1 X126.978 Y102.913 E.00554
;WIDTH:0.454595
G1 X127.143 Y103.136 E.0095
;WIDTH:0.410159
G1 X127.308 Y103.36 E.0085
;WIDTH:0.365723
G1 X127.576 Y103.84 E.01476
;WIDTH:0.382199
G1 X127.679 Y104.1 E.00789
;WIDTH:0.411219
G1 X127.782 Y104.36 E.00856
;WIDTH:0.451125
G1 X127.819 Y104.502 E.00498
;WIDTH:0.491031
G1 X127.857 Y104.643 E.00544
;WIDTH:0.530937
G1 X127.895 Y104.784 E.00593
;WIDTH:0.570843
G3 X127.929 Y105.069 I-.584 J.216 E.01271
;WIDTH:0.56421
G1 X127.896 Y105.196 E.00569
;WIDTH:0.52614
G1 X127.864 Y105.323 E.00526
;WIDTH:0.48807
G1 X127.831 Y105.45 E.00486
;WIDTH:0.45
G1 X127.798 Y105.577 E.00444
;WIDTH:0.41193
G1 X127.69 Y105.857 E.00921
;WIDTH:0.379326
G1 X127.583 Y106.137 E.00838
;WIDTH:0.356501
G1 X127.339 Y106.591 E.01344
;WIDTH:0.400439
G1 X127.166 Y106.828 E.00872
;WIDTH:0.444376
G1 X126.993 Y107.066 E.00982
;WIDTH:0.489991
G1 X126.896 Y107.172 E.00534
;WIDTH:0.535605
G1 X126.799 Y107.278 E.00589
;WIDTH:0.58122
G1 X126.701 Y107.384 E.00646
;WIDTH:0.626834
G3 X126.463 Y107.545 I-.324 J-.222 E.01428
;WIDTH:0.588837
G1 X126.322 Y107.601 E.00689
;WIDTH:0.55084
G1 X126.181 Y107.656 E.00639
;WIDTH:0.512842
G1 X126 Y107.696 E.00724
;WIDTH:0.475564
G1 X125.82 Y107.736 E.00663
;WIDTH:0.438285
G1 X125.64 Y107.776 E.00606
;WIDTH:0.401006
G1 X125.364 Y107.798 E.00824
;WIDTH:0.37457
G1 X125.089 Y107.819 E.00761
;WIDTH:0.374696
G1 X124.503 Y107.792 E.01618
;WIDTH:0.408066
G1 X124.32 Y107.758 E.00565
;WIDTH:0.441435
G1 X124.136 Y107.724 E.0062
;WIDTH:0.474804
G1 X123.953 Y107.689 E.00669
;WIDTH:0.52061
G1 X123.829 Y107.653 E.00513
;WIDTH:0.566416
G1 X123.705 Y107.616 E.00563
;WIDTH:0.612222
G1 X123.581 Y107.579 E.00613
;WIDTH:0.658028
G3 X123.37 Y107.452 I.034 J-.294 E.01299
;WIDTH:0.617458
G1 X123.332 Y107.412 E.00264
M204 P4000
G1 E-.7 F2100
M204 T4000
G1 X123.332 Y107.412 Z.4 F18014.394
G1 X121.385 Y104.984 F18000
G1 Z.2 F720
M73 P5 R3
G1 E.7 F2100
M204 P500
;WIDTH:0.598901
G1 F2400
G2 X121.586 Y104.753 I-.929 J-1.015 E.01419
;WIDTH:0.572396
G1 X121.658 Y104.618 E.00674
;WIDTH:0.534593
G1 X121.73 Y104.482 E.00629
;WIDTH:0.496789
G1 X121.802 Y104.347 E.00577
;WIDTH:0.458985
G1 X121.874 Y104.212 E.00529
;WIDTH:0.421181
G1 X122.007 Y103.962 E.00891
;WIDTH:0.38805
G1 X122.139 Y103.712 E.00811
;WIDTH:0.363969
G1 X122.409 Y103.21 E.01522
;WIDTH:0.404947
G1 X122.548 Y102.961 E.00858
;WIDTH:0.445925
G1 X122.687 Y102.711 E.00959
;WIDTH:0.487635
G1 X122.755 Y102.575 E.00562
;WIDTH:0.529344
G1 X122.823 Y102.44 E.00611
;WIDTH:0.571053
G1 X122.891 Y102.304 E.00668
;WIDTH:0.612762
G1 X122.959 Y102.169 E.00716
;WIDTH:0.654471
G1 X123.026 Y102.033 E.00771
G1 X123.019 Y101.733 E.01526
G1 X123.398 Y101.903 E.02112
G1 X123.519 Y101.897 E.00616
;WIDTH:0.612709
G1 X123.641 Y101.891 E.00579
;WIDTH:0.570947
G1 X123.762 Y101.885 E.00532
;WIDTH:0.529185
G1 X123.883 Y101.879 E.0049
;WIDTH:0.487423
G1 X124.083 Y101.877 E.00739
;WIDTH:0.451195
G1 X124.282 Y101.876 E.00676
;WIDTH:0.414967
G1 X124.482 Y101.875 E.00619
;WIDTH:0.378739
G1 X124.982 Y101.872 E.01396
;WIDTH:0.371501
G1 X125.502 Y101.882 E.01421
;WIDTH:0.420514
G1 X125.788 Y101.89 E.00898
;WIDTH:0.469527
G1 X126.074 Y101.898 E.01015
;WIDTH:0.516087
G1 X126.218 Y101.898 E.00567
;WIDTH:0.562646
G1 X126.362 Y101.899 E.00622
;WIDTH:0.609205
G1 X126.507 Y101.899 E.00683
;WIDTH:0.655764
G1 X126.651 Y101.899 E.00734
G1 X126.954 Y101.766 E.01686
G2 X127.035 Y102.146 I.936 J.001 E.01994
;WIDTH:0.610223
G1 X127.1 Y102.333 E.00934
;WIDTH:0.564682
G1 X127.192 Y102.494 E.00804
;WIDTH:0.517489
G1 X127.284 Y102.654 E.00728
;WIDTH:0.470296
G1 X127.377 Y102.815 E.00661
;WIDTH:0.423102
G1 X127.513 Y103.065 E.009
;WIDTH:0.38976
G1 X127.648 Y103.315 E.00819
;WIDTH:0.362543
G1 X127.919 Y103.822 E.01528
;WIDTH:0.405127
G1 X128.054 Y104.092 E.00909
;WIDTH:0.44771
G1 X128.189 Y104.362 E.01016
;WIDTH:0.485621
G1 X128.254 Y104.476 E.00483
;WIDTH:0.523531
G1 X128.318 Y104.589 E.00519
;WIDTH:0.561441
G1 X128.383 Y104.703 E.00566
;WIDTH:0.599351
G2 X128.622 Y104.982 I.713 J-.37 E.01715
G2 X128.392 Y105.257 I.563 J.704 E.0167
;WIDTH:0.56421
G1 X128.322 Y105.384 E.00629
;WIDTH:0.524178
G1 X128.252 Y105.51 E.00577
;WIDTH:0.484145
G1 X128.182 Y105.637 E.00532
;WIDTH:0.444113
G1 X128.112 Y105.764 E.00484
;WIDTH:0.40408
G1 X127.98 Y106.024 E.00876
;WIDTH:0.375401
G1 X127.849 Y106.284 E.00805
;WIDTH:0.360546
G1 X127.586 Y106.788 E.01501
;WIDTH:0.402461
G1 X127.447 Y107.043 E.00868
;WIDTH:0.444376
G1 X127.307 Y107.298 E.00971
;WIDTH:0.486459
G1 X127.245 Y107.413 E.00482
;WIDTH:0.528541
G1 X127.183 Y107.528 E.00528
;WIDTH:0.570624
G1 X127.122 Y107.644 E.00575
;WIDTH:0.612706
G1 X127.06 Y107.759 E.00619
;WIDTH:0.654788
G1 X126.998 Y107.874 E.00665
G1 X126.953 Y108.228 E.01816
G1 X126.631 Y108.099 E.01765
G1 X126.504 Y108.102 E.00646
;WIDTH:0.610818
G1 X126.377 Y108.104 E.006
;WIDTH:0.566847
G1 X126.249 Y108.107 E.00558
;WIDTH:0.522876
G1 X126.122 Y108.109 E.00507
;WIDTH:0.478905
G1 X125.822 Y108.119 E.01088
;WIDTH:0.429671
G1 X125.522 Y108.128 E.00965
;WIDTH:0.380437
G1 X124.931 Y108.126 E.01659
;WIDTH:0.372788
G1 X124.622 Y108.121 E.00848
;WIDTH:0.39779
G1 X124.313 Y108.117 E.00912
;WIDTH:0.434919
G1 X124.128 Y108.113 E.00603
;WIDTH:0.472048
G1 X123.944 Y108.11 E.00657
;WIDTH:0.509177
G1 X123.759 Y108.106 E.00717
;WIDTH:0.558794
G1 X123.611 Y108.114 E.00636
;WIDTH:0.608411
G1 X123.463 Y108.122 E.00697
;WIDTH:0.658028
G1 X123.315 Y108.13 E.00758
G1 X123.031 Y108.256 E.01589
G1 X123.04 Y108.177 E.00407
G1 X122.99 Y107.83 E.01793
;WIDTH:0.633092
G1 X122.917 Y107.703 E.00719
;WIDTH:0.588613
G1 X122.845 Y107.577 E.00658
;WIDTH:0.544133
G1 X122.772 Y107.451 E.00607
;WIDTH:0.499654
G1 X122.7 Y107.324 E.00554
;WIDTH:0.455174
G1 X122.552 Y107.05 E.01068
;WIDTH:0.407059
G1 X122.405 Y106.776 E.00941
;WIDTH:0.358943
G1 X122.153 Y106.29 E.01439
;WIDTH:0.374413
G1 X122.024 Y106.036 E.00785
;WIDTH:0.402778
G1 X121.895 Y105.782 E.00852
;WIDTH:0.442855
G1 X121.824 Y105.652 E.00493
;WIDTH:0.482932
G1 X121.753 Y105.523 E.00539
;WIDTH:0.523009
G1 X121.682 Y105.394 E.00588
;WIDTH:0.563085
G1 X121.611 Y105.265 E.00637
;WIDTH:0.598901
G1 X121.422 Y105.03 E.01394
M204 P4000
G1 E-.7 F2100
G1 X121.422 Y105.03 Z.4 F18014.394
G1 X123.668 Y107.039 F18000
G1 Z.2 F720
G1 E.7 F2100
M204 P500
;TYPE:External perimeter
;WIDTH:0.499999
G1 F2400
G3 X123.265 Y106.719 I1.443 J-2.235 E.01959
G1 X122.967 Y106.354 E.01791
G1 X122.743 Y105.935 E.01806
G1 X122.594 Y105.385 E.02166
G3 X122.609 Y104.497 I2.726 J-.398 E.0339
G1 X122.753 Y104.041 E.01817
G1 X122.979 Y103.628 E.01789
G1 X123.28 Y103.265 E.01792
G3 X124.065 Y102.743 I2.258 J2.541 E.03594
G1 X124.646 Y102.591 E.02282
G1 X124.999 Y102.558 E.01347
G1 X125.503 Y102.609 E.01925
G1 X125.958 Y102.752 E.01813
G1 X126.492 Y103.076 E.02374
G3 X127.033 Y103.646 I-1.6 J2.064 E.02998
G1 X127.257 Y104.065 E.01806
G1 X127.399 Y104.55 E.01921
G1 X127.442 Y105.021 E.01798
G1 X127.391 Y105.503 E.01842
G1 X127.213 Y106.022 E.02085
G3 X126.719 Y106.735 I-2.496 J-1.201 E.0331
G1 X126.298 Y107.064 E.02031
G3 X125.473 Y107.397 I-1.439 J-2.38 E.03396
G1 X124.979 Y107.442 E.01885
G1 X124.468 Y107.382 E.01955
G1 X123.933 Y107.189 E.02162
G3 X123.719 Y107.071 I1.178 J-2.385 E.00929
M204 P4000
G1 X124.072 Y107.258 F18000
G1 E-.7 F2100
G1 Z.4 F720
G1 X120.063 Y110.255 F18000
G1 Z.2 F720
G1 E.7 F2100
M204 P500
;TYPE:Perimeter
G1 F2400
G1 X119.824 Y110.114 E.01055
G3 X119.101 Y109.07 I5.52 J-4.595 E.04833
G1 X118.744 Y108.423 E.02809
G3 X117.89 Y106.562 I10.842 J-6.101 E.07791
G3 X117.856 Y105.967 I1.757 J-.399 E.02276
G1 X118.036 Y105.605 E.01537
G1 X118.293 Y105.351 E.01373
G1 X118.993 Y105.029 E.02928
G1 X119.031 Y104.994 E.00196
M73 P6 R3
G1 X118.442 Y104.735 E.02445
G3 X117.998 Y104.338 I.979 J-1.542 E.02274
G1 X117.853 Y103.976 E.01482
G1 X117.854 Y103.567 E.01554
G1 X118.079 Y102.92 E.02603
G3 X119.063 Y100.965 I21.023 J9.356 E.08321
G3 X119.803 Y99.889 I5.31 J2.858 E.04973
G1 X120.13 Y99.682 E.01471
G1 X120.543 Y99.604 E.01597
G1 X121.051 Y99.765 E.02025
G1 X121.917 Y100.352 E.03976
G1 X122.533 Y100.932 E.03216
;WIDTH:0.464372
G1 X122.631 Y101.069 E.0059
;WIDTH:0.468709
G1 X122.488 Y100.664 E.01521
;WIDTH:0.499999
G1 X122.344 Y100.259 E.01634
G1 X122.206 Y99.448 E.03127
G1 X122.223 Y98.863 E.02224
G1 X122.297 Y98.588 E.01082
G1 X122.503 Y98.267 E.0145
G1 X122.811 Y98.066 E.01398
G1 X123.375 Y97.935 E.02201
G3 X125.778 Y97.871 I1.73 J19.591 E.09142
G3 X127.042 Y97.997 I-.131 J7.696 E.04833
G3 X127.513 Y98.249 I-.902 J2.253 E.02034
G1 X127.709 Y98.535 E.01318
G1 X127.806 Y98.875 E.01344
G1 X127.768 Y99.671 E.03029
G3 X127.476 Y100.917 I-7.987 J-1.218 E.04869
G1 X127.792 Y100.595 E.01715
G3 X128.928 Y99.773 I5.528 J6.454 E.05335
G1 X129.25 Y99.656 E.01302
G3 X129.788 Y99.634 I.313 J1.066 E.02067
G1 X130.177 Y99.861 E.01712
G1 X130.551 Y100.334 E.02292
G3 X131.616 Y102.261 I-15.568 J9.867 E.08373
G3 X132.143 Y103.562 I-8.533 J4.215 E.0534
G1 X132.158 Y103.943 E.01449
G1 X132 Y104.336 E.0161
G1 X131.75 Y104.614 E.01421
G1 X131.221 Y104.903 E.02291
G1 X130.925 Y105 E.01184
G1 X131.606 Y105.295 E.02821
G3 X132.011 Y105.648 I-1.159 J1.74 E.02048
G1 X132.15 Y105.982 E.01375
G1 X132.153 Y106.342 E.01368
G1 X132.046 Y106.76 E.0164
G3 X131.026 Y108.849 I-17.527 J-7.263 E.08841
G3 X130.26 Y110.02 I-7.354 J-3.975 E.05324
G3 X129.815 Y110.331 I-1 J-.954 E.02077
G1 X129.481 Y110.366 E.01276
G1 X129.089 Y110.301 E.0151
G1 X128.462 Y109.948 E.02735
G1 X127.674 Y109.294 E.03892
G1 X127.492 Y109.091 E.01036
G1 X127.73 Y110.069 E.03825
G1 X127.815 Y110.879 E.03095
G3 X127.703 Y111.471 I-2.917 J-.248 E.02294
G1 X127.443 Y111.806 E.01612
G1 X127.104 Y111.975 E.0144
G1 X126.568 Y112.083 E.02078
G3 X125.093 Y112.14 I-1.499 J-19.592 E.05611
G3 X122.932 Y111.979 I-.154 J-12.531 E.08246
G1 X122.518 Y111.747 E.01804
G1 X122.293 Y111.399 E.01575
G1 X122.221 Y111.122 E.01088
G1 X122.203 Y110.572 E.02091
G1 X122.321 Y109.898 E.02601
G1 X122.386 Y109.576 E.01248
G1 X122.609 Y108.989 E.02387
;WIDTH:0.451384
G1 X122.652 Y108.892 E.0036
;WIDTH:0.465108
G1 X122.406 Y109.163 E.01285
;WIDTH:0.499999
G1 X122.16 Y109.434 E.01391
G3 X121.34 Y110.083 I-4.099 J-4.328 E.0398
G1 X120.89 Y110.303 E.01904
G1 X120.604 Y110.368 E.01115
G1 X120.206 Y110.339 E.01517
G1 X120.115 Y110.286 E.004
M204 P4000
G1 X120.252 Y109.853 F18000
M204 P500
;TYPE:External perimeter
G1 F2400
G1 X120.075 Y109.719 E.00844
G3 X119.495 Y108.839 I5.463 J-4.229 E.0401
G1 X118.911 Y107.766 E.04643
G3 X118.318 Y106.402 I9.346 J-4.878 E.05657
G1 X118.307 Y106.041 E.01373
G1 X118.367 Y105.921 E.0051
M73 P7 R3
G1 X118.623 Y105.688 E.01316
G1 X119.175 Y105.448 E.02288
;WIDTH:0.534557
G1 X119.778 Y105.265 E.02576
G1 X120.665 Y105.227 E.03629
;WIDTH:0.508206
G1 X120.823 Y105.248 E.00617
;WIDTH:0.502867
G1 X121.089 Y105.398 E.01168
;WIDTH:0.499999
G1 X121.462 Y105.854 E.02239
G3 X122.466 Y107.904 I-10.746 J6.538 E.08687
G1 X122.496 Y108.322 E.01593
G1 X122.288 Y108.668 E.01534
G1 X121.68 Y109.263 E.03233
G1 X121.15 Y109.656 E.02508
G1 X120.702 Y109.886 E.01914
G1 X120.408 Y109.912 E.01122
G1 X120.304 Y109.881 E.00412
M204 P4000
G1 X119.912 Y109.804 F18000
G1 E-.7 F2100
G1 Z.4 F720
G1 X127.273 Y111.313 F18000
G1 Z.2 F720
G1 E.7 F2100
M204 P500
G1 F2400
G1 X127.273 Y111.316 E.00011
G1 X127.09 Y111.493 E.00968
G1 X126.557 Y111.624 E.02086
G3 X125.085 Y111.683 I-1.461 J-17.824 E.05601
G3 X123.083 Y111.547 I-.114 J-13.071 E.07634
G1 X122.826 Y111.409 E.01109
G1 X122.68 Y111.127 E.01207
G1 X122.659 Y110.615 E.01948
G1 X122.82 Y109.722 E.03449
G1 X123.053 Y109.027 E.02786
