; generated by PrusaSlicer 2.7.1+win64 on 2024-02-29 at 19:33:15 UTC


;
;
; 

; external perimeters extrusion width = 0.45mm
; perimeters extrusion width = 0.45mm
; infill extrusion width = 0.45mm
; solid infill extrusion width = 0.45mm
; top infill extrusion width = 0.40mm
; first layer extrusion width = 0.42mm

M73 P0 R8
M73 C1
M73 Q0 S9
M73 D1
M201 X1000 Y1000 Z200 E5000 ; sets maximum accelerations, mm/sec^2
M203 X200 Y200 Z12 E120 ; sets maximum feedrates, mm / sec
M204 S1250 T1250 ; sets acceleration (S) and retract acceleration (R), mm/sec^2
M205 X8.00 Y8.00 Z0.40 E4.50 ; sets the jerk limits, mm/sec
M205 S0 T0 ; sets the minimum extruding and travel feed rate, mm/sec

; printing object FILA_FORGE_CIRCLE_LOGO.stl id:0 copy 0
; stop printing object FILA_FORGE_CIRCLE_LOGO.stl id:0 copy 0

;TYPE:Custom
M862.3 P "MK3" ; printer model check
M862.1 P0.4 ; nozzle diameter check
M115 U3.13.1 ; tell printer latest fw version
G90 ; use absolute coordinates
M83 ; extruder relative mode
M104 S215 ; set extruder temp
M140 S60 ; set bed temp
M190 S60 ; wait for bed temp
M109 S215 ; wait for extruder temp
G28 W ; home all without mesh bed level
G80 X110.204 Y90.204 W29.5919 H29.5919 ; mesh bed levelling

G1 Z0.2 F720
G1 Y-3 F1000 ; go outside print area
G92 E0
G1 X60 E9 F1000 ; intro line
G1 X100 E12.5 F1000 ; intro line

G92 E0
M221 S95

; Don't change E values below. Excessive value can damage the printer.

M907 E538 ; set extruder motor current
G21 ; set units to millimeters
G90 ; use absolute coordinates
M83 ; use relative distances for extrusion

M900 K0.05 ; Filament gcode LA 1.5
M900 K30 ; Filament gcode LA 1.0




M107
;LAYER_CHANGE
;Z:0.2
;HEIGHT:0.2
;BEFORE_LAYER_CHANGE
G92 E0.0
;0.2


G1 E-.8 F2100
M73 P1 R8
M73 Q1 S9
G1 Z.2 F720
;AFTER_LAYER_CHANGE
;0.2
G1 X113.695 Y95.748 F10800
G1 Z.2 F720
G1 E.8 F2100
M204 S800
;TYPE:Skirt/Brim
;WIDTH:0.42
G1 F1200
G1 X114.714 Y94.628 E.04748
G1 X115.76 Y93.686 E.04414
G1 X116.894 Y92.846 E.04425
G1 X118.125 Y92.109 E.04499
G1 X119.424 Y91.495 E.04505
G1 X120.771 Y91.015 E.04484
G1 X122.168 Y90.667 E.04514
G1 X123.519 Y90.467 E.04282
G1 X125.039 Y90.393 E.04771
G1 X126.448 Y90.464 E.04423
G1 X127.892 Y90.679 E.04577
G1 X129.289 Y91.033 E.04519
G1 X130.629 Y91.517 E.04467
G1 X131.875 Y92.109 E.04325
G1 X133.118 Y92.854 E.04544
G1 X134.252 Y93.695 E.04427
G1 X135.372 Y94.714 E.04748
M73 Q1 S8
G1 X136.314 Y95.76 E.04414
G1 X137.163 Y96.908 E.04477
G1 X137.883 Y98.11 E.04393
G1 X138.501 Y99.415 E.04527
G1 X138.985 Y100.771 E.04514
G1 X139.333 Y102.168 E.04514
G1 X139.533 Y103.519 E.04282
G1 X139.607 Y105.017 E.04703
G1 X139.536 Y106.448 E.04492
G1 X139.328 Y107.858 E.04469
G1 X138.977 Y109.256 E.04519
G1 X138.496 Y110.598 E.0447
G1 X137.891 Y111.875 E.04431
G1 X137.145 Y113.119 E.04548
G1 X136.305 Y114.252 E.04422
G1 X135.361 Y115.297 E.04415
G1 X134.322 Y116.247 E.04414
G1 X133.194 Y117.094 E.04423
G1 X131.985 Y117.832 E.04441
G1 X130.601 Y118.494 E.0481
G1 X129.245 Y118.98 E.04516
G1 X127.832 Y119.333 E.04567
G1 X126.481 Y119.533 E.04282
G1 X124.983 Y119.607 E.04703
G1 X123.552 Y119.536 E.04492
G1 X122.142 Y119.328 E.04469
G1 X120.744 Y118.977 E.04519
G1 X119.402 Y118.496 E.0447
G1 X118.125 Y117.891 E.04431
G1 X116.909 Y117.164 E.04442
G1 X115.748 Y116.305 E.04528
G1 X114.703 Y115.361 E.04415
M73 P2 R8
G1 X113.753 Y114.322 E.04414
G1 X112.905 Y113.194 E.04425
M73 Q2 S8
G1 X112.168 Y111.985 E.0444
G1 X111.506 Y110.601 E.0481
G1 X111.02 Y109.245 E.04516
G1 X110.667 Y107.832 E.04567
G1 X110.467 Y106.481 E.04282
G1 X110.393 Y104.983 E.04703
G1 X110.464 Y103.552 E.04492
G1 X110.679 Y102.109 E.04574
G1 X111.033 Y100.712 E.04519
G1 X111.517 Y99.371 E.0447
G1 X112.109 Y98.125 E.04325
G1 X112.855 Y96.881 E.04548
G1 X113.659 Y95.796 E.04234
M204 S1000
G1 X113.962 Y96.021 F10800
M204 S800
G1 F1200
G1 X113.986 Y95.988 E.00128
G1 X114.92 Y94.955 E.04367
G1 X115.917 Y94.044 E.04234
G1 X117.104 Y93.159 E.04642
G1 X118.289 Y92.449 E.04331
G1 X119.545 Y91.853 E.04359
G1 X120.865 Y91.38 E.04396
G1 X122.242 Y91.037 E.04449
G1 X123.555 Y90.842 E.04162
G1 X125.036 Y90.77 E.04649
G1 X126.41 Y90.839 E.04314
G1 X127.815 Y91.049 E.04454
G1 X129.148 Y91.384 E.04309
G1 X130.455 Y91.853 E.04354
G1 X131.699 Y92.442 E.04316
G1 X132.907 Y93.167 E.04417
G1 X134.012 Y93.986 E.04313
G1 X135.045 Y94.92 E.04367
G1 X135.956 Y95.917 E.04234
G1 X136.841 Y97.104 E.04642
G1 X137.551 Y98.289 E.04331
G1 X138.152 Y99.558 E.04403
G1 X138.624 Y100.879 E.04398
G1 X138.963 Y102.242 E.04404
G1 X139.158 Y103.555 E.04162
G1 X139.23 Y105.014 E.0458
G1 X139.161 Y106.41 E.04382
G1 X138.957 Y107.786 E.04362
G1 X138.616 Y109.148 E.04402
G1 X138.147 Y110.455 E.04354
G1 X137.558 Y111.699 E.04316
G1 X136.833 Y112.907 E.04417
G1 X136.014 Y114.012 E.04313
G1 X135.095 Y115.03 E.043
G1 X134.083 Y115.956 E.04301
G1 X132.984 Y116.781 E.04309
G1 X131.806 Y117.5 E.04327
G1 X130.455 Y118.147 E.04697
G1 X129.135 Y118.62 E.04396
G1 X127.758 Y118.963 E.04449
G1 X126.445 Y119.158 E.04162
G1 X124.986 Y119.23 E.0458
G1 X123.59 Y119.161 E.04382
G1 X122.214 Y118.957 E.04362
G1 X120.852 Y118.616 E.04402
G1 X119.545 Y118.147 E.04354
G1 X118.301 Y117.558 E.04316
G1 X117.117 Y116.849 E.04327
G1 X115.988 Y116.014 E.04403
G1 X114.97 Y115.095 E.043
G1 X114.044 Y114.083 E.04301
G1 X113.219 Y112.984 E.04309
G1 X112.5 Y111.806 E.04327
G1 X111.853 Y110.455 E.04697
G1 X111.38 Y109.135 E.04396
G1 X111.037 Y107.758 E.04449
G1 X110.842 Y106.445 E.04162
G1 X110.77 Y104.986 E.0458
G1 X110.839 Y103.591 E.04379
M73 P3 R8
G1 X111.048 Y102.185 E.04457
G1 X111.384 Y100.852 E.0431
G1 X111.853 Y99.545 E.04354
G1 X112.442 Y98.301 E.04316
G1 X113.167 Y97.093 E.04417
G1 X113.926 Y96.069 E.03996
M204 S1000
; printing object FILA_FORGE_CIRCLE_LOGO.stl id:0 copy 0
;WIPE_START
G1 F8640
M73 Q3 S8
G1 X113.962 Y96.021 E-.01385
G1 X113.986 Y95.988 E-.00942
G1 X114.92 Y94.955 E-.32156
G1 X115.917 Y94.044 E-.31184
G1 X116.415 Y93.673 E-.14333
;WIPE_END
G1 Z.6 F720
G1 X115.774 Y111.109 F10800
G1 Z.2 F720
G1 E.8 F2100
M204 S800
;TYPE:Perimeter
;WIDTH:0.419999
G1 F1200
G1 X115.536 Y110.737 E.01385
G1 X115.268 Y110.271 E.01686
G1 X115.018 Y109.78 E.01728
G1 X114.793 Y109.281 E.01716
G1 X114.602 Y108.794 E.0164
G1 X114.428 Y108.277 E.0171
G1 X114.279 Y107.749 E.0172
G1 X114.155 Y107.211 E.01731
G1 X114.059 Y106.663 E.01744
G1 X113.989 Y106.105 E.01763
G1 X113.948 Y105.536 E.01789
G1 X113.935 Y104.952 E.01832
G1 X113.95 Y104.418 E.01675
G1 X113.991 Y103.879 E.01695
G1 X114.06 Y103.33 E.01735
G1 X114.156 Y102.787 E.01729
G1 X114.278 Y102.255 E.01711
G1 X114.425 Y101.731 E.01706
G1 X114.597 Y101.219 E.01694
G1 X114.793 Y100.718 E.01687
G1 X115.013 Y100.229 E.01681
G1 X115.254 Y99.754 E.0167
G1 X115.521 Y99.287 E.01687
G1 X115.809 Y98.835 E.0168
G1 X116.118 Y98.399 E.01676
G1 X116.447 Y97.978 E.01675
G1 X116.796 Y97.574 E.01674
G1 X117.164 Y97.187 E.01674
G1 X117.55 Y96.817 E.01676
G1 X117.955 Y96.466 E.0168
G1 X118.378 Y96.134 E.01686
G1 X118.816 Y95.822 E.01686
G1 X119.272 Y95.531 E.01696
G1 X119.735 Y95.265 E.01674
G1 X120.212 Y95.021 E.0168
G1 X120.719 Y94.793 E.01743
G1 X121.206 Y94.602 E.0164
G1 X121.722 Y94.428 E.01707
G1 X122.251 Y94.279 E.01723
G1 X122.789 Y94.155 E.01731
G1 X123.338 Y94.059 E.01747
G1 X123.896 Y93.989 E.01763
G1 X124.462 Y93.948 E.01779
G1 X125.054 Y93.935 E.01857
G1 X125.579 Y93.95 E.01647
G1 X126.159 Y93.995 E.01824
G1 X126.671 Y94.06 E.01618
G1 X127.233 Y94.16 E.0179
G1 X127.745 Y94.278 E.01647
G1 X128.268 Y94.425 E.01703
G1 X128.781 Y94.597 E.01696
G1 X129.282 Y94.793 E.01687
G1 X129.773 Y95.014 E.01688
G1 X130.251 Y95.257 E.01681
G1 X130.721 Y95.526 E.01698
G1 X131.17 Y95.813 E.01671
G1 X131.605 Y96.121 E.01671
G1 X132.024 Y96.449 E.01668
G1 X132.427 Y96.796 E.01667
G1 X132.813 Y97.164 E.01672
G1 X133.182 Y97.55 E.01674
G1 X133.533 Y97.954 E.01678
G1 X133.871 Y98.385 E.01717
G1 X134.175 Y98.811 E.01641
G1 X134.464 Y99.263 E.01682
G1 X134.732 Y99.73 E.01688
G1 X134.978 Y100.209 E.01688
G1 X135.207 Y100.719 E.01753
G1 X135.398 Y101.206 E.0164
G1 X135.572 Y101.723 E.0171
G1 X135.721 Y102.25 E.01717
G1 X135.845 Y102.789 E.01734
G1 X135.941 Y103.337 E.01744
G1 X136.011 Y103.895 E.01763
G1 X136.052 Y104.464 E.01789
G1 X136.065 Y105.04 E.01806
G1 X136.05 Y105.582 E.017
G1 X136.009 Y106.121 E.01695
G1 X135.94 Y106.67 E.01735
G1 X135.844 Y107.212 E.01726
G1 X135.719 Y107.759 E.01759
G1 X135.575 Y108.269 E.01662
G1 X135.403 Y108.782 E.01696
G1 X135.207 Y109.282 E.01684
G1 X134.987 Y109.771 E.01681
G1 X134.746 Y110.246 E.0167
G1 X134.479 Y110.713 E.01687
G1 X134.19 Y111.165 E.01682
G1 X133.553 Y112.022 E.03348
G1 X133.204 Y112.426 E.01674
G1 X132.821 Y112.828 E.01741
G1 X132.449 Y113.183 E.01612
G1 X132.045 Y113.534 E.01678
G1 X131.622 Y113.866 E.01686
G1 X131.183 Y114.178 E.01689
G1 X130.718 Y114.475 E.0173
G1 X130.255 Y114.74 E.01673
G1 X129.788 Y114.979 E.01645
G1 X129.28 Y115.207 E.01746
G1 X128.794 Y115.398 E.01637
G1 X128.278 Y115.572 E.01707
G1 X127.75 Y115.721 E.0172
G1 X127.201 Y115.846 E.01765
G1 X126.662 Y115.941 E.01716
G1 X126.105 Y116.011 E.0176
G1 X125.538 Y116.052 E.01782
G1 X124.966 Y116.065 E.01794
G1 X124.42 Y116.05 E.01713
G1 X123.879 Y116.009 E.01701
G1 X123.329 Y115.94 E.01738
G1 X122.787 Y115.844 E.01726
G1 X122.255 Y115.722 E.01711
G1 X121.727 Y115.574 E.01719
G1 X121.219 Y115.403 E.01681
G1 X120.717 Y115.206 E.01691
G1 X119.749 Y114.743 E.03364
G1 X119.278 Y114.473 E.01702
G1 X118.829 Y114.187 E.01669
G1 X118.395 Y113.879 E.01669
G1 X117.976 Y113.551 E.01668
G1 X117.573 Y113.203 E.01669
G1 X117.166 Y112.815 E.01763
G1 X116.467 Y112.046 E.03258
G1 X116.136 Y111.625 E.01679
G1 X115.825 Y111.188 E.01682
G1 X115.807 Y111.16 E.00104
M204 S1000
G1 X115.457 Y111.313 F10800
M204 S800
;TYPE:External perimeter
G1 F1200
G1 X115.209 Y110.926 E.01441
G1 X114.933 Y110.444 E.01742
G1 X114.674 Y109.936 E.01788
G1 X114.442 Y109.419 E.01777
G1 X114.245 Y108.915 E.01697
G1 X114.065 Y108.38 E.0177
G1 X113.911 Y107.835 E.01776
G1 X113.784 Y107.277 E.01794
G1 X113.685 Y106.711 E.01802
G1 X113.613 Y106.133 E.01826
G1 X113.571 Y105.546 E.01845
G1 X113.558 Y104.943 E.01891
G1 X113.574 Y104.391 E.01731
G1 X113.616 Y103.833 E.01755
G1 X113.688 Y103.265 E.01795
G1 X113.788 Y102.704 E.01787
G1 X113.927 Y102.108 E.01919
G1 X114.067 Y101.612 E.01616
G1 X114.246 Y101.082 E.01754
G1 X114.449 Y100.564 E.01744
G1 X114.676 Y100.059 E.01736
G1 X114.926 Y99.568 E.01728
G1 X115.203 Y99.085 E.01746
G1 X115.501 Y98.618 E.01737
G1 X115.82 Y98.167 E.01732
G1 X116.161 Y97.732 E.01733
M73 P4 R8
G1 X116.522 Y97.315 E.01729
G1 X116.902 Y96.915 E.0173
G1 X117.302 Y96.533 E.01734
G1 X117.721 Y96.171 E.01736
G1 X118.158 Y95.827 E.01744
G1 X118.659 Y95.475 E.0192
G1 X119.562 Y94.93 E.03307
G1 X120.057 Y94.677 E.01743
G1 X120.581 Y94.442 E.01801
G1 X121.084 Y94.245 E.01694
G1 X121.619 Y94.065 E.0177
G1 X122.165 Y93.911 E.01779
G1 X122.791 Y93.772 E.02011
G1 X123.29 Y93.685 E.01588
G1 X123.867 Y93.613 E.01823
G1 X124.453 Y93.571 E.01842
G1 X125.063 Y93.558 E.01913
G1 X125.606 Y93.573 E.01703
G1 X126.204 Y93.621 E.01881
G1 X126.736 Y93.688 E.01681
G1 X127.316 Y93.792 E.01848
G1 X127.847 Y93.914 E.01708
G1 X128.387 Y94.067 E.0176
M73 Q4 S8
G1 X128.917 Y94.245 E.01753
G1 X129.436 Y94.449 E.01748
G1 X129.943 Y94.677 E.01743
G1 X130.437 Y94.929 E.01739
G1 X130.923 Y95.208 E.01757
G1 X131.387 Y95.505 E.01727
G1 X131.836 Y95.823 E.01725
G1 X132.269 Y96.163 E.01726
G1 X132.686 Y96.522 E.01725
G1 X133.085 Y96.903 E.0173
G1 X133.466 Y97.302 E.0173
G1 X133.829 Y97.72 E.01736
G1 X134.178 Y98.165 E.01773
G1 X134.491 Y98.607 E.01698
G1 X134.791 Y99.074 E.0174
G1 X135.068 Y99.557 E.01746
G1 X135.321 Y100.053 E.01746
G1 X135.558 Y100.58 E.01812
G1 X135.755 Y101.084 E.01697
G1 X135.935 Y101.62 E.01773
G1 X136.089 Y102.165 E.01776
G1 X136.216 Y102.723 E.01794
G1 X136.315 Y103.289 E.01802
G1 X136.387 Y103.867 E.01826
G1 X136.429 Y104.455 E.01848
G1 X136.442 Y105.049 E.01863
G1 X136.426 Y105.609 E.01757
G1 X136.376 Y106.23 E.01953
G1 X136.312 Y106.735 E.01596
G1 X136.212 Y107.295 E.01784
G1 X136.082 Y107.86 E.01818
G1 X135.933 Y108.388 E.0172
G1 X135.754 Y108.918 E.01754
G1 X135.551 Y109.436 E.01744
G1 X135.324 Y109.941 E.01736
G1 X135.074 Y110.432 E.01728
G1 X134.777 Y110.947 E.01864
G1 X134.499 Y111.382 E.01619
G1 X134.161 Y111.856 E.01825
G1 X133.839 Y112.268 E.0164
G1 X133.478 Y112.685 E.01729
G1 X133.082 Y113.1 E.01799
G1 X132.697 Y113.467 E.01668
G1 X132.279 Y113.83 E.01736
G1 X131.842 Y114.173 E.01742
G1 X131.388 Y114.495 E.01745
G1 X130.907 Y114.801 E.01787
G1 X130.428 Y115.075 E.0173
G1 X129.944 Y115.322 E.01704
G1 X129.419 Y115.558 E.01805
G1 X128.916 Y115.755 E.01694
G1 X128.32 Y115.952 E.01968
G1 X127.835 Y116.089 E.0158
G1 X127.268 Y116.217 E.01823
G1 X126.71 Y116.315 E.01776
G1 X126.133 Y116.387 E.01823
G1 X125.548 Y116.429 E.01839
G1 X124.956 Y116.442 E.01857
G1 X124.393 Y116.426 E.01766
G1 X123.833 Y116.384 E.01761
G1 X123.264 Y116.311 E.01799
G1 X122.704 Y116.212 E.01783
G1 X122.153 Y116.086 E.01772
G1 X121.608 Y115.931 E.01777
G1 X121.082 Y115.754 E.0174
G1 X120.564 Y115.551 E.01744
G1 X120.027 Y115.308 E.01848
G1 X119.563 Y115.071 E.01634
G1 X118.612 Y114.495 E.03486
G1 X118.164 Y114.177 E.01723
G1 X117.73 Y113.837 E.01729
G1 X117.314 Y113.477 E.01725
G1 X116.894 Y113.076 E.01821
G1 X116.534 Y112.698 E.01637
G1 X116.171 Y112.28 E.01736
G1 X115.829 Y111.845 E.01735
G1 X115.508 Y111.393 E.01738
G1 X115.489 Y111.363 E.00111
M204 S1000
;WIPE_START
G1 F8640
G1 X115.457 Y111.313 E-.01371
G1 X115.209 Y110.926 E-.10613
G1 X114.933 Y110.444 E-.12825
G1 X114.674 Y109.936 E-.13166
G1 X114.442 Y109.419 E-.13085
G1 X114.245 Y108.915 E-.12495
G1 X114.065 Y108.38 E-.13034
G1 X114.025 Y108.238 E-.03411
;WIPE_END
G1 Z.6 F720
G1 X133.353 Y106.379 F10800
G1 Z.2 F720
G1 E.8 F2100
M204 S800
;TYPE:Perimeter
G1 F1200
G1 X133.364 Y106.435 E.00179
G1 X133.266 Y106.927 E.01573
G1 X133.047 Y107.477 E.01856
G1 X132.732 Y108.143 E.0231
G1 X132.329 Y108.924 E.02756
G1 X131.667 Y110.11 E.04259
G1 X131.337 Y110.619 E.01902
G1 X130.959 Y111.032 E.01755
G1 X130.537 Y111.19 E.01413
G1 X130.079 Y111.131 E.01448
G1 X129.32 Y110.701 E.02735
G1 X128.856 Y110.339 E.01845
G1 X128.44 Y109.962 E.0176
;WIDTH:0.455737
G1 X128.006 Y109.483 E.02219
;WIDTH:0.465743
G1 X127.873 Y109.321 E.00737
G1 X127.762 Y108.857 E.01677
;WIDTH:0.419999
G1 X127.865 Y108.34 E.01653
G1 X128.093 Y107.762 E.01948
G1 X128.639 Y106.659 E.03859
G1 X128.907 Y106.164 E.01765
G1 X129.365 Y105.471 E.02605
G1 X129.549 Y105.233 E.00943
G1 X129.791 Y105.032 E.00986
G1 X129.897 Y104.988 E.0036
G1 X129.568 Y104.759 E.01257
G1 X129.262 Y104.361 E.01574
G1 X128.976 Y103.906 E.01685
G1 X128.409 Y102.869 E.03706
G1 X128.121 Y102.285 E.02042
G1 X127.894 Y101.734 E.01868
G1 X127.778 Y101.243 E.01582
;WIDTH:0.432207
G1 X127.792 Y100.926 E.01027
;WIDTH:0.458735
G1 X127.886 Y100.644 E.01028
G1 X128.106 Y100.365 E.01228
;WIDTH:0.432281
G1 X128.669 Y99.828 E.02519
;WIDTH:0.419999
G1 X129.119 Y99.465 E.01813
G1 X129.744 Y99.053 E.02347
G1 X130.059 Y98.873 E.01138
G1 X130.386 Y98.783 E.01063
G1 X130.717 Y98.818 E.01044
G1 X130.921 Y98.931 E.00731
G1 X131.293 Y99.28 E.01599
G1 X131.631 Y99.787 E.01911
G1 X132.013 Y100.445 E.02386
G1 X132.951 Y102.289 E.06487
G1 X133.231 Y102.953 E.02259
G1 X133.351 Y103.441 E.01576
G1 X133.351 Y103.695 E.00796
G1 X133.205 Y104.052 E.01209
G1 X132.882 Y104.351 E.0138
G1 X132.339 Y104.624 E.01906
G1 X131.762 Y104.82 E.01911
G1 X131.216 Y104.959 E.01767
G1 X131.011 Y104.991 E.00651
G1 X131.706 Y105.17 E.0225
G1 X132.254 Y105.355 E.01813
G1 X132.877 Y105.652 E.02164
G1 X133.11 Y105.83 E.00919
G1 X133.286 Y106.068 E.00928
G1 X133.34 Y106.321 E.00811
M204 S1000
G1 X132.982 Y106.413 F10800
M204 S800
;TYPE:External perimeter
G1 F1200
G1 X132.987 Y106.431 E.00059
G1 X132.914 Y106.791 E.01152
G1 X132.697 Y107.337 E.01842
M73 P5 R8
G1 X132.391 Y107.98 E.02233
G1 X131.758 Y109.199 E.04307
G1 X131.341 Y109.921 E.02614
G1 X131.022 Y110.413 E.01839
G1 X130.707 Y110.74 E.01424
G1 X130.417 Y110.816 E.0094
G1 X130.14 Y110.75 E.00893
G1 X129.513 Y110.377 E.02287
G1 X129.091 Y110.044 E.01685
G1 X128.693 Y109.683 E.01685
G1 X128.308 Y109.229 E.01866
